Fusion/LUTs/Alexandru-Don-LUTs-v2/Alexandru-Don-LUTs/Slog 3 Luts/AlexDon_Christmas_LUT_Sony.cube
TITLE "Generated by Resolve"
LUT_3D_SIZE 5
0.0147555 0.0211948 0.0270237
0.073518 0.0268101 0.0332647
0.760296 0.141024 0.0838026
0.937942 0.16907 0.0950332
0.937942 0.16907 0.0950332
0.0190585 0.0341192 0.0319524
0.0263371 0.0278477 0.030518
0.681956 0.124865 0.0765393
0.937942 0.16907 0.0950332
0.937942 0.16907 0.0950332
0.210346 0.418082 0.262013
0.215091 0.426184 0.267124
0.40911 0.406912 0.2038
0.950286 0.416922 0.16379
0.949233 0.39794 0.156664
0.445991 0.832746 0.519844
0.445747 0.831952 0.5196
0.496452 0.775692 0.488334
0.802792 0.802625 0.393637
0.953719 0.782177 0.359258
0.455055 0.854124 0.529458
0.455055 0.854124 0.529458
0.490913 0.856672 0.532128
0.76556 0.911513 0.561425
0.9514 0.952209 0.516548
0.0156558 0.0230564 0.0711833
0.0717937 0.0279545 0.0676127
0.749233 0.138659 0.0827497
0.937942 0.16907 0.0950332
0.937942 0.16907 0.0950332
0.0178531 0.0307469 0.0354925
0.0257725 0.0282139 0.0337682
0.683665 0.125185 0.0766766
0.937942 0.16907 0.0950332
0.937942 0.16907 0.0950332
0.213993 0.424277 0.265919
0.218296 0.431678 0.270619
0.414252 0.411917 0.205966
0.950011 0.419242 0.164431
0.949371 0.399771 0.157366
0.446799 0.834379 0.520714
0.446723 0.833722 0.520684
0.498116 0.777417 0.489418
0.804471 0.804074 0.39501
0.953643 0.783658 0.360098
0.455055 0.854124 0.529458
0.455055 0.854124 0.529458
0.491234 0.856718 0.532174
0.765988 0.911604 0.56141
0.9514 0.952209 0.516548
0.063447 0.0879988 0.545815
0.0937972 0.0881971 0.541588
0.648341 0.153628 0.572335
0.918181 0.184955 0.529732
0.919341 0.183688 0.515282
0.0555123 0.0792859 0.477043
0.0573587 0.0763104 0.466056
0.605219 0.141894 0.533089
0.918486 0.184558 0.525872
0.918914 0.184009 0.5205
0.169299 0.422202 0.424704
0.173037 0.430091 0.432929
0.386954 0.382391 0.384314
0.940475 0.397879 0.331884
0.944457 0.376776 0.306111
0.437736 0.82089 0.589944
0.437812 0.820417 0.588922
0.477226 0.753979 0.525872
0.777813 0.776898 0.422034
0.956619 0.75639 0.363607
0.456168 0.85687 0.572381
0.456107 0.856596 0.568475
0.481056 0.856596 0.542443
0.750393 0.907149 0.564019
0.9514 0.952209 0.516548
0.0724041 0.0992905 0.657267
0.0874189 0.10013 0.660853
0.5953 0.168933 0.774975
0.873686 0.216175 0.814923
0.873686 0.216175 0.814923
0.0724041 0.0992905 0.657267
0.072694 0.099443 0.657359
0.567605 0.163363 0.772946
0.873686 0.216175 0.814923
0.873686 0.216175 0.814923
0.1579 0.433845 0.759136
0.160037 0.440009 0.761257
0.359243 0.383963 0.770642
0.885603 0.413062 0.827314
0.900816 0.387472 0.81442
0.366476 0.837461 0.839734
0.365194 0.835554 0.837598
0.403082 0.764584 0.770748
0.758419 0.750423 0.749905
0.958633 0.728298 0.707546
0.421973 0.887251 0.809995
0.423285 0.886473 0.805463
0.450797 0.880964 0.768093
0.758373 0.907912 0.779263
0.955108 0.955734 0.747173
0.0724041 0.0992905 0.657267
0.0817426 0.0997787 0.65948
0.583734 0.1664 0.773999
0.873686 0.216175 0.814923
0.873686 0.216175 0.814923
0.0724193 0.099382 0.657282
0.073106 0.0993362 0.65742
0.563424 0.162554 0.772778
0.873686 0.216175 0.814923
0.873686 0.216175 0.814923
0.155825 0.427817 0.757046
0.15758 0.432883 0.758846
0.349996 0.373846 0.767071
0.876539 0.40264 0.84033
0.892088 0.382925 0.839231
0.351293 0.833585 0.884871
0.349386 0.831159 0.884001
0.371237 0.764767 0.862913
0.732982 0.740505 0.902571
0.936934 0.723537 0.909178
0.412406 0.901427 0.907332
0.412406 0.901427 0.907332
0.424552 0.9019 0.907744
0.723583 0.925414 0.929183
0.95906 0.958846 0.95935
