Fusion/LUTs/Alexandru-Don-LUTs-v2/Alexandru-Don-LUTs/Slog 3 Luts/AlexDon_Christmas_LUT_Sony.cube
TITLE "Generated by Resolve"
LUT_3D_SIZE 33
0.0147555 0.0211948 0.0270237
0.0147555 0.0211948 0.0270237
0.0147555 0.0211948 0.0270237
0.0147555 0.0211948 0.0270237
0.0147555 0.0211948 0.0270237
0.0147555 0.0211948 0.0270237
0.0179446 0.0214847 0.0274052
0.033875 0.0229343 0.0295109
0.073518 0.0268101 0.0332647
0.138155 0.0344091 0.0374151
0.220462 0.0464637 0.043534
0.317342 0.0616312 0.0507515
0.41529 0.0770581 0.0569467
0.508019 0.0924697 0.062562
0.596979 0.108492 0.0691386
0.681682 0.124834 0.0764935
0.760296 0.141024 0.0838026
0.830167 0.156466 0.0903334
0.88333 0.166155 0.0941024
0.918441 0.168246 0.0948196
0.936522 0.169009 0.0950179
0.937942 0.16907 0.0950332
0.937942 0.16907 0.0950332
0.937942 0.16907 0.0950332
0.937942 0.16907 0.0950332
0.937942 0.16907 0.0950332
0.937942 0.16907 0.0950332
0.937942 0.16907 0.0950332
0.937942 0.16907 0.0950332
0.937942 0.16907 0.0950332
0.937942 0.16907 0.0950332
0.937942 0.16907 0.0950332
0.937942 0.16907 0.0950332
0.0147555 0.0211948 0.0270237
0.0147555 0.0211948 0.0270237
0.0147555 0.0211948 0.0270237
0.0147555 0.0211948 0.0270237
0.0147555 0.0211948 0.0270237
0.0147555 0.0211948 0.0270237
0.0203708 0.0216983 0.0277409
0.0415503 0.0236362 0.0303807
0.0851606 0.027985 0.0339971
0.149889 0.0360266 0.0382239
0.233326 0.0484932 0.0445411
0.329473 0.0635233 0.051545
0.425772 0.0787518 0.0575418
0.517174 0.0940719 0.0631876
0.605371 0.110094 0.0698405
0.689067 0.126314 0.0771649
0.767178 0.142535 0.0844739
0.835996 0.157839 0.0908675
0.886671 0.166339 0.0941634
0.921401 0.168368 0.0948501
0.936629 0.169009 0.0950179
0.937942 0.16907 0.0950332
0.937942 0.16907 0.0950332
0.937942 0.16907 0.0950332
0.937942 0.16907 0.0950332
0.937942 0.16907 0.0950332
0.937942 0.16907 0.0950332
0.937942 0.16907 0.0950332
0.937942 0.16907 0.0950332
0.937942 0.16907 0.0950332
0.937942 0.16907 0.0950332
0.937942 0.16907 0.0950332
0.937942 0.16907 0.0950332
0.0147555 0.0211948 0.0270237
0.0147555 0.0211948 0.0270237
0.0147555 0.0211948 0.0270237
0.0147555 0.0211948 0.0270237
0.0147555 0.0211948 0.0270237
0.0147555 0.0211948 0.0270237
0.0194705 0.021622 0.0276188
0.0393988 0.0234379 0.0301823
0.0810712 0.0275273 0.0336919
0.142763 0.03505 0.0377356
0.222538 0.0468299 0.0436866
0.316732 0.0615244 0.0506447
0.412879 0.0766766 0.0567483
0.504417 0.0918593 0.0623484
0.592447 0.107683 0.0688182
0.676844 0.123903 0.0760662
0.755764 0.140093 0.0833906
0.826307 0.155764 0.090013
0.879713 0.165301 0.0937819
0.917311 0.1682 0.0948043
0.935119 0.168948 0.0950027
0.937942 0.16907 0.0950332
0.937942 0.16907 0.0950332
0.937942 0.16907 0.0950332
0.937942 0.16907 0.0950332
0.937942 0.16907 0.0950332
0.937942 0.16907 0.0950332
0.937942 0.16907 0.0950332
0.937942 0.16907 0.0950332
0.937942 0.16907 0.0950332
0.937942 0.16907 0.0950332
0.937942 0.16907 0.0950332
0.937942 0.16907 0.0950332
0.0147555 0.0211948 0.0270237
0.0147555 0.0211948 0.0270237
0.0147555 0.0211948 0.0270237
0.0147555 0.0211948 0.0270237
0.0147555 0.0211948 0.0270237
0.0147555 0.0211948 0.0270237
0.0167239 0.0213779 0.0272679
0.0316777 0.0227512 0.0293431
0.0684367 0.0261692 0.0327459
0.12578 0.0327459 0.0365606
0.200946 0.043534 0.0419928
0.292683 0.0577707 0.0489662
0.388861 0.0728161 0.055314
0.480949 0.0878157 0.0608225
0.569085 0.103334 0.0669718
0.653788 0.119356 0.0740215
0.734203 0.1355 0.0813458
0.807553 0.151568 0.0883192
0.866835 0.163622 0.0931411
0.908598 0.167834 0.0946975
0.932799 0.168841 0.0949721
0.937942 0.16907 0.0950332
0.937942 0.16907 0.0950332
0.937942 0.16907 0.0950332
0.937942 0.16907 0.0950332
0.937942 0.16907 0.0950332
0.937942 0.16907 0.0950332
0.937942 0.16907 0.0950332
0.937942 0.16907 0.0950332
0.937942 0.16907 0.0950332
0.937942 0.16907 0.0950332
0.937942 0.16907 0.0950332
0.937942 0.16907 0.0950332
0.0147555 0.0211948 0.0270237
0.0147555 0.0211948 0.0270237
0.0147555 0.0211948 0.0270237
0.0147555 0.0211948 0.0270237
0.0147555 0.0211948 0.0270237
0.0147555 0.0211948 0.0270237
0.0151217 0.0212253 0.0270695
0.0259403 0.0222324 0.0285954
0.0579385 0.0251011 0.0318914
0.112078 0.0310216 0.0356603
0.185473 0.0412146 0.0408331
0.276417 0.0552224 0.0478218
0.373892 0.0704509 0.0544137
0.467369 0.0855573 0.0599832
0.556558 0.101061 0.0660105
0.642496 0.117159 0.0730297
0.723995 0.133379 0.0803845
0.799344 0.149706 0.0875563
0.861906 0.162982 0.0928969
0.90544 0.167651 0.0946365
0.932586 0.168841 0.0949721
0.937942 0.16907 0.0950332
0.937942 0.16907 0.0950332
0.937942 0.16907 0.0950332
0.937942 0.16907 0.0950332
0.937942 0.16907 0.0950332
0.937942 0.16907 0.0950332
0.937942 0.16907 0.0950332
0.937942 0.16907 0.0950332
0.937942 0.16907 0.0950332
0.937942 0.16907 0.0950332
0.937942 0.16907 0.0950332
0.937942 0.16907 0.0950332
0.0147555 0.0211948 0.0270237
0.0147555 0.0211948 0.0270237
0.0147555 0.0211948 0.0270237
0.0147555 0.0211948 0.0270237
0.0147555 0.0211948 0.0270237
0.0147555 0.0211948 0.0270237
0.0148013 0.0211948 0.0270237
0.0222629 0.0218814 0.0280461
0.0494392 0.0243381 0.0311742
0.100557 0.0296941 0.0349737
0.171862 0.0392157 0.0398413
0.262348 0.0530251 0.0467994
0.361364 0.0684977 0.0536202
0.457847 0.0839857 0.0594186
0.54931 0.0997635 0.0654917
0.636896 0.116106 0.0725261
0.720211 0.132616 0.0800336
0.797696 0.14934 0.0873884
0.861418 0.162829 0.0928359
0.90573 0.16759 0.0946212
0.933165 0.168872 0.0949874
0.937942 0.16907 0.0950332
0.937942 0.16907 0.0950332
0.937942 0.16907 0.0950332
0.937942 0.16907 0.0950332
0.937942 0.16907 0.0950332
0.937942 0.16907 0.0950332
0.937942 0.16907 0.0950332
0.937942 0.16907 0.0950332
0.937942 0.16907 0.0950332
0.937942 0.16907 0.0950332
0.937942 0.16907 0.0950332
0.937942 0.16907 0.0950332
0.0147555 0.0211948 0.0270237
0.0147555 0.0211948 0.0270237
0.0147555 0.0211948 0.0270237
0.0147555 0.0211948 0.0270237
0.0147555 0.0211948 0.0270237
0.0147555 0.0211948 0.0270237
0.0147555 0.0211948 0.0270237
0.0191043 0.0215915 0.0275731
0.0413367 0.023621 0.0304417
0.0889754 0.028397 0.0342107
0.158114 0.0372168 0.0388495
0.247105 0.05066 0.0456245
0.34757 0.0663462 0.0527352
0.44622 0.0820783 0.0587167
0.540032 0.0981155 0.0648051
0.629786 0.114733 0.0719158
0.715572 0.131655 0.0795911
0.795132 0.148745 0.0871443
0.860838 0.162722 0.0928054
0.905745 0.167559 0.0946212
0.933486 0.168872 0.0949874
0.937911 0.16907 0.0950332
0.937942 0.16907 0.0950332
0.937942 0.16907 0.0950332
0.937942 0.16907 0.0950332
0.937942 0.16907 0.0950332
0.937942 0.16907 0.0950332
0.937942 0.16907 0.0950332
0.937942 0.16907 0.0950332
0.937942 0.16907 0.0950332
0.937942 0.16907 0.0950332
0.937942 0.16907 0.0950332
0.937942 0.16907 0.0950332
0.0153658 0.0231479 0.0276951
0.0153658 0.0231785 0.0277104
0.0152285 0.0227207 0.0275425
0.0151369 0.0224155 0.0274357
0.0150759 0.0222171 0.0273747
0.0149844 0.0219425 0.0272831
0.0148623 0.0215457 0.0271458
0.0163577 0.0213931 0.0272374
0.0327153 0.022858 0.0294804
0.075349 0.0269322 0.0332036
0.141649 0.0349279 0.0376898
0.228992 0.0478676 0.0442206
0.329763 0.0635538 0.051545
0.430488 0.0794995 0.0577707
0.525078 0.0954604 0.0637369
0.616159 0.112139 0.0707408
0.7028 0.129046 0.0784009
0.783658 0.146151 0.0860304
0.853239 0.161456 0.0922866
0.900511 0.167208 0.0944991
0.932311 0.168826 0.0949874
0.937804 0.16907 0.0950332
0.937942 0.16907 0.0950332
0.937942 0.16907 0.0950332
0.937942 0.16907 0.0950332
0.937942 0.16907 0.0950332
0.937942 0.16907 0.0950332
0.937942 0.16907 0.0950332
0.937942 0.16907 0.0950332
0.937942 0.16907 0.0950332
0.937942 0.16907 0.0950332
0.937942 0.16907 0.0950332
0.937942 0.16907 0.0950332
0.0190585 0.0341192 0.0319524
0.0191196 0.034226 0.0320134
0.0186465 0.0327611 0.0314794
0.0183871 0.0319677 0.0311894
0.0182498 0.0315404 0.0310521
0.0180514 0.0309148 0.0308385
0.0176394 0.0296788 0.0303502
0.0172122 0.0283055 0.0297856
0.0263371 0.0278477 0.030518
0.0602884 0.0298161 0.0333257
0.121126 0.0352483 0.0369421
0.20444 0.045594 0.0425116
0.304738 0.0602731 0.049897
0.407156 0.0759442 0.0564126
0.503426 0.0916915 0.0622416
0.594903 0.108095 0.0690013
0.681956 0.124865 0.0765393
0.764767 0.141985 0.0842451
0.838514 0.158602 0.0911727
0.890654 0.166491 0.0942245
0.928389 0.168673 0.0949416
0.937499 0.169055 0.0950332
0.937942 0.16907 0.0950332
0.937942 0.16907 0.0950332
0.937942 0.16907 0.0950332
0.937942 0.16907 0.0950332
0.937942 0.16907 0.0950332
0.937942 0.16907 0.0950332
0.937942 0.16907 0.0950332
0.937942 0.16907 0.0950332
0.937942 0.16907 0.0950332
0.937942 0.16907 0.0950332
0.937942 0.16907 0.0950332
0.028397 0.0590829 0.043534
0.0284733 0.059266 0.0436561
0.0279545 0.0579538 0.0430152
0.0277104 0.0573739 0.0427405
0.0278477 0.0577096 0.0429541
0.0278325 0.0576791 0.0429541
0.0274662 0.0567483 0.0424964
0.0264897 0.0542916 0.0412451
0.0285344 0.050721 0.0396887
0.0499886 0.0487526 0.0400702
0.100755 0.049546 0.0408026
0.177417 0.0542611 0.0431983
0.274403 0.0647288 0.0489204
0.377264 0.0778058 0.0550393
0.475105 0.0915999 0.0606699
0.56759 0.106538 0.0670634
0.655497 0.122118 0.0743572
0.739712 0.138384 0.0820172
0.817014 0.154864 0.0893263
0.876875 0.165621 0.0937667
0.918563 0.168261 0.0948196
0.93669 0.169009 0.0950179
0.937942 0.16907 0.0950332
0.937942 0.16907 0.0950332
0.937942 0.169085 0.0950332
0.937942 0.16907 0.0950332
0.937942 0.16907 0.0950332
0.937942 0.16907 0.0950332
0.937942 0.16907 0.0950332
0.937942 0.16907 0.0950332
0.937942 0.16907 0.0950332
0.937942 0.16907 0.0950332
0.937942 0.16907 0.0950332
0.0421759 0.0929885 0.062562
0.0422065 0.0930495 0.0626078
0.0415351 0.0914626 0.0616922
0.0415045 0.0914168 0.061677
0.0420081 0.0925917 0.0623636
0.0424659 0.0936294 0.062974
0.0423133 0.0932326 0.0627604
0.0412757 0.0907759 0.061326
0.0397498 0.086717 0.0589914
0.0510414 0.082887 0.0575875
0.0864576 0.0825818 0.0559548
0.151278 0.0853742 0.0525216
0.242023 0.0908064 0.0525063
0.343313 0.0988174 0.0560464
0.441917 0.108354 0.0605936
0.535897 0.119371 0.0663462
0.624598 0.131884 0.0731365
0.709697 0.1458 0.0805676
0.790326 0.160342 0.087953
0.858701 0.17232 0.0937057
0.904936 0.175051 0.0953841
0.934829 0.175555 0.0956741
0.938109 0.174884 0.0956283
0.938109 0.174105 0.0955367
0.938079 0.173449 0.0954452
0.938064 0.173098 0.0954299
0.938064 0.172793 0.0953994
0.938048 0.172442 0.0953689
0.938048 0.172168 0.0953384
0.938033 0.171862 0.0953078
0.938033 0.171725 0.0952926
0.938018 0.171603 0.0952773
0.938018 0.171496 0.0952773
0.0617227 0.136553 0.0888533
0.061799 0.13666 0.0889296
0.0609751 0.134936 0.0878614
0.0609751 0.134966 0.0878614
0.0617838 0.13666 0.0888991
0.0627604 0.138643 0.090135
0.063035 0.139162 0.0904555
0.0618448 0.13669 0.0889296
0.0597238 0.132235 0.086183
0.0634012 0.12694 0.0833448
0.0850233 0.124346 0.082536
0.131258 0.125811 0.0760967
0.208042 0.128542 0.0667887
0.305867 0.132418 0.0636301
0.405859 0.138933 0.0655528
0.500969 0.14847 0.0699931
0.590661 0.160021 0.0757916
0.676677 0.172961 0.0824292
0.759197 0.187182 0.0893416
0.834455 0.201587 0.0959029
0.889738 0.208148 0.0990616
0.928756 0.207614 0.099321
0.939132 0.205142 0.0991226
0.939101 0.202075 0.0987106
0.938994 0.199222 0.0983291
0.938949 0.197986 0.0981765
0.938918 0.197024 0.0980697
0.938872 0.195865 0.0979324
0.938827 0.194781 0.0977951
0.938796 0.193835 0.097673
0.938796 0.193606 0.0976425
0.938796 0.193912 0.0976577
0.938796 0.193927 0.0976577
0.0864881 0.185794 0.11899
0.0865034 0.185794 0.118959
0.0856947 0.184192 0.117968
0.0859083 0.184604 0.118196
0.087129 0.186984 0.119646
0.0884565 0.189578 0.121218
0.0891585 0.190951 0.122057
0.0882734 0.189227 0.121019
0.0860304 0.184863 0.118364
0.0844587 0.179004 0.114839
0.097734 0.173831 0.112428
0.127886 0.172107 0.11043
0.180667 0.17406 0.0985122
0.266987 0.176089 0.0837415
0.367971 0.178897 0.0784009
0.464591 0.185458 0.0802319
0.554986 0.194842 0.0843519
0.641047 0.206378 0.08925
0.725216 0.219684 0.0947127
0.804135 0.233845 0.100572
0.870832 0.245808 0.105348
0.914916 0.246769 0.105837
0.940169 0.245136 0.10602
0.940856 0.241718 0.105348
0.940703 0.238697 0.104738
0.940627 0.236698 0.104311
0.940566 0.235416 0.104036
0.940505 0.234028 0.103746
0.940444 0.232639 0.103441
0.940383 0.231388 0.103166
0.940368 0.231052 0.103075
0.940383 0.231449 0.103136
0.940383 0.231434 0.103136
0.114153 0.239139 0.150622
0.114092 0.239033 0.150561
0.113222 0.237385 0.149569
0.113771 0.238468 0.150225
0.115312 0.241489 0.152056
0.117006 0.244785 0.154055
0.118105 0.246921 0.155337
0.117556 0.245853 0.154711
0.115358 0.241611 0.152163
0.112337 0.23563 0.148577
0.117739 0.228946 0.144854
0.140627 0.223682 0.142504
0.176364 0.223651 0.138247
0.236057 0.227573 0.12221
0.327535 0.229938 0.104112
0.42707 0.232486 0.0968643
0.51928 0.238224 0.0974594
0.605875 0.247227 0.100999
0.690303 0.258473 0.105531
0.771405 0.270878 0.110262
0.84506 0.283497 0.114717
0.899184 0.288685 0.116274
0.936095 0.287373 0.116503
0.942779 0.284398 0.116426
0.942626 0.280766 0.115312
0.942489 0.277714 0.114366
0.942428 0.276097 0.113848
0.942351 0.274342 0.113268
0.94226 0.272526 0.112673
0.942199 0.270909 0.112123
0.942168 0.270329 0.111879
0.942184 0.27071 0.111955
0.942184 0.27068 0.111925
0.144289 0.297887 0.186282
0.144335 0.297932 0.186328
0.143511 0.296345 0.185351
0.144259 0.297826 0.186236
0.145968 0.301137 0.188281
0.147906 0.304829 0.19057
0.149279 0.307439 0.192203
0.149203 0.307286 0.192126
0.147112 0.303273 0.189639
0.143847 0.296986 0.185748
0.14342 0.289677 0.181369
0.159152 0.282567 0.17763
0.190402 0.278965 0.175509
0.230304 0.281636 0.168795
0.294194 0.287327 0.148852
0.385901 0.28957 0.127275
0.482963 0.291356 0.117372
0.572305 0.296025 0.116197
0.656489 0.303807 0.118807
0.738277 0.313008 0.122576
0.814862 0.323232 0.126543
0.880278 0.332082 0.129778
0.923476 0.331472 0.129595
0.944533 0.329274 0.131456
0.944869 0.325002 0.130129
0.944671 0.321065 0.128756
0.944533 0.318593 0.127916
0.944411 0.316518 0.127184
0.944289 0.314275 0.126406
0.944183 0.312322 0.12575
0.944137 0.311513 0.12546
0.944152 0.311864 0.125582
0.944152 0.311803 0.125566
0.176562 0.358419 0.224155
0.176577 0.358389 0.22414
0.175906 0.357122 0.223362
0.176806 0.35874 0.224369
0.178744 0.362264 0.226581
0.180896 0.366171 0.229053
0.182589 0.369207 0.230991
0.182544 0.369131 0.230945
0.180591 0.365621 0.228702
0.177157 0.359411 0.224765
0.173587 0.352026 0.220142
0.183047 0.344228 0.215549
0.209827 0.338064 0.212284
0.245029 0.33666 0.210025
0.288182 0.34165 0.200214
0.352346 0.348333 0.176211
0.441474 0.350698 0.152193
0.535988 0.350942 0.139574
0.624033 0.353826 0.135958
0.707012 0.359243 0.137133
0.785306 0.366705 0.140078
0.856199 0.37496 0.143465
0.909499 0.377722 0.144457
0.942138 0.374777 0.14612
0.947524 0.370626 0.146487
0.947234 0.365728 0.144686
0.947021 0.362448 0.143481
0.946868 0.35993 0.142565
0.9467 0.357214 0.141573
0.946563 0.354833 0.140703
0.946502 0.353857 0.140352
0.946532 0.35433 0.14052
0.946532 0.354253 0.14049
0.210346 0.418082 0.262013
0.21033 0.418021 0.261967
0.209705 0.416907 0.261265
0.210742 0.418647 0.262364
0.213001 0.422538 0.264805
0.215259 0.426444 0.267292
0.216815 0.429145 0.269001
0.217105 0.429648 0.269306
0.215091 0.426184 0.267124
0.211688 0.420279 0.263386
0.20737 0.412802 0.258656
0.211063 0.404486 0.253529
0.232136 0.396765 0.249149
0.264561 0.392203 0.246601
0.302022 0.39379 0.243671
0.346303 0.400259 0.230335
0.40911 0.406912 0.2038
0.494224 0.408896 0.17847
0.587549 0.408011 0.162921
0.675944 0.409079 0.156466
0.757076 0.412741 0.156024
0.829908 0.418235 0.158145
0.89276 0.423072 0.15996
0.933181 0.42031 0.159899
0.950286 0.416922 0.16379
0.950164 0.411612 0.161868
0.949859 0.407141 0.160159
0.94966 0.404196 0.159045
0.949462 0.401328 0.157961
0.949279 0.39855 0.156893
0.949218 0.397589 0.156527
0.949248 0.398032 0.15671
0.949233 0.39794 0.156664
0.244572 0.476722 0.299138
0.244511 0.4766 0.299046
0.244068 0.475837 0.298558
0.245075 0.477577 0.299641
0.247257 0.481331 0.302022
0.249531 0.485252 0.304509
0.250965 0.487709 0.306065
0.251255 0.488212 0.306386
0.249485 0.485191 0.304463
0.245991 0.479149 0.300633
0.241398 0.47126 0.295628
0.24036 0.462425 0.290135
0.256031 0.453819 0.285084
0.285573 0.447364 0.281544
0.320027 0.445304 0.27953
0.357809 0.448798 0.274815
0.402197 0.455482 0.258625
0.46363 0.461799 0.230274
0.546227 0.46363 0.204074
0.638529 0.462028 0.186587
0.726848 0.46125 0.177325
0.804654 0.463325 0.17496
0.87219 0.467185 0.175982
0.92256 0.467292 0.176135
0.95053 0.463523 0.180255
0.953231 0.458183 0.17998
0.952895 0.452857 0.177874
0.952667 0.449546 0.176562
0.952468 0.446494 0.175372
0.95227 0.443626 0.174243
0.952193 0.442496 0.1738
0.952209 0.442725 0.173892
0.952224 0.442756 0.173907
0.278279 0.534722 0.335821
0.27834 0.534859 0.335912
0.277775 0.533898 0.335286
0.278676 0.535424 0.336248
0.280781 0.539071 0.338567
0.282734 0.542443 0.340703
0.284291 0.545113 0.342397
0.284352 0.545235 0.342489
0.282506 0.542031 0.340459
0.278874 0.53579 0.336492
0.274235 0.527794 0.331441
0.2701 0.518486 0.325582
0.280491 0.509117 0.319951
0.306279 0.500999 0.315328
0.338033 0.496208 0.312596
0.373068 0.496635 0.310491
0.410376 0.501259 0.3037
0.454902 0.50811 0.285145
0.515862 0.514061 0.255589
0.59649 0.515496 0.228824
0.687465 0.513313 0.210224
0.774868 0.511696 0.198962
0.849653 0.512352 0.194339
0.909056 0.513954 0.193927
0.945388 0.509834 0.19472
0.956405 0.505653 0.199756
0.956054 0.499916 0.197269
0.955779 0.495949 0.195544
0.955566 0.492668 0.194141
0.955337 0.489525 0.192813
0.955261 0.488228 0.192264
0.955276 0.488563 0.192401
0.955276 0.488594 0.192416
0.311299 0.591745 0.37203
0.311376 0.591852 0.372107
0.310796 0.59089 0.371481
0.311482 0.592081 0.372229
0.313405 0.595407 0.374334
0.315175 0.598459 0.376287
0.316518 0.600763 0.377752
0.316518 0.600763 0.377768
0.314519 0.597314 0.37557
0.310719 0.590753 0.371389
0.305913 0.582452 0.36611
0.300618 0.572839 0.360006
0.305806 0.562905 0.353918
0.326696 0.553536 0.348424
0.355718 0.54667 0.344564
0.388724 0.54435 0.342809
0.42359 0.546792 0.339986
0.460548 0.552148 0.331273
0.505501 0.558999 0.311009
0.566094 0.564569 0.280171
0.645502 0.566079 0.253376
0.735302 0.563821 0.234318
0.819654 0.561212 0.221378
0.889372 0.560357 0.214633
0.936843 0.557549 0.212451
0.959106 0.553796 0.221332
0.959243 0.547921 0.219059
0.958938 0.543114 0.21677
0.958709 0.53962 0.215122
0.958495 0.536477 0.213642
0.958404 0.535058 0.21297
0.958419 0.535363 0.213107
0.958419 0.535363 0.213107
0.343236 0.647044 0.407126
0.343313 0.647166 0.407187
0.342672 0.646067 0.406485
0.343252 0.647105 0.407126
0.344823 0.649821 0.40885
0.346426 0.652613 0.41062
0.347387 0.654261 0.411673
0.347127 0.653819 0.411399
0.345251 0.650553 0.409308
0.341466 0.643992 0.405142
0.336461 0.635325 0.399649
0.330831 0.625528 0.393454
0.331121 0.615015 0.386908
0.347127 0.605066 0.380911
0.373846 0.596841 0.37615
0.404639 0.592477 0.373785
0.43801 0.592538 0.372549
0.472145 0.596216 0.368582
0.509361 0.601907 0.358099
0.554986 0.608515 0.336126
0.615625 0.614374 0.304097
0.693568 0.615717 0.27744
0.780667 0.613123 0.258366
0.860441 0.609583 0.244312
0.92311 0.606668 0.236225
0.956786 0.601465 0.238666
0.962142 0.596277 0.243336
0.961852 0.590845 0.240421
0.961654 0.587167 0.238514
0.961456 0.583947 0.236866
0.961379 0.582513 0.236133
0.961395 0.582757 0.236271
0.961395 0.582742 0.236255
0.373541 0.699886 0.440314
0.373602 0.699992 0.440375
0.3729 0.698772 0.439597
0.373251 0.699397 0.439979
0.374594 0.701732 0.441444
0.375845 0.703929 0.442817
0.376501 0.705074 0.443534
0.376089 0.704326 0.443076
0.374258 0.701106 0.441062
0.370718 0.694911 0.437201
0.365774 0.686259 0.4318
0.360143 0.676432 0.425666
0.357015 0.665965 0.41912
0.368215 0.65597 0.413031
0.392386 0.646906 0.40763
0.420966 0.640681 0.404211
0.452689 0.638697 0.403006
0.48574 0.640452 0.401465
0.519799 0.644785 0.395987
0.557397 0.650767 0.384176
0.603357 0.657328 0.360769
0.663386 0.662913 0.327062
0.740353 0.664195 0.30074
0.823362 0.661814 0.282551
0.897276 0.657633 0.268269
0.94754 0.651804 0.262348
0.96376 0.645869 0.271717
0.963699 0.639887 0.268009
0.963653 0.635737 0.265461
0.963607 0.632212 0.26331
0.963592 0.63061 0.262333
0.963592 0.630823 0.26247
0.963592 0.630961 0.262562
0.401526 0.749432 0.471046
0.401587 0.749554 0.471122
0.400946 0.748425 0.470436
0.401068 0.748653 0.470573
0.40209 0.750469 0.471687
0.403098 0.752239 0.47277
0.403601 0.753155 0.473335
0.403174 0.752392 0.472862
0.401419 0.749264 0.470939
0.398032 0.743221 0.467201
0.393439 0.735058 0.46215
0.388083 0.725536 0.45626
0.383001 0.715404 0.449989
0.38967 0.705242 0.443854
0.411017 0.696147 0.438514
0.43769 0.688823 0.434318
0.467765 0.685328 0.432578
0.49984 0.685359 0.432029
0.532647 0.687953 0.429511
0.566491 0.692714 0.422751
0.60444 0.69868 0.409689
0.650965 0.705394 0.384573
0.711345 0.710979 0.349935
0.785763 0.712245 0.324514
0.862989 0.70927 0.306401
0.928237 0.704433 0.295033
0.959152 0.697414 0.300526
0.962097 0.69099 0.299138
0.962432 0.686229 0.296117
0.962661 0.682231 0.29366
0.962737 0.680598 0.292668
0.962722 0.680766 0.292775
0.962707 0.680888 0.292851
0.427146 0.795544 0.49929
0.427268 0.795758 0.499428
0.426719 0.79469 0.498817
0.426764 0.79472 0.498878
0.42771 0.796414 0.499901
0.42858 0.798001 0.500877
0.428992 0.798718 0.50132
0.428473 0.797803 0.50074
0.426825 0.794827 0.498909
0.42388 0.789532 0.495659
0.41944 0.781537 0.490761
0.414389 0.772488 0.485222
0.408911 0.762631 0.479179
0.411383 0.752605 0.473136
0.42884 0.743603 0.467903
0.454032 0.735805 0.463401
0.482429 0.731029 0.46099
0.513451 0.729839 0.460594
0.54551 0.730968 0.459785
0.578073 0.73434 0.456275
0.61236 0.739742 0.448371
0.65124 0.745815 0.434409
0.697734 0.752728 0.407904
0.758022 0.757855 0.372183
0.828565 0.75877 0.347845
0.898268 0.755871 0.332097
0.945846 0.750256 0.33048
0.957641 0.742901 0.332265
0.95819 0.737392 0.328649
0.958541 0.733516 0.326116
0.958709 0.731838 0.325017
0.958694 0.731991 0.325124
0.958679 0.732097 0.3252
0.445991 0.832746 0.519844
0.446097 0.832944 0.519951
0.445792 0.832166 0.519631
0.445838 0.832197 0.519692
0.44625 0.833173 0.520134
0.446769 0.834302 0.520684
0.446952 0.834699 0.520897
0.446662 0.833997 0.520577
0.445747 0.831952 0.5196
0.444175 0.828428 0.517906
0.441688 0.822965 0.515251
0.437995 0.815534 0.511238
0.433356 0.806806 0.506111
0.432593 0.797772 0.500771
0.445869 0.789151 0.495796
0.469688 0.781415 0.491356
0.496452 0.775692 0.488334
0.525994 0.773159 0.487434
0.55761 0.773236 0.487343
0.589807 0.775448 0.486076
0.622354 0.779721 0.481819
0.656931 0.785229 0.472755
0.696376 0.791089 0.458
0.743221 0.797864 0.429129
0.802792 0.802625 0.393637
0.867964 0.803159 0.371389
0.925582 0.799893 0.364965
0.952331 0.792935 0.36701
0.953185 0.787259 0.36286
0.953582 0.783627 0.36025
0.953735 0.78201 0.359136
0.953704 0.782254 0.359304
0.953719 0.782177 0.359258
0.453864 0.850996 0.528222
0.453925 0.851179 0.528298
0.453925 0.851148 0.528283
0.453986 0.851316 0.528344
0.454108 0.851667 0.528466
0.454231 0.851987 0.528603
0.454292 0.852155 0.528664
0.454307 0.852201 0.528679
0.454261 0.852094 0.528634
0.454002 0.851469 0.528359
0.453193 0.849393 0.52752
0.451774 0.845823 0.52604
0.449699 0.840726 0.523842
0.448035 0.83444 0.52108
0.459342 0.828779 0.518883
0.483238 0.823255 0.516518
0.50927 0.817838 0.513863
0.53782 0.814893 0.512917
0.568643 0.814176 0.513008
0.600732 0.81529 0.513085
0.632944 0.818173 0.511315
0.665278 0.822629 0.505837
0.700221 0.828183 0.495628
0.740795 0.833738 0.480537
0.788128 0.840208 0.448829
0.844663 0.844038 0.415427
0.90248 0.844129 0.400549
0.941253 0.839979 0.402411
0.947814 0.83418 0.398505
0.94818 0.830411 0.395544
0.948363 0.828748 0.394247
0.948333 0.828962 0.3944
0.948318 0.829023 0.394461
0.455055 0.854124 0.529458
0.455055 0.854124 0.529458
0.455055 0.854124 0.529458
0.455055 0.854124 0.529458
0.455055 0.854124 0.529458
0.455055 0.854124 0.529458
0.455055 0.854124 0.529458
0.455055 0.854124 0.529458
0.455055 0.854124 0.529458
0.455055 0.854109 0.529458
0.455024 0.854047 0.529427
0.455009 0.853986 0.529412
0.454994 0.853956 0.529397
0.455024 0.854032 0.529412
0.464164 0.853101 0.529519
0.487068 0.851408 0.529931
