Fusion/LUTs/Alexandru-Don-LUTs-v2/Alexandru-Don-LUTs/Slog 3 Luts/AlexDon_Christmas_LUT_Sony.cube
TITLE "Generated by Resolve"
LUT_3D_SIZE 9
0.0147555 0.0211948 0.0270237
0.0147555 0.0211948 0.0270237
0.073518 0.0268101 0.0332647
0.41529 0.0770581 0.0569467
0.760296 0.141024 0.0838026
0.936522 0.169009 0.0950179
0.937942 0.16907 0.0950332
0.937942 0.16907 0.0950332
0.937942 0.16907 0.0950332
0.0147555 0.0211948 0.0270237
0.0147555 0.0211948 0.0270237
0.0579385 0.0251011 0.0318914
0.373892 0.0704509 0.0544137
0.723995 0.133379 0.0803845
0.932586 0.168841 0.0949721
0.937942 0.16907 0.0950332
0.937942 0.16907 0.0950332
0.937942 0.16907 0.0950332
0.0190585 0.0341192 0.0319524
0.0182498 0.0315404 0.0310521
0.0263371 0.0278477 0.030518
0.304738 0.0602731 0.049897
0.681956 0.124865 0.0765393
0.928389 0.168673 0.0949416
0.937942 0.16907 0.0950332
0.937942 0.16907 0.0950332
0.937942 0.16907 0.0950332
0.0864881 0.185794 0.11899
0.087129 0.186984 0.119646
0.0860304 0.184863 0.118364
0.180667 0.17406 0.0985122
0.554986 0.194842 0.0843519
0.870832 0.245808 0.105348
0.940703 0.238697 0.104738
0.940444 0.232639 0.103441
0.940383 0.231434 0.103136
0.210346 0.418082 0.262013
0.213001 0.422538 0.264805
0.215091 0.426184 0.267124
0.232136 0.396765 0.249149
0.40911 0.406912 0.2038
0.757076 0.412741 0.156024
0.950286 0.416922 0.16379
0.949462 0.401328 0.157961
0.949233 0.39794 0.156664
0.343236 0.647044 0.407126
0.344823 0.649821 0.40885
0.345251 0.650553 0.409308
0.331121 0.615015 0.386908
0.43801 0.592538 0.372549
0.615625 0.614374 0.304097
0.92311 0.606668 0.236225
0.961654 0.587167 0.238514
0.961395 0.582742 0.236255
0.445991 0.832746 0.519844
0.44625 0.833173 0.520134
0.445747 0.831952 0.5196
0.433356 0.806806 0.506111
0.496452 0.775692 0.488334
0.622354 0.779721 0.481819
0.802792 0.802625 0.393637
0.953185 0.787259 0.36286
0.953719 0.782177 0.359258
0.455055 0.854124 0.529458
0.455055 0.854124 0.529458
0.455055 0.854124 0.529458
0.455055 0.854124 0.529458
0.499901 0.857267 0.532723
0.637919 0.878126 0.553658
0.781674 0.915846 0.560265
0.940764 0.942946 0.509346
0.950072 0.94078 0.502449
0.455055 0.854124 0.529458
0.455055 0.854124 0.529458
0.455055 0.854124 0.529458
0.455055 0.854124 0.529458
0.490913 0.856672 0.532128
0.622583 0.874998 0.550546
0.76556 0.911513 0.561425
0.928145 0.948974 0.522866
0.9514 0.952209 0.516548
0.0147555 0.0211948 0.0270237
0.0147555 0.0211948 0.0270237
0.0769665 0.0271305 0.0335088
0.415076 0.0770123 0.0569314
0.758541 0.140658 0.08365
0.936156 0.168994 0.0950179
0.937942 0.16907 0.0950332
0.937942 0.16907 0.0950332
0.937942 0.16907 0.0950332
0.0147555 0.0211948 0.0270237
0.0147555 0.0211948 0.0270237
0.0565805 0.0249638 0.0317693
0.371786 0.0701152 0.0542763
0.722988 0.133165 0.080293
0.933181 0.168856 0.0949874
0.937942 0.16907 0.0950332
0.937942 0.16907 0.0950332
0.937942 0.16907 0.0950332
0.0189975 0.0337835 0.0318914
0.0183719 0.0318914 0.0311894
0.0267643 0.0285344 0.0307469
0.306218 0.0604105 0.0500191
0.683818 0.125216 0.0766918
0.928771 0.168673 0.0949416
0.937942 0.16907 0.0950332
0.937942 0.16907 0.0950332
0.937942 0.16907 0.0950332
0.0874342 0.187594 0.120012
0.0880446 0.188769 0.120729
0.0870069 0.186755 0.119509
0.182864 0.176486 0.0994278
0.558083 0.197208 0.0851148
0.87335 0.248066 0.105959
0.94078 0.240238 0.105043
0.940505 0.234226 0.103807
0.940459 0.232868 0.103487
0.212238 0.421286 0.264027
0.21445 0.425055 0.266407
0.216571 0.428748 0.268757
0.234333 0.3991 0.250629
0.411093 0.40911 0.204685
0.759197 0.414359 0.156512
0.94995 0.418006 0.163973
0.949538 0.402487 0.158404
0.94931 0.398962 0.157061
0.344717 0.649622 0.408743
0.345968 0.651804 0.410101
0.346014 0.651881 0.410163
0.331868 0.616327 0.387732
0.4392 0.593698 0.373327
0.616266 0.615549 0.304433
0.922683 0.60763 0.237232
0.961715 0.588235 0.239078
0.96144 0.583566 0.236683
0.446525 0.833875 0.520424
0.446677 0.834043 0.520607
0.446342 0.833036 0.520256
0.434119 0.808057 0.506966
0.497276 0.776562 0.488869
0.62327 0.780529 0.482429
0.803861 0.803342 0.394202
0.953094 0.788388 0.363577
0.953719 0.782971 0.35964
0.455055 0.854124 0.529458
0.455055 0.854124 0.529458
0.455055 0.854124 0.529458
0.455055 0.854124 0.529458
0.500221 0.857282 0.532738
0.638346 0.878202 0.553765
0.782238 0.915969 0.560204
0.940764 0.942748 0.509117
0.950072 0.940993 0.502693
0.455055 0.854124 0.529458
0.455055 0.854124 0.529458
0.455055 0.854124 0.529458
0.455055 0.854124 0.529458
0.491203 0.856718 0.532158
0.622873 0.875059 0.550591
0.765667 0.911559 0.561471
0.92842 0.948974 0.522774
0.9514 0.952209 0.516548
0.0156558 0.0230564 0.0711833
0.0153658 0.0227054 0.0649577
0.0717937 0.0279545 0.0676127
0.405112 0.0752728 0.0632181
0.749233 0.138659 0.0827497
0.93518 0.168948 0.0950179
0.937942 0.16907 0.0950332
0.937942 0.16907 0.0950332
0.937942 0.16907 0.0950332
0.0153506 0.0226444 0.0624857
0.0151522 0.0223239 0.0563058
0.0512093 0.0252232 0.0491646
0.362875 0.0686809 0.0578012
0.717083 0.131945 0.0798047
0.932937 0.168856 0.0949721
0.937942 0.16907 0.0950332
0.937942 0.16907 0.0950332
0.937942 0.16907 0.0950332
0.0178531 0.0307469 0.0354925
0.0176394 0.0301061 0.0354009
0.0257725 0.0282139 0.0337682
0.304387 0.0600137 0.0504311
0.683665 0.125185 0.0766766
0.929046 0.168688 0.0949569
0.937942 0.16907 0.0950332
0.937942 0.16907 0.0950332
0.937942 0.16907 0.0950332
0.0875257 0.187762 0.120104
0.0884413 0.189532 0.121187
0.0875715 0.187869 0.120195
0.184833 0.178607 0.100343
0.56144 0.199756 0.0859541
0.875929 0.250568 0.106569
0.940856 0.242069 0.105409
0.940581 0.235691 0.104112
0.940505 0.234028 0.103731
0.213993 0.424277 0.265919
0.216266 0.428214 0.268406
0.218296 0.431678 0.270619
0.237186 0.402106 0.252552
0.414252 0.411917 0.205966
0.76141 0.416281 0.157153
0.950011 0.419242 0.164431
0.949615 0.40351 0.158785
0.949371 0.399771 0.157366
0.346029 0.651896 0.410178
0.347005 0.65362 0.411261
0.346868 0.653361 0.411093
0.332738 0.61767 0.388586
0.440589 0.595132 0.374197
0.61709 0.617105 0.305135
0.92285 0.608621 0.237919
0.961761 0.589166 0.239567
0.961501 0.584405 0.23711
0.446799 0.834379 0.520714
0.446952 0.834577 0.520897
0.446723 0.833722 0.520684
0.434791 0.80914 0.507713
0.498116 0.777417 0.489418
0.624125 0.781399 0.483009
0.804471 0.804074 0.39501
0.952987 0.78912 0.364126
0.953643 0.783658 0.360098
0.455055 0.854124 0.529458
0.455055 0.854124 0.529458
0.455055 0.854124 0.529458
0.455055 0.854124 0.529458
0.500542 0.857298 0.532769
0.63888 0.878309 0.553887
0.782635 0.915694 0.559884
0.940536 0.942626 0.509087
0.950057 0.94078 0.502449
0.455055 0.854124 0.529458
0.455055 0.854124 0.529458
0.455055 0.854124 0.529458
0.455055 0.854124 0.529458
0.491234 0.856718 0.532174
0.623148 0.875105 0.550652
0.765988 0.911604 0.56141
0.928389 0.948959 0.522835
0.9514 0.952209 0.516548
0.0330663 0.0465248 0.273747
0.0326848 0.0460212 0.270176
0.0725567 0.0484474 0.274983
0.351843 0.082948 0.304265
0.715908 0.134951 0.279255
0.92697 0.168078 0.249409
0.935286 0.168048 0.21825
0.935729 0.167895 0.202258
0.935653 0.16791 0.204929
0.0321355 0.0453956 0.265476
0.0311131 0.0440375 0.255634
0.0541848 0.0433509 0.243061
0.31632 0.0753338 0.272633
0.68867 0.128405 0.252003
0.926589 0.167803 0.233494
0.935546 0.167819 0.211185
0.93579 0.167636 0.201785
0.935729 0.167712 0.203784
0.0268406 0.0424048 0.209247
0.0265049 0.0421607 0.205783
0.0316777 0.0397498 0.197696
0.271 0.0659953 0.233371
0.662013 0.122621 0.229496
0.922301 0.167437 0.222202
0.935637 0.167788 0.206851
0.93579 0.167712 0.202045
0.935805 0.167727 0.201877
0.0704356 0.185199 0.186786
0.0717327 0.187503 0.189792
0.071397 0.186755 0.189319
0.172229 0.169314 0.170825
0.539818 0.189868 0.151049
0.865812 0.241367 0.15259
0.939956 0.234104 0.140002
0.939773 0.227283 0.133272
0.939727 0.225345 0.131319
0.20737 0.41445 0.279576
0.209705 0.418601 0.283314
0.211734 0.422309 0.286748
0.227329 0.39089 0.258808
0.402304 0.398428 0.20824
0.747921 0.403601 0.156817
0.948348 0.408972 0.161685
0.948943 0.393454 0.15552
0.948699 0.38967 0.153857
0.339269 0.640223 0.403998
0.340246 0.641932 0.406455
0.340032 0.641581 0.406638
0.3234 0.605982 0.381979
0.428702 0.582849 0.366674
0.604395 0.604791 0.299168
0.915007 0.597375 0.231983
0.961181 0.578836 0.234272
0.960876 0.573861 0.231769
0.443244 0.826688 0.516899
0.443748 0.827329 0.517494
0.443595 0.826627 0.517357
0.429587 0.799786 0.50193
0.488548 0.767544 0.483268
0.613931 0.770916 0.477226
0.794491 0.794202 0.390356
0.95404 0.779538 0.357229
0.95462 0.773709 0.35314
0.455055 0.854124 0.529458
0.455055 0.854124 0.529458
0.455055 0.854124 0.529458
0.455055 0.854124 0.529458
0.496574 0.857053 0.532525
0.633509 0.87718 0.552804
0.77702 0.913314 0.559701
0.936675 0.938476 0.505562
0.949599 0.9364 0.497078
0.455055 0.854124 0.529458
0.455055 0.854124 0.529458
0.455055 0.854124 0.529458
0.455055 0.854124 0.529458
0.487297 0.856458 0.531914
0.616953 0.873869 0.549325
0.760372 0.910033 0.561685
0.923461 0.948104 0.524346
0.9514 0.952209 0.516548
0.063447 0.0879988 0.545815
0.0638743 0.0885176 0.549264
0.0937972 0.0881971 0.541588
0.312871 0.108324 0.576883
0.648341 0.153628 0.572335
0.901076 0.187304 0.562219
0.918181 0.184955 0.529732
0.919539 0.183444 0.512718
0.919341 0.183688 0.515282
0.0625467 0.0867628 0.537194
0.0613565 0.0851453 0.527291
0.0764324 0.0828717 0.510704
0.28011 0.101381 0.54815
0.625818 0.147173 0.551171
0.900359 0.185977 0.5514
0.91841 0.184619 0.527428
0.919127 0.18381 0.517937
0.91899 0.183948 0.519814
0.0555123 0.0792859 0.477043
0.0552529 0.0788891 0.474281
0.0573587 0.0763104 0.466056
0.244511 0.0937057 0.514488
0.605219 0.141894 0.533089
0.896757 0.185122 0.542702
0.918486 0.184558 0.525872
0.918914 0.184054 0.52047
0.918914 0.184009 0.5205
0.0715343 0.196429 0.425834
0.0724804 0.198947 0.429282
0.0724956 0.199039 0.429435
0.152621 0.180072 0.3991
0.486397 0.194583 0.435721
0.837263 0.238315 0.448417
0.929137 0.232029 0.429648
0.929366 0.224002 0.418891
0.929442 0.221897 0.4159
0.169299 0.422202 0.424704
0.171267 0.4262 0.429038
0.173037 0.430091 0.432929
0.187762 0.395102 0.40116
0.386954 0.382391 0.384314
0.701854 0.390784 0.354879
0.940475 0.397879 0.331884
0.94461 0.380652 0.31075
0.944457 0.376776 0.306111
0.323674 0.634943 0.508537
0.324407 0.636301 0.50956
0.32398 0.635569 0.508797
0.306508 0.598917 0.473335
0.433555 0.568124 0.454978
0.603891 0.580362 0.400687
0.905394 0.576745 0.318196
0.958953 0.563058 0.302327
0.958663 0.558129 0.297459
0.437736 0.82089 0.589944
0.437888 0.821042 0.589731
0.437812 0.820417 0.588922
0.421561 0.789532 0.558389
0.477226 0.753979 0.525872
0.602838 0.753475 0.514015
0.777813 0.776898 0.422034
0.956069 0.762554 0.370245
0.956619 0.75639 0.363607
0.456275 0.857313 0.578653
0.456214 0.857282 0.578088
0.456199 0.857191 0.576837
0.456001 0.856291 0.563821
0.490929 0.857679 0.551049
0.624125 0.874952 0.56083
0.76611 0.905821 0.563226
0.928817 0.92932 0.499779
0.948669 0.926772 0.486931
0.456168 0.85687 0.572381
0.456153 0.856748 0.570718
0.456107 0.856596 0.568475
0.455802 0.855726 0.555627
0.481056 0.856596 0.542443
0.606363 0.8719 0.55172
0.750393 0.907149 0.564019
0.911604 0.94609 0.528161
0.9514 0.952209 0.516548
0.0724041 0.0992905 0.657267
0.0724041 0.0992905 0.657267
0.0949264 0.100572 0.662745
0.294194 0.122805 0.742123
0.610956 0.171969 0.761135
0.857816 0.212222 0.7823
0.884764 0.209674 0.771008
0.887816 0.208011 0.762127
0.887648 0.208011 0.762631
0.0724041 0.0992905 0.657267
0.0724041 0.0992905 0.657267
0.0844587 0.0999161 0.66009
0.267979 0.119448 0.726314
0.591806 0.167819 0.752941
0.855268 0.211612 0.778698
0.885512 0.209201 0.770321
0.887205 0.20824 0.765194
0.886793 0.20853 0.766278
0.072282 0.0998856 0.653696
0.0722667 0.0998703 0.653605
0.0733349 0.099382 0.652125
0.242557 0.116106 0.710948
0.575906 0.164309 0.744274
0.852598 0.211078 0.775158
0.885451 0.209201 0.770565
0.886366 0.208698 0.76762
0.886366 0.208713 0.767605
0.0912337 0.21416 0.637064
0.0920882 0.216846 0.64036
0.092256 0.21738 0.641215
0.176242 0.197574 0.630243
0.464698 0.211231 0.683604
0.788205 0.254582 0.707118
0.908431 0.245823 0.707225
0.909178 0.237339 0.696742
0.909346 0.235035 0.693736
0.154711 0.434745 0.634974
0.156283 0.438422 0.639033
0.157565 0.441947 0.642634
0.170031 0.406516 0.610376
0.343542 0.390448 0.579217
0.65771 0.392569 0.606775
0.92462 0.398413 0.600519
0.931716 0.379934 0.585397
0.931441 0.376165 0.580682
0.276097 0.647074 0.649729
0.276509 0.647944 0.650584
0.275883 0.646967 0.649744
0.258518 0.61001 0.613306
0.382055 0.573205 0.595895
0.577783 0.573037 0.574701
0.86569 0.57258 0.536416
0.957351 0.549401 0.507485
0.957321 0.54435 0.501854
0.414755 0.825162 0.702358
0.41471 0.825132 0.702296
0.414069 0.823499 0.700511
0.39942 0.791989 0.668711
0.462959 0.752163 0.633509
0.617655 0.742977 0.634684
0.776303 0.756558 0.585779
0.960861 0.746715 0.511711
0.961212 0.740154 0.504387
0.449561 0.868711 0.690867
0.449577 0.868696 0.690684
0.449775 0.868513 0.689326
0.451652 0.866651 0.675044
0.484688 0.866209 0.660395
0.626871 0.877562 0.667826
0.772457 0.898421 0.68217
0.920958 0.918288 0.622568
0.949386 0.917571 0.584665
0.450614 0.86775 0.68365
0.450858 0.867597 0.682261
0.451072 0.867308 0.680095
0.452689 0.865538 0.665797
0.475395 0.864576 0.649378
0.604746 0.874983 0.65156
0.752636 0.90547 0.66601
0.903502 0.9449 0.631968
0.95259 0.953323 0.610208
0.0724041 0.0992905 0.657267
0.0724041 0.0992905 0.657267
0.0874189 0.10013 0.660853
0.2795 0.12108 0.738079
0.5953 0.168933 0.774975
0.843793 0.215732 0.810773
0.873686 0.216175 0.814923
0.873686 0.216175 0.814923
0.873686 0.216175 0.814923
0.0724041 0.0992905 0.657267
0.0724041 0.0992905 0.657267
0.0807355 0.0997024 0.659205
0.256672 0.118517 0.728695
0.579538 0.165881 0.773938
0.841627 0.215564 0.810437
0.873686 0.216175 0.814923
0.873686 0.216175 0.814923
0.873686 0.216175 0.814923
0.0724041 0.0992905 0.657267
0.0724346 0.0996414 0.657328
0.072694 0.099443 0.657359
0.236347 0.116121 0.719844
0.567605 0.163363 0.772946
0.83975 0.215427 0.810101
0.873686 0.216175 0.814923
0.873686 0.216175 0.814923
0.873686 0.216175 0.814923
0.0922713 0.210315 0.68513
0.0928817 0.212772 0.685893
0.0931716 0.213916 0.686244
0.174762 0.194446 0.694987
0.457328 0.209522 0.774197
0.76109 0.258 0.803342
0.877455 0.257588 0.819638
0.876738 0.249836 0.818631
0.876539 0.247654 0.818326
0.1579 0.433845 0.759136
0.159045 0.43714 0.76022
0.160037 0.440009 0.761257
0.171221 0.406241 0.751034
0.359243 0.383963 0.770642
0.626123 0.395544 0.817639
0.885603 0.413062 0.827314
0.900771 0.391211 0.817533
0.900816 0.387472 0.81442
0.249882 0.655619 0.819165
0.249897 0.656229 0.821744
0.249424 0.655238 0.821027
0.233082 0.619638 0.796597
0.348669 0.581704 0.768338
0.529717 0.577676 0.762127
0.831662 0.571313 0.78233
0.943755 0.545876 0.774746
0.94374 0.540627 0.769268
0.366476 0.837461 0.839734
0.366171 0.837247 0.839445
0.365194 0.835554 0.837598
0.350164 0.804654 0.807538
0.403082 0.764584 0.770748
0.572732 0.748058 0.774273
0.758419 0.750423 0.749905
0.958144 0.735149 0.714977
0.958633 0.728298 0.707546
0.419532 0.888609 0.818601
0.419577 0.888548 0.81828
0.419974 0.888304 0.816724
0.424857 0.885634 0.799924
0.457984 0.88333 0.78117
0.618814 0.88574 0.779614
0.781765 0.895186 0.79379
0.916686 0.908949 0.766293
0.953445 0.908934 0.721401
0.421973 0.887251 0.809995
0.422461 0.886946 0.80824
0.423285 0.886473 0.805463
0.428 0.883848 0.788724
0.450797 0.880964 0.768093
0.59089 0.885832 0.762448
0.758373 0.907912 0.779263
0.899672 0.944701 0.772747
0.955108 0.955734 0.747173
0.0724041 0.0992905 0.657267
0.0724041 0.0992905 0.657267
0.0829023 0.099855 0.659739
0.269825 0.120058 0.734157
0.58471 0.166613 0.774105
0.838819 0.215625 0.810086
0.873686 0.216175 0.814923
0.873686 0.216175 0.814923
0.873686 0.216175 0.814923
0.0724041 0.0992905 0.657267
0.0724041 0.0992905 0.657267
0.0784466 0.0995804 0.658671
0.250202 0.117754 0.726009
0.573144 0.164569 0.77351
0.838209 0.215412 0.809979
0.873686 0.216175 0.814923
0.873686 0.216175 0.814923
0.873686 0.216175 0.814923
0.0724041 0.099321 0.657267
0.0724193 0.099382 0.657282
0.0729229 0.0993515 0.657389
0.233631 0.115801 0.718517
0.564263 0.162707 0.772778
0.837949 0.215335 0.809857
0.873686 0.216175 0.814923
0.873686 0.216175 0.814923
0.873686 0.216175 0.814923
0.0915541 0.207385 0.684291
0.0922255 0.210056 0.6851
0.0925765 0.211429 0.685512
0.172442 0.192035 0.694133
0.452979 0.206455 0.773281
0.75642 0.254276 0.802228
0.877134 0.254368 0.819272
0.876356 0.245975 0.81828
0.876143 0.243626 0.81799
0.156207 0.428916 0.757443
0.157321 0.432166 0.758572
0.15819 0.434623 0.759441
0.166812 0.400015 0.748775
0.352377 0.375967 0.768017
0.636103 0.383749 0.820691
0.877867 0.404303 0.840848
0.892958 0.388144 0.840314
0.892363 0.384604 0.839582
0.245411 0.648341 0.82504
0.24564 0.648875 0.825193
0.245106 0.647776 0.824872
0.228077 0.612161 0.814237
0.339055 0.571923 0.811566
0.543862 0.56173 0.845243
0.818448 0.563058 0.869245
0.919905 0.548196 0.876158
0.919402 0.542977 0.875242
0.352667 0.835309 0.885496
0.352575 0.834958 0.88539
0.35079 0.833387 0.884779
0.332448 0.804379 0.874617
0.373861 0.767163 0.863691
0.52668 0.749249 0.871611
0.736584 0.74374 0.903349
0.936767 0.733501 0.908934
0.938079 0.726406 0.906981
0.412406 0.901427 0.907332
0.412406 0.901427 0.907332
0.412406 0.901427 0.907332
0.412406 0.901427 0.907332
0.43444 0.901503 0.905699
0.583108 0.898878 0.902052
0.752453 0.901152 0.906065
0.912612 0.90367 0.90631
0.959167 0.899168 0.895796
0.412406 0.901427 0.907332
0.412406 0.901427 0.907332
0.412406 0.901427 0.907332
0.41239 0.901427 0.907256
0.423239 0.901061 0.899611
0.552895 0.904906 0.891096
0.737026 0.921202 0.894072
0.903273 0.946517 0.907454
0.959213 0.959594 0.896483
0.0724041 0.0992905 0.657267
0.0724041 0.0992905 0.657267
0.0817426 0.0997787 0.65948
0.268193 0.11986 0.733913
0.583734 0.1664 0.773999
0.838437 0.215625 0.81004
0.873686 0.216175 0.814923
0.873686 0.216175 0.814923
0.873686 0.216175 0.814923
0.0724041 0.0992905 0.657267
0.0724041 0.0992905 0.657267
0.0778363 0.0995499 0.658518
0.248524 0.117556 0.725277
0.571572 0.164248 0.773419
0.83743 0.215335 0.809842
0.873686 0.216175 0.814923
0.873686 0.216175 0.814923
0.873686 0.216175 0.814923
0.0724193 0.099382 0.657282
0.0724041 0.099321 0.657267
0.073106 0.0993362 0.65742
0.232639 0.115679 0.718029
0.563424 0.162554 0.772778
0.837308 0.215259 0.809781
0.873686 0.216175 0.814923
0.873686 0.216175 0.814923
0.873686 0.216175 0.814923
0.0913558 0.206592 0.684062
0.0920424 0.209262 0.684871
0.0923476 0.210483 0.685252
0.171527 0.191043 0.693812
0.451621 0.205463 0.772992
0.754955 0.253056 0.801892
0.877028 0.253193 0.819135
0.876234 0.244633 0.818112
0.876036 0.242451 0.817853
0.155825 0.427817 0.757046
0.156847 0.430838 0.758114
0.15758 0.432883 0.758846
0.165362 0.398047 0.748028
0.349996 0.373846 0.767071
0.633585 0.381643 0.820127
0.876539 0.40264 0.84033
0.892638 0.386297 0.839918
0.892088 0.382925 0.839231
0.244511 0.64654 0.824491
0.244541 0.646677 0.824537
0.243992 0.645533 0.824201
0.226978 0.609781 0.813519
0.336568 0.56939 0.810681
0.541436 0.559319 0.843992
0.815976 0.560388 0.868528
0.919646 0.545464 0.875685
0.919158 0.54052 0.8748
0.351293 0.833585 0.884871
0.351141 0.832929 0.884657
0.349386 0.831159 0.884001
0.331014 0.802014 0.873793
0.371237 0.764767 0.862913
0.52369 0.746715 0.870726
0.732982 0.740505 0.902571
0.935561 0.730373 0.910277
0.936934 0.723537 0.909178
0.412406 0.901427 0.907332
0.412406 0.901427 0.907332
0.412406 0.901427 0.907332
0.412406 0.901427 0.907332
0.433814 0.901534 0.907912
0.568566 0.898238 0.911101
0.72752 0.900069 0.923384
0.904662 0.901717 0.943938
0.954406 0.897215 0.94638
0.412406 0.901427 0.907332
0.412406 0.901427 0.907332
0.412406 0.901427 0.907332
0.412406 0.901427 0.907332
0.424552 0.9019 0.907744
0.553658 0.907347 0.912734
0.723583 0.925414 0.929183
0.894987 0.950729 0.952163
0.95906 0.958846 0.95935
