Fusion/LUTs/Lutify-Free-LUTs-Pack/Lutify Free LUTs Pack/Print Film Pro - Print Film 2/Lutify.me-PrintFilm2-Rec709-to-Rec709.cube
# Created with: fylm.ai - Colour Grading and Collaboration Software in Cloud 
# Website: https://fylm.ai 
# META
# Option: Gamut compress
# Block 1: IDT | Rec709
# Block 2: colourMatch | Blending Mode: Normal | {"ColorSpace":0,"CrossCovarianceLimit":50,"ReshapingIterations":1,"PercentSaturationShift":100,"PercentShadingShift":100,"ExtraShading":true,"PercentTint":100,"PercentModified":100}
# Block 3: HSL | Blending Mode: Normal | {"hue":{"Reds":0,"Yellows":0,"Greens":0,"Cyans":0,"Blues":0,"Magentas":0},"saturation":{"Reds":1,"Yellows":0.9,"Greens":0.95,"Cyans":1,"Blues":1,"Magentas":1},"luminance":{"Reds":0.8,"Yellows":0.95,"Greens":0.9,"Cyans":0.8,"Blues":0.8,"Magentas":0.8},"lum_sat":{"Blacks":1,"Shadows":1,"Midtones":1,"Highlights":1,"Whites":1},"sat_sat":{"10":1,"20":1,"30":1,"40":1,"50":1}}
# Block 4: LUT | Filmic Curve Response: Low Contrast 2 (100%)
# Block 5: ODT | Rec709
TITLE "Lutify.me-PrintFilm2-Rec709-to-Rec709" 
LUT_3D_SIZE 9
0.000000 0.000000 0.000000
0.015704 0.000000 0.000000
0.132304 0.000000 0.000000
0.243146 0.000000 0.000000
0.353194 0.000000 0.000000
0.457066 0.000000 0.000000
0.567022 0.000000 0.014126
0.680065 0.000000 0.042797
0.817469 0.047615 0.088083
0.000000 0.053802 0.000000
0.069058 0.058247 0.000000
0.162731 0.063113 0.000000
0.271130 0.063019 0.000000
0.374215 0.066701 0.000000
0.470830 0.071042 0.000000
0.577364 0.070783 0.000000
0.685961 0.056974 0.043445
0.821537 0.088695 0.090138
0.030627 0.173958 0.000000
0.099958 0.179355 0.000000
0.210453 0.184016 0.000000
0.316594 0.187446 0.000000
0.417874 0.190338 0.000000
0.515976 0.192650 0.000000
0.615468 0.193246 0.000000
0.711768 0.183481 0.048842
0.838764 0.170600 0.097254
0.113344 0.296627 0.000000
0.148394 0.299333 0.000000
0.243592 0.306266 0.000000
0.348382 0.307567 0.000000
0.461840 0.313482 0.000000
0.560200 0.313012 0.000000
0.657394 0.313667 0.000000
0.757079 0.310758 0.050033
0.870198 0.290483 0.110181
0.172302 0.421898 0.053061
0.193211 0.423659 0.048130
0.263301 0.426213 0.043175
0.376479 0.434604 0.000000
0.491301 0.437026 0.000000
0.591960 0.442667 0.000000
0.693180 0.442094 0.000000
0.791695 0.436504 0.067842
0.903345 0.411567 0.133338
0.235345 0.540759 0.117235
0.256171 0.541979 0.115864
0.325134 0.546610 0.110476
0.416421 0.550953 0.105959
0.515763 0.552219 0.098378
0.610119 0.560482 0.067080
0.725140 0.560644 0.071461
0.822759 0.564839 0.110316
0.934690 0.541216 0.165420
0.303487 0.667160 0.174511
0.315802 0.667403 0.173741
0.361573 0.668357 0.170632
0.436060 0.670269 0.165164
0.525561 0.679103 0.155722
0.624844 0.684647 0.137114
0.743286 0.686037 0.116907
0.847916 0.695252 0.155410
0.959731 0.677073 0.231623
0.320577 0.797001 0.253412
0.331726 0.797513 0.252918
0.371523 0.799685 0.250906
0.436203 0.803859 0.247490
0.524324 0.809420 0.244019
0.639983 0.812760 0.243307
0.749010 0.820392 0.244233
0.860445 0.824910 0.227092
0.976616 0.826314 0.353920
0.451769 0.951356 0.584401
0.456793 0.951642 0.585424
0.477446 0.952871 0.589922
0.519712 0.955217 0.599510
0.576513 0.958954 0.615856
0.646159 0.964161 0.641105
0.727801 0.971259 0.678128
0.846239 0.980239 0.732284
0.977540 0.990180 0.804408
0.000000 0.000000 0.000000
0.036513 0.000000 0.032349
0.139840 0.000000 0.049810
0.257919 0.000000 0.055501
0.358507 0.000000 0.052303
0.462178 0.000000 0.055007
0.571372 0.000000 0.061027
0.683347 0.000000 0.074992
0.819838 0.063116 0.105242
0.000000 0.059810 0.076164
0.067581 0.070530 0.075770
0.174586 0.069003 0.067560
0.276413 0.066811 0.063131
0.379402 0.061757 0.057572
0.475936 0.063554 0.056955
0.582363 0.060196 0.063638
0.689158 0.042205 0.077476
0.823787 0.095736 0.107202
0.000000 0.183801 0.101336
0.096429 0.188304 0.099711
0.211265 0.197276 0.095327
0.318212 0.199208 0.082858
0.423387 0.192923 0.069152
0.512149 0.196856 0.059331
0.613608 0.197446 0.066757
0.713832 0.184228 0.084913
0.839561 0.169114 0.115692
0.108093 0.303438 0.117910
0.142059 0.306078 0.117000
0.244015 0.315133 0.115301
0.351574 0.317197 0.108122
0.464477 0.323137 0.093749
0.559730 0.323404 0.076796
0.656968 0.318359 0.074208
0.754526 0.311552 0.089914
0.870004 0.289678 0.128958
0.158942 0.428209 0.147602
0.182582 0.429903 0.145942
0.262160 0.436412 0.144091
0.379342 0.443964 0.134893
0.487079 0.444366 0.126783
0.588237 0.451383 0.110661
0.689975 0.444639 0.096758
0.789576 0.437775 0.112098
0.903936 0.413866 0.150046
0.226459 0.544773 0.171694
0.245927 0.545906 0.170597
0.314855 0.550188 0.166523
0.409334 0.554672 0.164031
0.510782 0.556306 0.158872
0.613888 0.564219 0.139834
0.722962 0.563865 0.128510
0.821989 0.565921 0.143098
0.935088 0.540992 0.180697
0.302883 0.670105 0.210679
0.315356 0.670272 0.209947
0.361849 0.671113 0.206971
0.435322 0.672733 0.201647
0.521486 0.681196 0.192939
0.625532 0.686979 0.180187
0.742867 0.688265 0.160121
0.848914 0.696690 0.183848
0.959720 0.677075 0.242877
0.321279 0.797893 0.272636
0.332476 0.798398 0.272152
0.372073 0.800573 0.270123
0.436926 0.804659 0.266545
0.521865 0.810155 0.262541
0.638512 0.813444 0.261715
0.748582 0.821184 0.262610
0.859919 0.825667 0.244702
0.976409 0.826447 0.363289
0.452414 0.951452 0.586123
0.457378 0.951726 0.586720
0.477825 0.952924 0.590153
0.520137 0.955265 0.599738
0.576824 0.959000 0.616087
0.646411 0.964203 0.641329
0.728035 0.971314 0.678444
0.846505 0.980282 0.732558
0.977777 0.990231 0.804735
0.000000 0.000000 0.090306
0.049784 0.000000 0.098871
0.141552 0.000000 0.125018
0.252686 0.000000 0.142300
0.368174 0.000000 0.148259
0.479133 0.000000 0.148421
0.586799 0.000000 0.148324
0.688683 0.000000 0.138987
0.823109 0.062444 0.154307
0.000000 0.060829 0.179788
0.052195 0.068249 0.179752
0.171669 0.076887 0.174980
0.277151 0.083635 0.170883
0.387157 0.084960 0.162038
0.493348 0.086892 0.158335
0.593434 0.084283 0.152911
0.694534 0.054306 0.141235
0.826937 0.091924 0.155881
0.000000 0.183701 0.229511
0.068016 0.190654 0.229428
0.201780 0.209732 0.229426
0.316971 0.210532 0.208217
0.427987 0.203329 0.191269
0.520076 0.195546 0.178772
0.621838 0.191358 0.163049
0.721886 0.188472 0.153750
0.844372 0.165204 0.164000
0.041665 0.314805 0.257476
0.114973 0.319817 0.257877
0.227891 0.333994 0.257287
0.343742 0.338839 0.249945
0.458220 0.340261 0.231635
0.558580 0.326908 0.212357
0.658032 0.323694 0.191743
0.755265 0.309250 0.174943
0.873738 0.289251 0.176974
0.119156 0.447068 0.278429
0.147109 0.448732 0.275902
0.238408 0.453808 0.271902
0.374107 0.457287 0.272121
0.483414 0.465676 0.266026
0.586862 0.465414 0.252344
0.689618 0.456672 0.227017
0.790357 0.439590 0.196603
0.906496 0.415027 0.202562
0.214141 0.556903 0.295089
0.236660 0.557810 0.294962
0.307363 0.561661 0.294641
0.403469 0.567356 0.291532
0.507642 0.576178 0.285059
0.608975 0.576835 0.278797
0.726845 0.573158 0.261079
0.823592 0.567560 0.235254
0.936510 0.539701 0.231439
0.272260 0.677826 0.312514
0.285803 0.678585 0.311627
0.340697 0.681844 0.310812
0.426706 0.688067 0.310894
0.521348 0.692483 0.306472
0.626783 0.697603 0.295649
0.739742 0.697290 0.280214
0.849528 0.702106 0.268305
0.959552 0.676904 0.285390
0.322413 0.801264 0.343933
0.333362 0.801744 0.343292
0.373389 0.803770 0.340879
0.439047 0.807661 0.336622
0.524910 0.813206 0.332865
0.640201 0.818952 0.336309
0.747881 0.823989 0.329587
0.859573 0.828366 0.308133
0.976659 0.826507 0.396437
0.457307 0.952307 0.609927
0.462199 0.952574 0.610435
0.482244 0.953725 0.612726
0.523536 0.955933 0.617904
0.579143 0.959462 0.627186
0.647462 0.964412 0.642462
0.728967 0.971525 0.679660
0.847580 0.980477 0.733793
0.978793 0.990436 0.806029
0.000000 0.000000 0.204211
0.032253 0.022439 0.205807
0.142564 0.000000 0.213484
0.257340 0.000000 0.233405
0.368926 0.000000 0.244907
0.474862 0.000000 0.249454
0.590975 0.000000 0.242279
0.709355 0.044145 0.237674
0.838865 0.112192 0.229201
0.000000 0.062180 0.273746
0.000000 0.069786 0.272459
0.160993 0.077996 0.269630
0.275909 0.084328 0.269239
0.389646 0.095998 0.269203
0.487878 0.108844 0.261471
0.602474 0.101462 0.252483
0.715263 0.097958 0.242152
0.841694 0.134093 0.230817
0.000000 0.175598 0.341639
0.000000 0.183893 0.339986
0.179761 0.203418 0.334401
0.304949 0.213753 0.329582
0.427463 0.219490 0.314255
0.525651 0.217340 0.290864
0.634391 0.217311 0.276987
0.734708 0.202609 0.261304
0.853002 0.194474 0.237409
0.000000 0.304174 0.378782
0.077068 0.308807 0.379349
0.207326 0.327433 0.380807
0.330732 0.350089 0.375599
0.463727 0.346704 0.356789
0.561443 0.340736 0.328507
0.657500 0.329126 0.299660
0.758347 0.318966 0.277389
0.877085 0.287475 0.248966
0.000000 0.440250 0.407574
0.094126 0.443052 0.406311
0.214377 0.454970 0.405880
0.362621 0.475089 0.406339
0.481228 0.483919 0.402364
0.584277 0.478259 0.377534
0.686593 0.464097 0.344406
0.790022 0.444796 0.312507
0.910354 0.416443 0.272663
0.207049 0.562392 0.429595
0.233708 0.564594 0.429629
0.308050 0.571944 0.431104
0.397072 0.579010 0.426589
0.497764 0.586770 0.420405
0.607369 0.592666 0.412518
0.721224 0.589207 0.396162
0.818418 0.571526 0.349018
0.935897 0.537925 0.305278
0.267178 0.690098 0.454082
0.281002 0.691154 0.453780
0.329831 0.693456 0.450736
0.406837 0.697364 0.441590
0.508824 0.704460 0.436737
0.621721 0.709630 0.436626
0.738569 0.714116 0.425220
0.846498 0.707829 0.397166
0.959287 0.676149 0.356110
0.323448 0.808046 0.462553
0.333399 0.808391 0.461719
0.372274 0.809822 0.457070
0.440497 0.813151 0.451457
0.526820 0.818076 0.445611
0.634813 0.824488 0.446262
0.748614 0.830432 0.443403
0.859217 0.834754 0.418067
0.976878 0.829163 0.448047
0.465849 0.953795 0.650603
0.470616 0.954058 0.651197
0.490356 0.955185 0.653310
0.530394 0.957305 0.656969
0.584880 0.960689 0.662943
0.651363 0.965448 0.672739
0.730577 0.972119 0.692879
0.849688 0.980873 0.736269
0.980708 0.990776 0.808531
0.000000 0.035466 0.320204
0.000000 0.036980 0.315205
0.138065 0.033485 0.314679
0.249750 0.000000 0.321570
0.370535 0.000000 0.340524
0.488960 0.028176 0.349740
0.590138 0.076884 0.351484
0.705671 0.065863 0.336208
0.851036 0.131610 0.326107
0.000000 0.064773 0.365595
0.000000 0.067660 0.363312
0.145538 0.077172 0.355100
0.262049 0.085447 0.363019
0.388597 0.094918 0.368112
0.502812 0.104323 0.367289
0.603739 0.120426 0.364026
0.713055 0.115062 0.344710
0.854991 0.147948 0.328713
0.000000 0.173793 0.445921
0.000000 0.180299 0.445033
0.159689 0.195660 0.446550
0.280656 0.209841 0.436997
0.422754 0.216607 0.425626
0.533600 0.227338 0.417507
0.630021 0.224134 0.395821
0.739134 0.219444 0.369049
0.869827 0.205533 0.339179
0.000000 0.293507 0.489137
0.000000 0.297370 0.488763
0.171235 0.314111 0.487103
0.305874 0.337716 0.485432
0.444367 0.351144 0.482664
0.562115 0.355773 0.461433
0.664443 0.351746 0.432526
0.773032 0.336776 0.407278
0.892360 0.312665 0.361276
0.000000 0.427238 0.520151
0.000000 0.431797 0.519721
0.187933 0.446908 0.520061
0.332329 0.464983 0.517921
0.465747 0.487339 0.522671
0.587559 0.485743 0.497659
0.687782 0.475634 0.465043
0.794936 0.455302 0.432826
0.912287 0.421931 0.373966
0.109535 0.559668 0.546002
0.146225 0.562165 0.544913
0.243271 0.571006 0.541115
0.366387 0.579955 0.542357
0.498278 0.596288 0.547825
0.606511 0.607427 0.537708
0.714390 0.595308 0.512376
0.814516 0.580967 0.463877
0.936655 0.536270 0.399918
0.233859 0.684111 0.562811
0.251372 0.685805 0.563253
0.313383 0.692474 0.565108
0.406290 0.703803 0.568497
0.498284 0.714460 0.560992
0.612244 0.720822 0.555878
0.739083 0.722895 0.552894
0.840914 0.720552 0.519376
0.959730 0.677995 0.434694
0.328386 0.813656 0.588627
0.339165 0.814266 0.588483
0.380322 0.816774 0.587968
0.448491 0.821300 0.586887
0.529551 0.825009 0.577494
0.634344 0.830758 0.569860
0.744318 0.835481 0.570366
0.857013 0.842870 0.554837
0.976350 0.833588 0.513757
0.470235 0.954689 0.696772
0.475294 0.955007 0.697342
0.496901 0.956314 0.699456
0.538554 0.958905 0.702757
0.593277 0.962412 0.706919
0.657736 0.967005 0.712714
0.732808 0.973302 0.724319
0.850896 0.981784 0.756344
0.983818 0.991257 0.812329
0.000000 0.051445 0.442644
0.000000 0.053992 0.438508
0.127390 0.057565 0.434630
0.240518 0.058934 0.434739
0.363862 0.046641 0.442157
0.478861 0.060442 0.452576
0.597305 0.074925 0.460081
0.706493 0.090784 0.447517
0.840440 0.151012 0.426643
0.000000 0.077561 0.476805
0.000000 0.080569 0.471888
0.133790 0.087032 0.460809
0.251894 0.092278 0.462969
0.374720 0.098732 0.464001
0.489953 0.118752 0.471356
0.606797 0.127994 0.471647
0.714308 0.134028 0.456330
0.845050 0.167612 0.429628
0.000000 0.175009 0.545888
0.000000 0.180005 0.546218
0.137033 0.193206 0.541837
0.265286 0.204427 0.529764
0.392930 0.217248 0.522201
0.515675 0.225148 0.522192
0.634653 0.232594 0.510518
0.735680 0.231823 0.484588
0.863101 0.225697 0.442831
0.000000 0.286381 0.584173
0.000000 0.289875 0.583123
0.148868 0.304617 0.584105
0.284355 0.325320 0.584578
0.420898 0.336534 0.578204
0.544210 0.353440 0.567588
0.661885 0.359755 0.555677
0.761745 0.357411 0.520581
0.896614 0.329284 0.471103
0.000000 0.416021 0.613996
0.000000 0.420211 0.613481
0.168438 0.432410 0.615081
0.311434 0.450364 0.617053
0.446044 0.473135 0.617136
0.572175 0.488499 0.608367
0.691466 0.488538 0.590828
0.791928 0.468528 0.547726
0.924382 0.441698 0.498339
0.000000 0.543818 0.642249
0.088418 0.546833 0.642595
0.216924 0.556684 0.644393
0.327901 0.571960 0.642565
0.451764 0.590437 0.640880
0.585876 0.606661 0.640511
0.722056 0.609883 0.621956
0.819759 0.585077 0.573244
0.943427 0.549304 0.509659
0.190634 0.678283 0.670961
0.211683 0.680104 0.670749
0.279655 0.686959 0.669403
0.373387 0.696876 0.664924
0.475394 0.711046 0.665318
0.607862 0.729488 0.671822
0.729425 0.739646 0.663814
0.837706 0.724103 0.624888
0.961555 0.681582 0.528913
0.217726 0.804999 0.686506
0.238300 0.805995 0.686749
0.304590 0.810179 0.686853
0.398144 0.817976 0.687402
0.515346 0.828835 0.689595
0.637670 0.837116 0.683415
0.742709 0.843553 0.680248
0.856271 0.849776 0.674820
0.977512 0.832501 0.584928
0.475170 0.955698 0.750510
0.480186 0.956010 0.750884
0.502489 0.957287 0.751886
0.542997 0.959866 0.753723
0.600046 0.963850 0.757312
0.667098 0.969307 0.764943
0.739868 0.974949 0.771136
0.851509 0.983059 0.788050
0.988120 0.992007 0.821719
0.000000 0.083133 0.584203
0.000000 0.085280 0.582142
0.078567 0.091098 0.582581
0.219397 0.099790 0.574927
0.343173 0.101400 0.570287
0.464291 0.099739 0.569910
0.589307 0.083497 0.576636
0.719837 0.077651 0.572282
0.849191 0.133591 0.551938
0.000000 0.102601 0.602759
0.000000 0.105334 0.601151
0.080436 0.112368 0.598921
0.224513 0.121262 0.588833
0.348292 0.123384 0.582255
0.470616 0.126047 0.580096
0.596852 0.125498 0.585828
0.726241 0.127541 0.582803
0.852803 0.154530 0.555421
0.000000 0.170836 0.645541
0.000000 0.173971 0.644740
0.089584 0.186307 0.644911
0.242013 0.197913 0.638185
0.368017 0.208292 0.630761
0.492092 0.215948 0.624633
0.620680 0.227882 0.620510
0.747890 0.230368 0.611178
0.866924 0.225845 0.571047
0.000000 0.279861 0.692194
0.000000 0.283846 0.691658
0.109710 0.294619 0.689331
0.264363 0.312777 0.689399
0.391033 0.327913 0.681222
0.514051 0.339562 0.677011
0.645673 0.353272 0.668700
0.775411 0.362890 0.650523
0.891284 0.337940 0.600064
0.000000 0.403108 0.721491
0.000000 0.406089 0.721327
0.129860 0.416284 0.720996
0.285782 0.433159 0.720543
0.405830 0.454394 0.719033
0.529813 0.471163 0.715229
0.668049 0.476239 0.705743
0.799590 0.483224 0.685540
0.917317 0.450945 0.619862
0.000000 0.526117 0.742572
0.000000 0.529033 0.742355
0.180314 0.538304 0.741795
0.300008 0.552319 0.743203
0.422782 0.571190 0.744891
0.559667 0.586476 0.745934
0.695717 0.601921 0.737716
0.820643 0.599624 0.719103
0.944734 0.567342 0.646487
0.142433 0.657422 0.763418
0.169250 0.658965 0.763689
0.246421 0.665466 0.764760
0.345407 0.677524 0.766762
0.452362 0.694930 0.766817
0.575876 0.716455 0.766775
0.721534 0.738751 0.768332
0.835771 0.735426 0.739177
0.962596 0.688161 0.654570
0.156029 0.800198 0.784548
0.184172 0.801242 0.784466
0.263130 0.804955 0.783576
0.357708 0.811456 0.783784
0.469993 0.820590 0.782799
0.605118 0.833783 0.782601
0.738171 0.851263 0.788211
0.855812 0.857610 0.783962
0.977072 0.832225 0.696055
0.440551 0.953714 0.803633
0.447978 0.954131 0.803929
0.477964 0.955876 0.805247
0.529843 0.959308 0.808088
0.599118 0.964419 0.813625
0.671551 0.970794 0.818504
0.749853 0.977631 0.825826
0.855573 0.984683 0.826411
0.992832 0.993395 0.847299
0.000000 0.146865 0.749966
0.000000 0.149906 0.749131
0.000000 0.156943 0.745617
0.177205 0.165760 0.739945
0.320190 0.171571 0.733644
0.446015 0.174748 0.730683
0.571529 0.170788 0.729266
0.708939 0.170783 0.726678
0.864171 0.121801 0.704427
0.000000 0.160948 0.758165
0.000000 0.163238 0.757213
0.000000 0.168760 0.753229
0.181987 0.176941 0.746929
0.323680 0.183453 0.740094
0.448734 0.186914 0.736059
0.575488 0.183263 0.733278
0.712569 0.183204 0.730291
0.867425 0.141470 0.708556
0.000000 0.200278 0.777050
0.000000 0.202120 0.776919
0.000000 0.208878 0.775832
0.192942 0.217219 0.768992
0.330357 0.226593 0.761579
0.454420 0.234629 0.754693
0.585254 0.234745 0.748861
0.727136 0.230934 0.744367
0.880707 0.217123 0.726024
0.000000 0.272029 0.802176
0.000000 0.273896 0.801987
0.000000 0.281588 0.801575
0.218816 0.295861 0.801327
0.348458 0.309720 0.794859
0.471370 0.319672 0.787984
0.601654 0.335842 0.781929
0.747221 0.346025 0.773935
0.902992 0.347359 0.756375
0.000000 0.384185 0.826705
0.000000 0.386611 0.826260
0.000000 0.396671 0.824485
0.245579 0.411606 0.824311
0.372013 0.430779 0.823816
0.494569 0.444648 0.822559
0.627257 0.459716 0.812340
0.766520 0.466147 0.806232
0.923152 0.461139 0.779679
0.000000 0.501616 0.841437
0.000000 0.503692 0.841087
0.098628 0.512287 0.841218
0.259188 0.525342 0.843097
0.378458 0.543923 0.843706
0.503828 0.565813 0.843252
0.645875 0.573076 0.839034
0.797121 0.589306 0.829977
0.946477 0.583291 0.802597
0.000000 0.625520 0.860229
0.050325 0.627037 0.860178
0.192655 0.633265 0.859907
0.302601 0.647075 0.859349
0.416162 0.664220 0.858787
0.536366 0.686487 0.858882
0.670989 0.712091 0.859032
0.817139 0.725854 0.853369
0.959132 0.710007 0.811447
0.000000 0.773337 0.875399
0.000000 0.774462 0.875363
0.155234 0.779308 0.875265
0.296165 0.788407 0.875095
0.421957 0.801359 0.875238
0.561093 0.817170 0.875881
0.699831 0.836823 0.876568
0.846153 0.860698 0.882426
0.979348 0.836989 0.825431
0.310370 0.945125 0.888541
0.320262 0.945555 0.888452
0.360482 0.947488 0.888213
0.434634 0.951880 0.888781
0.525007 0.958306 0.889757
0.626328 0.966464 0.891487
0.736861 0.976461 0.894529
0.862907 0.988476 0.895496
0.998226 0.996103 0.896746
0.065192 0.346949 0.940451
0.097377 0.348714 0.940682
0.165293 0.355633 0.941571
0.238130 0.367996 0.943227
0.313997 0.384239 0.944353
0.388524 0.400980 0.944544
0.488976 0.418765 0.944642
0.619706 0.438225 0.942137
0.801328 0.452163 0.937097
0.074539 0.354542 0.941873
0.102835 0.356168 0.942062
0.167922 0.362750 0.942864
0.239774 0.374628 0.944379
0.315561 0.390635 0.945510
0.390053 0.406234 0.945563
0.489970 0.424308 0.945406
0.620611 0.442613 0.942860
0.803576 0.456556 0.937726
0.109843 0.380927 0.946771
0.128330 0.382381 0.946909
0.181636 0.388225 0.947480
0.249199 0.397983 0.948622
0.322669 0.412142 0.949467
0.396293 0.428196 0.949508
0.494684 0.445714 0.948464
0.624747 0.459821 0.945772
0.813043 0.473973 0.940250
0.167163 0.419223 0.953511
0.178294 0.420250 0.953595
0.217064 0.424431 0.953958
0.273134 0.433610 0.954627
0.334179 0.449245 0.955439
0.409291 0.465914 0.956119
0.505152 0.482080 0.953831
0.633858 0.492244 0.951232
0.831201 0.507404 0.945413
0.230772 0.466618 0.961398
0.236686 0.467789 0.961439
0.259907 0.472709 0.961617
0.300433 0.482290 0.961970
0.355299 0.497029 0.962537
0.431473 0.514929 0.963104
0.524319 0.532488 0.962160
0.653017 0.541214 0.959943
0.854708 0.553960 0.953966
0.285157 0.537078 0.971614
0.289932 0.537895 0.971659
0.308599 0.542097 0.971805
0.343310 0.550157 0.972106
0.395084 0.560686 0.972244
0.466703 0.574218 0.972296
0.555937 0.592646 0.972770
0.685988 0.608668 0.970415
0.885622 0.622439 0.963821
0.348313 0.614528 0.981962
0.352441 0.615373 0.981985
0.369535 0.618956 0.982106
0.402311 0.626147 0.982340
0.447047 0.636214 0.982496
0.502469 0.649178 0.982477
0.582603 0.668146 0.981994
0.715833 0.692036 0.980525
0.918961 0.707193 0.972952
0.406817 0.730875 0.991551
0.410137 0.731457 0.991573
0.423974 0.733979 0.991660
0.447753 0.739432 0.991778
0.483377 0.747598 0.991970
0.535814 0.759311 0.992193
0.617858 0.775975 0.992308
0.768838 0.804308 0.991122
0.954121 0.823909 0.984596
0.476568 0.921618 1.000000
0.479083 0.922042 1.000000
0.489803 0.923859 1.000000
0.510732 0.927471 1.000000
0.543198 0.933091 1.000000
0.591271 0.941798 1.000000
0.664731 0.953676 1.000000
0.795707 0.971353 1.000000
0.998774 1.000000 1.000000
