Fusion/LUTs/Lutify-Free-LUTs-Pack/Lutify Free LUTs Pack/Print Film Pro - Print Film 2/Lutify.me-PrintFilm2-Rec709-to-Rec709.cube
# Created with: fylm.ai - Colour Grading and Collaboration Software in Cloud 
# Website: https://fylm.ai 
# META
# Option: Gamut compress
# Block 1: IDT | Rec709
# Block 2: colourMatch | Blending Mode: Normal | {"ColorSpace":0,"CrossCovarianceLimit":50,"ReshapingIterations":1,"PercentSaturationShift":100,"PercentShadingShift":100,"ExtraShading":true,"PercentTint":100,"PercentModified":100}
# Block 3: HSL | Blending Mode: Normal | {"hue":{"Reds":0,"Yellows":0,"Greens":0,"Cyans":0,"Blues":0,"Magentas":0},"saturation":{"Reds":1,"Yellows":0.9,"Greens":0.95,"Cyans":1,"Blues":1,"Magentas":1},"luminance":{"Reds":0.8,"Yellows":0.95,"Greens":0.9,"Cyans":0.8,"Blues":0.8,"Magentas":0.8},"lum_sat":{"Blacks":1,"Shadows":1,"Midtones":1,"Highlights":1,"Whites":1},"sat_sat":{"10":1,"20":1,"30":1,"40":1,"50":1}}
# Block 4: LUT | Filmic Curve Response: Low Contrast 2 (100%)
# Block 5: ODT | Rec709
TITLE "Lutify.me-PrintFilm2-Rec709-to-Rec709" 
LUT_3D_SIZE 33
0.000000 0.000000 0.000000
0.000000 0.000000 0.000000
0.000000 0.000000 0.000000
0.000000 0.000000 0.000000
0.015704 0.000000 0.000000
0.056862 0.000000 0.000000
0.081740 0.000000 0.000000
0.108943 0.000000 0.000000
0.132304 0.000000 0.000000
0.157101 0.000000 0.000000
0.185749 0.000000 0.000000
0.215324 0.000000 0.000000
0.243146 0.000000 0.000000
0.271337 0.000000 0.000000
0.301053 0.000000 0.000000
0.328187 0.000000 0.000000
0.353194 0.000000 0.000000
0.377805 0.000000 0.000000
0.403284 0.000000 0.000000
0.431243 0.000000 0.000000
0.457066 0.000000 0.000000
0.482596 0.000000 0.000000
0.508542 0.000000 0.007306
0.536897 0.000000 0.011533
0.567022 0.000000 0.014126
0.596997 0.000000 0.018821
0.625101 0.000000 0.024603
0.652010 0.000000 0.033411
0.680065 0.000000 0.042797
0.710023 0.000000 0.052410
0.742476 0.000000 0.063002
0.777777 0.000000 0.074991
0.817469 0.047615 0.088083
0.000000 0.000000 0.000000
0.000000 0.000000 0.000000
0.000000 0.000000 0.000000
0.000000 0.000000 0.000000
0.028561 0.000000 0.000000
0.061314 0.000000 0.000000
0.084706 0.000000 0.000000
0.111107 0.000000 0.000000
0.134396 0.000000 0.000000
0.159353 0.000000 0.000000
0.188067 0.000000 0.000000
0.217247 0.000000 0.000000
0.244775 0.000000 0.000000
0.272521 0.000000 0.000000
0.302194 0.000000 0.000000
0.329058 0.000000 0.000000
0.354056 0.000000 0.000000
0.378651 0.000000 0.000000
0.404149 0.000000 0.000000
0.432118 0.000000 0.000000
0.457593 0.000000 0.000000
0.483126 0.000000 0.000000
0.509008 0.000000 0.005948
0.537371 0.000000 0.010887
0.567441 0.000000 0.013657
0.597313 0.000000 0.018588
0.625375 0.000000 0.024533
0.652243 0.000000 0.033408
0.680308 0.000000 0.042834
0.710246 0.000000 0.052458
0.742674 0.000000 0.063058
0.777938 0.000000 0.075077
0.817617 0.049939 0.088155
0.000000 0.000000 0.000000
0.000000 0.000000 0.000000
0.000000 0.000000 0.000000
0.019505 0.000000 0.000000
0.050979 0.000000 0.000000
0.069273 0.000000 0.000000
0.094102 0.000000 0.000000
0.118597 0.000000 0.000000
0.142009 0.000000 0.000000
0.167838 0.000000 0.000000
0.197069 0.000000 0.000000
0.224789 0.000000 0.000000
0.250066 0.000000 0.000000
0.277115 0.000000 0.000000
0.306659 0.000000 0.000000
0.332781 0.000000 0.000000
0.357649 0.000000 0.000000
0.382066 0.000000 0.000000
0.407579 0.000000 0.000000
0.435246 0.000000 0.000000
0.459832 0.000000 0.000000
0.485251 0.000000 0.000000
0.511091 0.000000 0.000000
0.539288 0.000000 0.006706
0.569255 0.000000 0.011074
0.598683 0.000000 0.017663
0.626491 0.000000 0.024189
0.653280 0.000000 0.033426
0.681195 0.000000 0.042952
0.711117 0.000000 0.052598
0.743474 0.000000 0.063264
0.778607 0.000000 0.075436
0.818272 0.058616 0.088481
0.000000 0.028848 0.000000
0.000000 0.030022 0.000000
0.000000 0.033362 0.000000
0.042442 0.036512 0.000000
0.059231 0.039409 0.000000
0.078433 0.040974 0.000000
0.102653 0.040745 0.000000
0.128229 0.038828 0.000000
0.151183 0.035185 0.000000
0.178230 0.030916 0.000000
0.208470 0.025161 0.000000
0.234210 0.017161 0.000000
0.259259 0.003442 0.000000
0.285196 0.000000 0.000000
0.314203 0.000000 0.000000
0.339789 0.000000 0.000000
0.364566 0.000000 0.000000
0.388802 0.000000 0.000000
0.413888 0.022881 0.000000
0.439218 0.021214 0.000000
0.463815 0.024211 0.000000
0.489332 0.026015 0.000000
0.515090 0.021893 0.000000
0.543081 0.022739 0.000000
0.572530 0.018247 0.000000
0.601422 0.000000 0.015700
0.628908 0.000000 0.023360
0.655347 0.000000 0.033386
0.683009 0.000000 0.043156
0.712741 0.000000 0.052925
0.745023 0.016511 0.063670
0.779944 0.040303 0.076055
0.819526 0.072140 0.089119
0.000000 0.053802 0.000000
0.016328 0.054020 0.000000
0.036478 0.055528 0.000000
0.050958 0.057452 0.000000
0.069058 0.058247 0.000000
0.089703 0.059966 0.000000
0.114365 0.061212 0.000000
0.138721 0.062219 0.000000
0.162731 0.063113 0.000000
0.191247 0.062597 0.000000
0.220470 0.062405 0.000000
0.246646 0.063059 0.000000
0.271130 0.063019 0.000000
0.296542 0.063471 0.000000
0.324306 0.064509 0.000000
0.349397 0.065455 0.000000
0.374215 0.066701 0.000000
0.397820 0.067414 0.000000
0.422431 0.067831 0.000000
0.446881 0.068971 0.000000
0.470830 0.071042 0.000000
0.495375 0.073370 0.000000
0.520725 0.075906 0.000000
0.548343 0.075496 0.000000
0.577364 0.070783 0.000000
0.605671 0.065544 0.011238
0.632921 0.059949 0.021365
0.658715 0.057333 0.033128
0.685961 0.056974 0.043445
0.715387 0.060050 0.053503
0.747539 0.065503 0.064312
0.782121 0.071136 0.076868
0.821537 0.088695 0.090138
0.028792 0.076824 0.000000
0.031414 0.077233 0.000000
0.040925 0.078448 0.000000
0.056254 0.080471 0.000000
0.076890 0.082807 0.000000
0.101276 0.085095 0.000000
0.126412 0.087138 0.000000
0.151388 0.088247 0.000000
0.177336 0.090323 0.000000
0.206591 0.091792 0.000000
0.233730 0.093216 0.000000
0.259852 0.094691 0.000000
0.284410 0.095808 0.000000
0.309061 0.096502 0.000000
0.334632 0.096325 0.000000
0.359856 0.096461 0.000000
0.384744 0.096966 0.000000
0.408429 0.097988 0.000000
0.433066 0.098862 0.000000
0.456521 0.100724 0.000000
0.480396 0.102706 0.000000
0.504625 0.104227 0.000000
0.529681 0.105982 0.000000
0.556159 0.106955 0.000000
0.583865 0.104195 0.000000
0.611250 0.099555 0.000000
0.638199 0.096761 0.017728
0.663727 0.094870 0.032369
0.690275 0.091685 0.043681
0.719159 0.090521 0.055119
0.750971 0.092949 0.065727
0.785221 0.096953 0.077952
0.824311 0.106999 0.091566
0.027194 0.107545 0.000000
0.031781 0.107790 0.000000
0.045415 0.108784 0.000000
0.063299 0.110600 0.000000
0.083114 0.112938 0.000000
0.110698 0.115660 0.000000
0.139932 0.118433 0.000000
0.165821 0.119050 0.000000
0.192672 0.119449 0.000000
0.220205 0.122218 0.000000
0.246605 0.124236 0.000000
0.271735 0.123436 0.000000
0.296744 0.123282 0.000000
0.321044 0.124815 0.000000
0.345553 0.125101 0.000000
0.369965 0.126185 0.000000
0.395499 0.126904 0.000000
0.420497 0.128263 0.000000
0.444788 0.130281 0.000000
0.468163 0.132077 0.000000
0.491412 0.130808 0.000000
0.515374 0.130377 0.000000
0.540263 0.132987 0.000000
0.566314 0.134115 0.000000
0.593516 0.132195 0.000000
0.619000 0.130698 0.000000
0.644716 0.128077 0.012380
0.669939 0.125952 0.032726
0.696216 0.123370 0.045386
0.724234 0.119145 0.057218
0.755386 0.117958 0.067919
0.789205 0.121930 0.079212
0.828035 0.128341 0.093045
0.029425 0.138775 0.000000
0.033992 0.139104 0.000000
0.048600 0.140093 0.000000
0.068456 0.141975 0.000000
0.091951 0.144574 0.000000
0.118554 0.147232 0.000000
0.147605 0.149029 0.000000
0.177385 0.149443 0.000000
0.204281 0.151246 0.000000
0.231064 0.154023 0.000000
0.257569 0.156847 0.000000
0.284098 0.156800 0.000000
0.308981 0.156676 0.000000
0.331888 0.157640 0.000000
0.356608 0.158128 0.000000
0.381451 0.158310 0.000000
0.406289 0.159040 0.000000
0.431605 0.159974 0.000000
0.456134 0.161154 0.000000
0.480639 0.162445 0.000000
0.504193 0.161171 0.000000
0.527843 0.160277 0.000000
0.552021 0.161251 0.000000
0.577496 0.161673 0.000000
0.604015 0.161459 0.000000
0.629192 0.161550 0.000000
0.654288 0.159756 0.000000
0.677620 0.156561 0.032913
0.703084 0.152886 0.047655
0.730828 0.149057 0.059819
0.760806 0.144222 0.070665
0.794022 0.145161 0.081521
0.832625 0.150253 0.094875
0.030627 0.173958 0.000000
0.036612 0.174156 0.000000
0.053640 0.175091 0.000000
0.075489 0.176867 0.000000
0.099958 0.179355 0.000000
0.127242 0.180796 0.000000
0.156707 0.182122 0.000000
0.186342 0.182116 0.000000
0.210453 0.184016 0.000000
0.237005 0.186045 0.000000
0.263987 0.187618 0.000000
0.291546 0.187546 0.000000
0.316594 0.187446 0.000000
0.340329 0.187997 0.000000
0.365719 0.190078 0.000000
0.391687 0.191694 0.000000
0.417874 0.190338 0.000000
0.443332 0.191314 0.000000
0.467290 0.192620 0.000000
0.491539 0.193356 0.000000
0.515976 0.192650 0.000000
0.540358 0.190787 0.000000
0.564368 0.189836 0.000000
0.589579 0.190668 0.000000
0.615468 0.193246 0.000000
0.640376 0.193566 0.000000
0.664937 0.190864 0.000000
0.687941 0.187783 0.030052
0.711768 0.183481 0.048842
0.738240 0.178368 0.062908
0.767514 0.173246 0.073661
0.799821 0.168395 0.084688
0.838764 0.170600 0.097254
0.051384 0.207509 0.000000
0.055231 0.207669 0.000000
0.068807 0.208244 0.000000
0.089179 0.209348 0.000000
0.115112 0.209524 0.000000
0.142921 0.209582 0.000000
0.169926 0.210443 0.000000
0.194278 0.212160 0.000000
0.217538 0.214965 0.000000
0.242262 0.217419 0.000000
0.269977 0.217963 0.000000
0.297686 0.217733 0.000000
0.322196 0.218075 0.000000
0.349721 0.219859 0.000000
0.376034 0.220961 0.000000
0.402967 0.221557 0.000000
0.429800 0.221063 0.000000
0.454027 0.219847 0.000000
0.477816 0.220469 0.000000
0.502242 0.221295 0.000000
0.526780 0.222061 0.000000
0.551454 0.222751 0.000000
0.575722 0.220741 0.000000
0.601369 0.219480 0.000000
0.626539 0.221377 0.000000
0.651440 0.222522 0.000000
0.675960 0.220399 0.000000
0.698638 0.216932 0.028113
0.722230 0.212336 0.049802
0.747456 0.206654 0.065851
0.775445 0.202344 0.076677
0.807269 0.196423 0.087567
0.845725 0.194618 0.099986
0.075117 0.238252 0.000000
0.077872 0.238375 0.000000
0.088474 0.238892 0.000000
0.107354 0.239193 0.000000
0.131209 0.239381 0.000000
0.154835 0.239697 0.000000
0.179196 0.240787 0.000000
0.201461 0.243397 0.000000
0.224630 0.246234 0.000000
0.249491 0.248616 0.000000
0.278122 0.248243 0.000000
0.304122 0.248084 0.000000
0.329542 0.248126 0.000000
0.357685 0.250440 0.000000
0.387530 0.252547 0.000000
0.415488 0.253745 0.000000
0.441739 0.252909 0.000000
0.465092 0.250857 0.000000
0.488869 0.248935 0.000000
0.513216 0.249545 0.000000
0.537305 0.248859 0.000000
0.561729 0.248968 0.000000
0.586250 0.248971 0.000000
0.611260 0.248708 0.000000
0.636889 0.248469 0.000000
0.662622 0.249597 0.000000
0.687444 0.250143 0.000000
0.710090 0.247695 0.025917
0.733655 0.243826 0.050639
0.758609 0.238374 0.066984
0.784960 0.235612 0.078335
0.816198 0.230461 0.089970
0.853372 0.222149 0.103091
0.097372 0.267066 0.000000
0.099179 0.267189 0.000000
0.106682 0.267677 0.000000
0.120652 0.268285 0.000000
0.140145 0.268564 0.000000
0.161514 0.270449 0.000000
0.184955 0.272882 0.000000
0.208786 0.275115 0.000000
0.231992 0.277426 0.000000
0.260128 0.277682 0.000000
0.287181 0.277571 0.000000
0.312587 0.277080 0.000000
0.338969 0.277292 0.000000
0.367038 0.278694 0.000000
0.395697 0.280172 0.000000
0.426900 0.281643 0.000000
0.453616 0.281859 0.000000
0.476607 0.280512 0.000000
0.500540 0.279199 0.000000
0.524586 0.278557 0.000000
0.548912 0.279948 0.000000
0.573078 0.279671 0.000000
0.597666 0.280857 0.000000
0.621669 0.280215 0.000000
0.646826 0.278502 0.000000
0.672821 0.280576 0.000000
0.699150 0.282632 0.000000
0.721772 0.280138 0.022300
0.745272 0.276329 0.050555
0.769638 0.271276 0.067133
0.796121 0.269268 0.079456
0.825514 0.265841 0.092465
0.861506 0.253808 0.106522
0.113344 0.296627 0.000000
0.114706 0.296742 0.000000
0.120391 0.297190 0.000000
0.131242 0.298038 0.000000
0.148394 0.299333 0.000000
0.169162 0.301087 0.000000
0.192554 0.303243 0.000000
0.217402 0.305511 0.000000
0.243592 0.306266 0.000000
0.269867 0.306369 0.000000
0.295265 0.306399 0.000000
0.320918 0.306267 0.000000
0.348382 0.307567 0.000000
0.376572 0.309222 0.000000
0.405649 0.310918 0.000000
0.435814 0.313007 0.000000
0.461840 0.313482 0.000000
0.487888 0.313920 0.000000
0.511855 0.312198 0.000000
0.535841 0.310831 0.000000
0.560200 0.313012 0.000000
0.584715 0.315266 0.000000
0.608357 0.315003 0.000000
0.632244 0.314521 0.000000
0.657394 0.313667 0.000000
0.682598 0.312721 0.000000
0.708854 0.315040 0.000000
0.732973 0.313924 0.010746
0.757079 0.310758 0.050033
0.780956 0.305862 0.066780
0.807522 0.304569 0.080318
0.836145 0.302048 0.094871
0.870198 0.290483 0.110181
0.128196 0.329108 0.000000
0.129469 0.329182 0.000000
0.134590 0.329578 0.000000
0.144369 0.330375 0.000000
0.160141 0.331581 0.000000
0.179868 0.333219 0.000000
0.202507 0.335211 0.000000
0.225832 0.336044 0.000000
0.248990 0.336291 0.000000
0.273448 0.336414 0.000000
0.298579 0.336557 0.000000
0.326424 0.337507 0.000000
0.357684 0.339503 0.000000
0.386523 0.341406 0.000000
0.416589 0.343452 0.000000
0.444166 0.345172 0.000000
0.469897 0.345535 0.000000
0.495876 0.345982 0.000000
0.522130 0.346622 0.000000
0.546577 0.346399 0.000000
0.570814 0.347933 0.000000
0.595190 0.349869 0.000000
0.617965 0.352708 0.000000
0.642502 0.352750 0.000000
0.667693 0.351919 0.000000
0.692837 0.350814 0.000000
0.718387 0.348919 0.000000
0.742593 0.348260 0.000000
0.767156 0.346080 0.049250
0.790809 0.340685 0.068347
0.816692 0.336998 0.082185
0.844703 0.334216 0.098205
0.878586 0.325353 0.114323
0.143429 0.362558 0.000000
0.144537 0.362626 0.000000
0.149210 0.363018 0.000000
0.158179 0.363755 0.000000
0.172107 0.364948 0.000000
0.190469 0.365876 0.000000
0.210414 0.366352 0.000000
0.230158 0.367009 0.000000
0.251334 0.367691 0.000000
0.275691 0.367932 0.000000
0.301279 0.368400 0.000000
0.332510 0.370985 0.000000
0.364687 0.373675 0.000000
0.396754 0.376074 0.000000
0.425329 0.378322 0.000000
0.451594 0.378991 0.000000
0.477277 0.379033 0.000000
0.503276 0.379281 0.000000
0.529450 0.379629 0.000000
0.555523 0.381593 0.000000
0.580666 0.383448 0.000000
0.603583 0.384626 0.000000
0.625091 0.386039 0.000000
0.650305 0.383901 0.000000
0.676667 0.382449 0.000000
0.701741 0.380340 0.000000
0.727270 0.378460 0.000000
0.752168 0.380761 0.000000
0.775406 0.377717 0.052273
0.799271 0.372436 0.073229
0.824672 0.365572 0.086380
0.852434 0.362510 0.103002
0.886876 0.355866 0.119717
0.158977 0.393600 0.032041
0.159976 0.393663 0.031691
0.164260 0.394028 0.030097
0.172048 0.394713 0.026476
0.182509 0.395765 0.018994
0.197382 0.396309 0.015463
0.215020 0.396881 0.010948
0.234598 0.397559 0.000000
0.255613 0.398379 0.000000
0.279320 0.398919 0.000000
0.306322 0.400875 0.000000
0.336128 0.403020 0.000000
0.368435 0.405162 0.000000
0.401693 0.407258 0.000000
0.430634 0.408946 0.000000
0.459181 0.408452 0.000000
0.485916 0.408145 0.000000
0.511755 0.408008 0.000000
0.537651 0.408016 0.000000
0.562453 0.410418 0.000000
0.587457 0.413354 0.000000
0.610545 0.416349 0.000000
0.632083 0.417701 0.000000
0.658315 0.414782 0.000000
0.684872 0.410997 0.000000
0.710865 0.408674 0.000000
0.736397 0.407079 0.000000
0.760603 0.408821 0.031754
0.783798 0.408664 0.058370
0.807667 0.403308 0.078610
0.833096 0.396274 0.093928
0.860595 0.390498 0.109259
0.895117 0.383258 0.126352
0.172302 0.421898 0.053061
0.173146 0.421951 0.052882
0.176572 0.422257 0.052173
0.183206 0.422771 0.050592
0.193211 0.423659 0.048130
0.206546 0.424638 0.045183
0.223567 0.425069 0.044712
0.242689 0.425584 0.044018
0.263301 0.426213 0.043175
0.289767 0.428449 0.035840
0.316759 0.430508 0.015930
0.344808 0.432557 0.000000
0.376479 0.434604 0.000000
0.407234 0.436760 0.000000
0.434227 0.437602 0.000000
0.462876 0.437498 0.000000
0.491301 0.437026 0.000000
0.517991 0.436694 0.000000
0.543216 0.437264 0.000000
0.567898 0.439813 0.000000
0.591960 0.442667 0.000000
0.615122 0.445867 0.000000
0.639091 0.448925 0.000000
0.666493 0.445824 0.000000
0.693180 0.442094 0.000000
0.719877 0.438048 0.000000
0.745687 0.436071 0.000000
0.768345 0.436505 0.046756
0.791695 0.436504 0.067842
0.815972 0.434445 0.085378
0.841402 0.427238 0.100631
0.869250 0.419456 0.116748
0.903345 0.411567 0.133338
0.185848 0.449585 0.074999
0.186658 0.449634 0.074880
0.189830 0.449868 0.074386
0.195990 0.450379 0.073459
0.205331 0.451145 0.071939
0.217654 0.452171 0.069847
0.233116 0.453165 0.068090
0.253165 0.454134 0.066621
0.277517 0.456048 0.063071
0.303505 0.458197 0.058648
0.330704 0.460338 0.052463
0.358892 0.462233 0.042197
0.385711 0.464346 0.024284
0.412766 0.465814 0.000000
0.438151 0.466180 0.000000
0.465198 0.466482 0.000000
0.493992 0.466338 0.000000
0.522675 0.465808 0.000000
0.548642 0.467102 0.000000
0.573265 0.469517 0.000000
0.596237 0.472326 0.000000
0.619303 0.475301 0.000000
0.644913 0.477360 0.000000
0.674727 0.477009 0.000000
0.701593 0.473347 0.000000
0.728693 0.469254 0.000000
0.753957 0.467202 0.037899
0.776498 0.467976 0.059347
0.799857 0.468388 0.077417
0.824101 0.465789 0.093468
0.849528 0.458543 0.108450
0.878267 0.449764 0.123809
0.911589 0.443668 0.139662
0.196535 0.479109 0.091455
0.197154 0.479195 0.091355
0.200190 0.479414 0.090957
0.206057 0.479852 0.090235
0.214892 0.480572 0.089043
0.229583 0.481564 0.087535
0.248213 0.482847 0.085774
0.269667 0.484354 0.083545
0.293227 0.486136 0.080885
0.318714 0.488076 0.077716
0.346108 0.490253 0.074064
0.371034 0.492253 0.067899
0.396544 0.494059 0.060665
0.421302 0.494406 0.057662
0.446515 0.494708 0.054411
0.472203 0.495050 0.050803
0.501143 0.495276 0.046853
0.529415 0.495269 0.040396
0.553960 0.497297 0.000000
0.577532 0.499574 0.000000
0.600350 0.502240 0.000000
0.623332 0.505116 0.000000
0.651018 0.506029 0.000000
0.681054 0.505883 0.000000
0.710152 0.504745 0.035517
0.737743 0.500582 0.042780
0.761756 0.499633 0.056817
0.784327 0.500404 0.072491
0.807684 0.500824 0.088399
0.831947 0.497386 0.102477
0.857757 0.489858 0.115741
0.887122 0.481876 0.130297
0.919578 0.476101 0.146919
0.212407 0.509927 0.105636
0.213354 0.509967 0.105574
0.216906 0.510173 0.105382
0.224145 0.510583 0.104864
0.234989 0.511264 0.104105
0.249462 0.512127 0.103035
0.267077 0.513309 0.101665
0.287560 0.514702 0.100017
0.310648 0.516288 0.097937
0.334325 0.518189 0.095432
0.358189 0.520311 0.092488
0.382973 0.522536 0.088885
0.406602 0.522795 0.087057
0.430873 0.523109 0.085038
0.455776 0.523428 0.082932
0.481158 0.523754 0.080751
0.508148 0.524034 0.078472
0.534471 0.525756 0.071849
0.558598 0.527894 0.061336
0.581415 0.530069 0.047146
0.604291 0.532407 0.032255
0.627565 0.534716 0.027868
0.657606 0.534273 0.037852
0.687549 0.533870 0.047122
0.717774 0.533523 0.057560
0.746953 0.531127 0.064310
0.769361 0.531367 0.074849
0.791917 0.531919 0.086560
0.815308 0.532249 0.099181
0.839718 0.527867 0.110744
0.866160 0.520445 0.123471
0.895541 0.513817 0.137918
0.927173 0.508272 0.155284
0.235345 0.540759 0.117235
0.236114 0.540838 0.117175
0.239504 0.541029 0.116952
0.246086 0.541351 0.116524
0.256171 0.541979 0.115864
0.269784 0.542771 0.114938
0.286636 0.543824 0.113762
0.305281 0.545120 0.112262
0.325134 0.546610 0.110476
0.346874 0.548255 0.108459
0.369967 0.549946 0.106482
0.392897 0.550544 0.106613
0.416421 0.550953 0.105959
0.440209 0.551170 0.104456
0.464728 0.551340 0.102845
0.489759 0.551515 0.101199
0.515763 0.552219 0.098378
0.540783 0.554310 0.092154
0.563939 0.556628 0.085138
0.587064 0.558590 0.076937
0.610119 0.560482 0.067080
0.635295 0.561392 0.060572
0.664877 0.561091 0.061841
0.694650 0.560873 0.065579
0.725140 0.560644 0.071461
0.754315 0.561213 0.079665
0.776892 0.563296 0.089041
0.799346 0.564183 0.098586
0.822759 0.564839 0.110316
0.847521 0.559559 0.120338
0.874373 0.552072 0.132614
0.903674 0.546759 0.147110
0.934690 0.541216 0.165420
0.258782 0.571148 0.129063
0.259638 0.571178 0.129015
0.262695 0.571336 0.128839
0.268224 0.571675 0.128522
0.276795 0.572200 0.127935
0.288319 0.572926 0.127168
0.302672 0.573853 0.126152
0.319528 0.575026 0.124934
0.338664 0.576443 0.123408
0.357833 0.577438 0.121836
0.376867 0.577916 0.120454
0.399323 0.578609 0.120595
0.422786 0.579327 0.120737
0.446641 0.579825 0.120061
0.470704 0.580116 0.118593
0.495351 0.580427 0.117046
0.519385 0.582474 0.111942
0.543069 0.584755 0.106194
0.565788 0.587175 0.099850
0.588918 0.589687 0.092785
0.612113 0.592148 0.084684
0.641574 0.591707 0.077026
0.671569 0.591175 0.073002
0.701481 0.590834 0.075448
0.732092 0.590595 0.080177
0.758634 0.592281 0.088386
0.782469 0.596062 0.099840
0.806268 0.598938 0.111474
0.829692 0.598561 0.121653
0.855505 0.592786 0.130870
0.881901 0.585349 0.142894
0.911108 0.581341 0.157591
0.941489 0.574423 0.178435
0.279534 0.603118 0.143506
0.280174 0.603145 0.143466
0.282649 0.603300 0.143314
0.287790 0.603624 0.142994
0.295750 0.604073 0.142533
0.306600 0.604763 0.141817
0.320144 0.605649 0.140939
0.334766 0.606385 0.139897
0.349828 0.606739 0.138712
0.366514 0.607179 0.137389
0.384655 0.607653 0.135872
0.404599 0.608168 0.134348
0.427780 0.608908 0.134550
0.451822 0.609673 0.134774
0.476115 0.610226 0.134221
0.499607 0.611760 0.130475
0.522232 0.613905 0.125574
0.544603 0.616133 0.120216
0.567397 0.618513 0.114411
0.590584 0.620996 0.108080
0.617196 0.622489 0.101808
0.647962 0.622406 0.095778
0.678004 0.621739 0.088752
0.707118 0.621312 0.085311
0.737768 0.621001 0.089091
0.762481 0.623992 0.097671
0.786294 0.627809 0.108571
0.810956 0.632137 0.121994
0.836633 0.632817 0.133870
0.862666 0.627154 0.142548
0.888916 0.620726 0.154294
0.917843 0.617604 0.169512
0.947874 0.608657 0.193935
0.296083 0.635716 0.158763
0.296598 0.635737 0.158733
0.298976 0.635891 0.158598
0.303186 0.636038 0.158333
0.309315 0.636176 0.157927
0.317782 0.636360 0.157397
0.328529 0.636583 0.156646
0.341372 0.636853 0.155763
0.356093 0.637209 0.154664
0.372446 0.637655 0.153448
0.390252 0.638140 0.152061
0.409291 0.638711 0.150517
0.432057 0.639321 0.149053
0.455879 0.640096 0.149129
0.479619 0.641924 0.147677
0.502183 0.644299 0.144409
0.523949 0.646411 0.139775
0.546167 0.648688 0.134813
0.568880 0.651071 0.129375
0.591949 0.653557 0.123596
0.622667 0.653855 0.118638
0.653601 0.654185 0.113442
0.684450 0.654048 0.107564
0.713230 0.653576 0.100394
0.739523 0.654316 0.098099
0.763503 0.657734 0.106501
0.788511 0.661317 0.117429
0.814223 0.665431 0.131072
0.842552 0.666485 0.144916
0.868729 0.662519 0.155471
0.895104 0.657669 0.167143
0.924087 0.654641 0.183263
0.953782 0.643639 0.211777
0.303487 0.667160 0.174511
0.303929 0.667159 0.174484
0.305861 0.667199 0.174365
0.309702 0.667282 0.174126
0.315802 0.667403 0.173741
0.324039 0.667563 0.173209
0.334581 0.667761 0.172509
0.347107 0.668041 0.171654
0.361573 0.668357 0.170632
0.377810 0.668706 0.169440
0.395423 0.669178 0.168108
0.414289 0.669683 0.166626
0.436060 0.670269 0.165164
0.458889 0.671845 0.163278
0.480970 0.674085 0.160992
0.503004 0.676557 0.158493
0.525561 0.679103 0.155722
0.547779 0.681271 0.151095
0.570484 0.683492 0.146203
0.596208 0.684468 0.141586
0.624844 0.684647 0.137114
0.655542 0.684796 0.132551
0.687204 0.684834 0.127540
0.716875 0.684555 0.121600
0.743286 0.686037 0.116907
0.769046 0.688568 0.117707
0.793692 0.691858 0.128745
0.819182 0.695004 0.141992
0.847916 0.695252 0.155410
0.874737 0.694646 0.170792
0.901463 0.691843 0.182543
0.930570 0.689115 0.199786
0.959731 0.677073 0.231623
0.312291 0.696979 0.190158
0.312716 0.696997 0.190122
0.314372 0.697110 0.189994
0.317877 0.697341 0.189720
0.323409 0.697667 0.189266
0.330873 0.698195 0.188624
0.341182 0.698394 0.187983
0.353516 0.698640 0.187220
0.367660 0.698954 0.186283
0.383591 0.699298 0.185193
0.401028 0.699707 0.183968
0.419667 0.700183 0.182631
0.439226 0.701710 0.180840
0.460353 0.703568 0.178947
0.481797 0.705617 0.176951
0.504031 0.707803 0.174831
0.526827 0.710100 0.172571
0.550103 0.712501 0.170173
0.575207 0.714158 0.167273
0.603153 0.714420 0.164079
0.630754 0.714659 0.160092
0.658869 0.714920 0.155941
0.689700 0.715080 0.151459
0.718491 0.715882 0.146193
0.744732 0.718350 0.142522
0.771689 0.720538 0.138866
0.797919 0.723209 0.140586
0.825171 0.724802 0.152839
