Fusion/LUTs/Lutify-Free-LUTs-Pack/Lutify Free LUTs Pack/Print Film Pro - Print Film 2/Lutify.me-PrintFilm2-Rec709-to-Rec709.cube
# Created with: fylm.ai - Colour Grading and Collaboration Software in Cloud 
# Website: https://fylm.ai 
# META
# Option: Gamut compress
# Block 1: IDT | Rec709
# Block 2: colourMatch | Blending Mode: Normal | {"ColorSpace":0,"CrossCovarianceLimit":50,"ReshapingIterations":1,"PercentSaturationShift":100,"PercentShadingShift":100,"ExtraShading":true,"PercentTint":100,"PercentModified":100}
# Block 3: HSL | Blending Mode: Normal | {"hue":{"Reds":0,"Yellows":0,"Greens":0,"Cyans":0,"Blues":0,"Magentas":0},"saturation":{"Reds":1,"Yellows":0.9,"Greens":0.95,"Cyans":1,"Blues":1,"Magentas":1},"luminance":{"Reds":0.8,"Yellows":0.95,"Greens":0.9,"Cyans":0.8,"Blues":0.8,"Magentas":0.8},"lum_sat":{"Blacks":1,"Shadows":1,"Midtones":1,"Highlights":1,"Whites":1},"sat_sat":{"10":1,"20":1,"30":1,"40":1,"50":1}}
# Block 4: LUT | Filmic Curve Response: Low Contrast 2 (100%)
# Block 5: ODT | Rec709
TITLE "Lutify.me-PrintFilm2-Rec709-to-Rec709" 
LUT_3D_SIZE 5
0.000000 0.000000 0.000000
0.132304 0.000000 0.000000
0.353194 0.000000 0.000000
0.567022 0.000000 0.014126
0.817469 0.047615 0.088083
0.030627 0.173958 0.000000
0.210453 0.184016 0.000000
0.417874 0.190338 0.000000
0.615468 0.193246 0.000000
0.838764 0.170600 0.097254
0.172302 0.421898 0.053061
0.263301 0.426213 0.043175
0.491301 0.437026 0.000000
0.693180 0.442094 0.000000
0.903345 0.411567 0.133338
0.303487 0.667160 0.174511
0.361573 0.668357 0.170632
0.525561 0.679103 0.155722
0.743286 0.686037 0.116907
0.959731 0.677073 0.231623
0.451769 0.951356 0.584401
0.477446 0.952871 0.589922
0.576513 0.958954 0.615856
0.727801 0.971259 0.678128
0.977540 0.990180 0.804408
0.000000 0.000000 0.090306
0.141552 0.000000 0.125018
0.368174 0.000000 0.148259
0.586799 0.000000 0.148324
0.823109 0.062444 0.154307
0.000000 0.183701 0.229511
0.201780 0.209732 0.229426
0.427987 0.203329 0.191269
0.621838 0.191358 0.163049
0.844372 0.165204 0.164000
0.119156 0.447068 0.278429
0.238408 0.453808 0.271902
0.483414 0.465676 0.266026
0.689618 0.456672 0.227017
0.906496 0.415027 0.202562
0.272260 0.677826 0.312514
0.340697 0.681844 0.310812
0.521348 0.692483 0.306472
0.739742 0.697290 0.280214
0.959552 0.676904 0.285390
0.457307 0.952307 0.609927
0.482244 0.953725 0.612726
0.579143 0.959462 0.627186
0.728967 0.971525 0.679660
0.978793 0.990436 0.806029
0.000000 0.035466 0.320204
0.138065 0.033485 0.314679
0.370535 0.000000 0.340524
0.590138 0.076884 0.351484
0.851036 0.131610 0.326107
0.000000 0.173793 0.445921
0.159689 0.195660 0.446550
0.422754 0.216607 0.425626
0.630021 0.224134 0.395821
0.869827 0.205533 0.339179
0.000000 0.427238 0.520151
0.187933 0.446908 0.520061
0.465747 0.487339 0.522671
0.687782 0.475634 0.465043
0.912287 0.421931 0.373966
0.233859 0.684111 0.562811
0.313383 0.692474 0.565108
0.498284 0.714460 0.560992
0.739083 0.722895 0.552894
0.959730 0.677995 0.434694
0.470235 0.954689 0.696772
0.496901 0.956314 0.699456
0.593277 0.962412 0.706919
0.732808 0.973302 0.724319
0.983818 0.991257 0.812329
0.000000 0.083133 0.584203
0.078567 0.091098 0.582581
0.343173 0.101400 0.570287
0.589307 0.083497 0.576636
0.849191 0.133591 0.551938
0.000000 0.170836 0.645541
0.089584 0.186307 0.644911
0.368017 0.208292 0.630761
0.620680 0.227882 0.620510
0.866924 0.225845 0.571047
0.000000 0.403108 0.721491
0.129860 0.416284 0.720996
0.405830 0.454394 0.719033
0.668049 0.476239 0.705743
0.917317 0.450945 0.619862
0.142433 0.657422 0.763418
0.246421 0.665466 0.764760
0.452362 0.694930 0.766817
0.721534 0.738751 0.768332
0.962596 0.688161 0.654570
0.440551 0.953714 0.803633
0.477964 0.955876 0.805247
0.599118 0.964419 0.813625
0.749853 0.977631 0.825826
0.992832 0.993395 0.847299
0.065192 0.346949 0.940451
0.165293 0.355633 0.941571
0.313997 0.384239 0.944353
0.488976 0.418765 0.944642
0.801328 0.452163 0.937097
0.109843 0.380927 0.946771
0.181636 0.388225 0.947480
0.322669 0.412142 0.949467
0.494684 0.445714 0.948464
0.813043 0.473973 0.940250
0.230772 0.466618 0.961398
0.259907 0.472709 0.961617
0.355299 0.497029 0.962537
0.524319 0.532488 0.962160
0.854708 0.553960 0.953966
0.348313 0.614528 0.981962
0.369535 0.618956 0.982106
0.447047 0.636214 0.982496
0.582603 0.668146 0.981994
0.918961 0.707193 0.972952
0.476568 0.921618 1.000000
0.489803 0.923859 1.000000
0.543198 0.933091 1.000000
0.664731 0.953676 1.000000
0.998774 1.000000 1.000000
