Fusion/LUTs/Dennis-Schmelz-LUTS-Collection/Cave_Slog3_LUT.cube
LUT_3D_SIZE 16
0.015686 0.015686 0.015686
0.015686 0.015686 0.015686
0.028688 0.015686 0.019608
0.056010 0.014578 0.019608
0.114375 0.000000 0.015556
0.210579 0.000000 0.011765
0.349789 0.003922 0.000154
0.530733 0.000000 0.005008
0.720465 0.002928 0.000000
0.877598 0.003829 0.000000
0.984003 0.003019 0.003019
0.996078 0.000000 0.000000
0.996078 0.000000 0.000000
0.996078 0.000000 0.000000
0.998089 0.003922 0.002011
0.996078 0.000000 0.004134
0.015996 0.015376 0.015686
0.019129 0.018510 0.018820
0.023408 0.019608 0.011765
0.056536 0.019227 0.013769
0.111257 0.015048 0.014669
0.220925 0.000000 0.010917
0.367884 0.000009 0.004510
0.550722 0.001180 0.000237
0.730730 0.003516 0.000000
0.881798 0.001728 0.000000
0.984689 0.003705 0.004139
0.996078 0.001079 0.000000
0.997381 0.001303 0.001303
0.997460 0.002245 0.002671
0.997280 0.001202 0.001202
0.996474 0.000396 0.000396
0.014979 0.022822 0.018901
0.015100 0.022943 0.019022
0.016393 0.022822 0.013966
0.046907 0.030177 0.012816
0.098878 0.033226 0.008008
0.193281 0.028010 0.015621
0.323244 0.000000 0.006860
0.504494 0.000000 0.002519
0.700282 0.000418 0.001651
0.858534 0.001782 0.000101
0.970675 0.001455 0.000000
0.997655 0.001577 0.002753
0.999414 0.003336 0.005674
0.996462 0.000384 0.003846
0.996591 0.000513 0.000513
0.996078 0.000000 0.000000
0.003316 0.038163 0.016739
0.007515 0.034932 0.017950
0.017293 0.037229 0.018708
0.030686 0.035294 0.016154
0.082130 0.051878 0.009393
0.180204 0.070341 0.000000
0.315618 0.066946 0.000027
0.492370 0.014736 0.006052
0.689139 0.000628 0.006660
0.851405 0.001261 0.002522
0.966134 0.001739 0.001086
0.995085 0.006105 0.010236
1.000000 0.007843 0.000000
0.996078 0.001677 0.004490
0.996078 0.000000 0.000449
0.995611 0.000731 0.000731
0.000000 0.076895 0.015686
0.001379 0.069209 0.018444
0.007033 0.062617 0.019471
0.018788 0.060643 0.016186
0.050093 0.068889 0.015014
0.126547 0.095589 0.000215
0.268165 0.131037 0.003845
0.452563 0.142224 0.001680
0.650416 0.141926 0.000000
0.812344 0.132096 0.010392
0.938922 0.108507 0.000000
0.999888 0.063268 0.000112
0.997386 0.018477 0.001892
0.996791 0.003922 0.004683
0.996078 0.000000 0.002049
0.996363 0.000541 0.000285
0.000000 0.148595 0.014287
0.004117 0.125423 0.011260
0.000495 0.122232 0.007047
0.000000 0.113505 0.010119
0.017763 0.114114 0.005846
0.087610 0.136180 0.000431
0.222887 0.179611 0.004762
0.406759 0.223602 0.001213
0.621645 0.258390 0.000155
0.791299 0.285854 0.000501
0.914849 0.299142 0.000000
0.997187 0.298204 0.004348
0.997384 0.282673 0.002613
1.000000 0.246125 0.006126
0.996615 0.184200 0.000536
0.994673 0.048188 0.000449
0.000000 0.245077 0.002291
0.000000 0.221720 0.000000
0.002783 0.213873 0.005067
0.002750 0.204838 0.000027
0.000000 0.182572 0.004559
0.015684 0.202205 0.002273
0.154401 0.226921 0.000000
0.328120 0.283062 0.003897
0.552746 0.347283 0.000524
0.741117 0.388704 0.000060
0.877502 0.410596 0.000000
0.982572 0.422329 0.000000
0.997833 0.417450 0.000000
0.998766 0.394544 0.000707
1.000000 0.355848 0.002386
0.999456 0.303438 0.000000
0.010400 0.398984 0.003922
0.000000 0.359768 0.000000
0.001278 0.351855 0.006145
0.002739 0.346609 0.000577
0.000000 0.318934 0.002712
0.003239 0.292396 0.001012
0.022978 0.321041 0.002477
0.249619 0.354179 0.004656
0.467575 0.416220 0.002776
0.686195 0.476349 0.002234
0.839624 0.514510 0.000942
0.957162 0.520004 0.000995
0.998556 0.517518 0.002618
0.998323 0.503430 0.004993
0.998837 0.470621 0.000748
0.998075 0.427981 0.000000
0.007843 0.568033 0.000000
0.000000 0.530053 0.002686
0.001236 0.522210 0.001236
0.001935 0.512381 0.003436
0.002786 0.487900 0.001236
0.000000 0.455412 0.000000
0.002271 0.427017 0.000000
0.098106 0.463834 0.000000
0.369096 0.496532 0.000627
0.589754 0.534888 0.003401
0.784311 0.591458 0.002806
0.912687 0.607193 0.002257
1.000000 0.603799 0.003338
1.000000 0.592465 0.000194
0.999965 0.564280 0.000000
1.000000 0.524796 0.001855
0.003781 0.706728 0.000000
0.003781 0.679544 0.003796
0.000000 0.678601 0.003075
0.002598 0.666521 0.002789
0.001719 0.652629 0.001639
0.000411 0.622277 0.007843
0.000000 0.583593 0.000000
0.000910 0.577529 0.000000
0.264785 0.600072 0.001000
0.512562 0.636043 0.000179
0.715690 0.661158 0.000000
0.874484 0.688313 0.000000
0.985130 0.690208 0.007837
0.998815 0.672968 0.000000
0.997404 0.642106 0.000000
0.993934 0.608397 0.000000
0.006229 0.801843 0.076582
0.002307 0.791498 0.015368
0.001784 0.787245 0.001615
0.000000 0.780621 0.002308
0.001134 0.773257 0.004654
0.000992 0.756295 0.003599
0.000423 0.729887 0.003336
0.001839 0.698120 0.001839
0.033447 0.691927 0.000000
0.428922 0.709085 0.003056
0.631660 0.725006 0.003020
0.809009 0.743972 0.000813
0.946461 0.760937 0.000000
0.997123 0.758572 0.001676
0.999451 0.723959 0.001461
0.996367 0.676038 0.000289
0.000000 0.886729 0.260036
0.000046 0.883666 0.239399
0.002894 0.879292 0.205981
0.001845 0.877041 0.134375
0.000056 0.867273 0.006113
0.003112 0.852666 0.000065
0.000143 0.847237 0.003553
0.000000 0.819808 0.003771
0.000151 0.789027 0.037410
0.342395 0.790161 0.005302
0.555396 0.798707 0.005712
0.723747 0.804335 0.002856
0.879295 0.823685 0.000000
0.998356 0.832396 0.005168
1.000000 0.807499 0.010783
1.000000 0.756521 0.003525
0.000000 0.960793 0.384342
0.003917 0.956877 0.384342
0.002258 0.953556 0.381030
0.003917 0.951529 0.359742
0.000587 0.945704 0.312204
0.003922 0.944614 0.257650
0.010671 0.932268 0.178995
0.001914 0.917762 0.221410
0.003515 0.895311 0.304759
0.327615 0.871289 0.359820
0.502519 0.882359 0.303489
0.660291 0.886283 0.154115
0.789868 0.886295 0.000043
0.943117 0.897606 0.001676
0.998042 0.886804 0.003129
1.000000 0.837643 0.004496
0.003922 0.996140 0.522064
0.000000 0.999954 0.514390
0.000062 1.000000 0.522064
0.000000 1.000000 0.528283
0.000062 1.000000 0.522064
0.000062 0.998774 0.506625
0.001678 0.992281 0.494896
0.000052 0.988359 0.489742
0.067342 0.979132 0.534873
0.438649 0.963415 0.573613
0.582565 0.951683 0.620796
0.664628 0.953003 0.593309
0.748327 0.953820 0.526631
0.856982 0.957022 0.407929
0.984109 0.952819 0.136656
0.999593 0.913998 0.000365
0.003922 1.000000 0.661741
0.000209 0.999354 0.668938
0.000855 0.998469 0.652541
0.001618 1.000000 0.663451
0.003062 0.996086 0.668735
0.019372 0.995223 0.669584
0.102248 1.000000 0.674418
0.325394 0.999251 0.679098
0.440044 0.999151 0.688395
0.581119 0.997089 0.717303
0.680683 0.998058 0.744649
0.760019 0.998526 0.782366
0.805992 0.996933 0.766191
0.851422 0.997949 0.730852
0.912629 0.998067 0.685020
0.985405 0.982320 0.407747
0.298981 0.996117 0.713451
0.306710 0.999964 0.729024
0.302863 1.000000 0.725098
0.312901 1.000000 0.721295
0.326118 0.999961 0.732854
0.334212 0.996079 0.725196
0.390555 0.997715 0.731389
0.469922 0.999988 0.735673
0.547989 1.000000 0.746972
0.634642 0.996536 0.771306
0.713009 0.999961 0.791733
0.784596 1.000000 0.834289
0.844180 0.999993 0.851724
0.855118 0.996117 0.822786
0.896899 1.000000 0.786008
0.936713 1.000000 0.725723
0.015780 0.015780 0.015780
0.019019 0.019019 0.019019
0.031249 0.018248 0.022169
0.060384 0.013942 0.019889
0.118043 0.003919 0.012072
0.209667 0.000365 0.016964
0.349771 0.003904 0.007843
0.537064 0.000407 0.002155
0.734189 0.000994 0.004887
0.888251 0.003862 0.005157
0.992802 0.002829 0.004428
0.997856 0.001778 0.003061
0.997868 0.001790 0.001790
0.997223 0.001145 0.002788
0.997091 0.001013 0.002910
0.996078 0.001234 0.001241
0.011938 0.019298 0.016392
0.015703 0.016729 0.016216
0.032128 0.015436 0.016878
0.064262 0.013995 0.013735
0.125275 0.006724 0.014483
0.231503 0.001360 0.016446
0.374466 0.000328 0.004319
0.551998 0.000318 0.000153
0.748718 0.000444 0.002821
0.900588 0.005423 0.003304
0.996155 0.000154 0.000000
0.994443 0.003814 0.000000
0.997562 0.001484 0.001484
0.996890 0.001692 0.002729
0.996483 0.000405 0.006693
0.996459 0.001586 0.000381
0.011046 0.029937 0.016371
0.014853 0.025877 0.018104
0.021331 0.023648 0.014646
0.052915 0.032981 0.013676
0.114441 0.037557 0.013069
0.217953 0.017615 0.004573
0.354114 0.001424 0.002634
0.536215 0.000729 0.000036
0.726160 0.004024 0.002155
0.884047 0.000672 0.005533
0.988038 0.001068 0.004870
0.996078 0.000000 0.003420
0.999018 0.003916 0.002940
0.997710 0.001725 0.001632
0.996848 0.001539 0.000000
0.996877 0.002312 0.000799
0.005340 0.041479 0.021414
0.008592 0.038530 0.015094
0.011869 0.031387 0.010294
0.029690 0.034342 0.014684
0.080369 0.054602 0.013272
0.187600 0.070727 0.002820
0.327166 0.057292 0.003890
0.516132 0.006828 0.009759
0.710774 0.000000 0.001101
0.868711 0.001983 0.001978
0.975378 0.000113 0.001064
0.996794 0.002318 0.005742
0.996942 0.001624 0.000864
0.996078 0.000789 0.002502
0.996078 0.000926 0.003895
0.997941 0.002682 0.001863
0.002053 0.082551 0.019430
0.000000 0.073811 0.019377
0.000111 0.064593 0.012513
0.018614 0.061077 0.016252
0.052268 0.068834 0.010983
0.130572 0.100281 0.000186
0.279307 0.134065 0.000050
0.467412 0.139876 0.000993
0.666138 0.139768 0.002071
0.829287 0.132295 0.000802
0.945697 0.110703 0.000465
0.998492 0.070472 0.004716
0.996306 0.008486 0.007524
0.996867 0.001958 0.000789
0.997858 0.003243 0.002705
0.998445 0.002850 0.008812
0.002736 0.151543 0.011657
0.000000 0.138979 0.009191
0.000000 0.123166 0.001444
0.000000 0.116103 0.003996
0.018136 0.117691 0.004030
0.090477 0.137247 0.000345
0.225327 0.185390 0.001984
0.413130 0.232878 0.001974
0.631921 0.262883 0.002149
0.795808 0.295526 0.004908
0.924251 0.302809 0.000066
0.998044 0.299350 0.002597
0.996607 0.279992 0.001243
1.000000 0.241824 0.004585
0.996433 0.176014 0.000282
0.994893 0.046255 0.000690
0.000653 0.238540 0.005021
0.001412 0.232228 0.003557
0.000751 0.216645 0.002889
0.000827 0.205386 0.004753
0.000406 0.187423 0.002088
0.014559 0.201840 0.003124
0.158675 0.230021 0.000007
0.336441 0.284637 0.000000
0.558714 0.352866 0.002287
0.754747 0.394136 0.003190
0.884697 0.414406 0.000570
0.983551 0.422148 0.002401
0.999240 0.416198 0.002286
0.998749 0.393094 0.000262
0.998863 0.353764 0.001468
0.999886 0.297790 0.000341
0.007160 0.392527 0.006917
0.002200 0.378641 0.002966
0.002202 0.356021 0.001837
0.002552 0.345580 0.000361
0.000000 0.320116 0.003220
0.001948 0.294473 0.002189
0.022528 0.320283 0.002810
0.259382 0.358813 0.001888
0.480701 0.423447 0.003545
0.693099 0.488501 0.003117
0.844086 0.518529 0.003630
0.954359 0.521745 0.001132
0.999215 0.520168 0.001815
0.996670 0.503214 0.004087
0.999118 0.470993 0.002835
0.998198 0.428083 0.002315
0.004750 0.553583 0.000000
0.000602 0.541372 0.000000
0.002341 0.517586 0.001141
0.001858 0.504552 0.004438
0.000935 0.483202 0.002056
0.001700 0.448985 0.002377
0.003687 0.422843 0.003636
0.099109 0.457590 0.002144
0.372569 0.494972 0.000341
0.587186 0.541094 0.000013
0.791419 0.588849 0.002936
0.913790 0.610859 0.001313
1.000000 0.602870 0.001076
0.999941 0.585269 0.003728
0.999682 0.563317 0.000005
0.996825 0.524840 0.000000
0.006305 0.697721 0.000000
0.000882 0.686878 0.000077
0.001218 0.668955 0.005098
0.001303 0.660116 0.002695
0.000459 0.646725 0.000270
0.004390 0.616003 0.003163
0.000021 0.585164 0.001995
0.000876 0.573821 0.001010
0.270179 0.603966 0.000134
0.518034 0.624512 0.000030
0.718846 0.660344 0.000588
0.875532 0.685142 0.003314
0.989375 0.687670 0.007440
0.997483 0.670156 0.000000
0.998634 0.641895 0.004044
0.996503 0.606284 0.000000
0.002445 0.794443 0.042536
0.002167 0.788645 0.029972
0.002542 0.782344 0.001534
0.000258 0.778003 0.000000
0.000734 0.766912 0.001618
0.002020 0.750139 0.004452
0.003020 0.725149 0.003368
0.001878 0.690238 0.000108
0.024307 0.692231 0.000000
0.422003 0.708297 0.000261
0.635201 0.722024 0.001898
0.802795 0.743278 0.001893
0.948747 0.762888 0.002063
0.999949 0.752217 0.001338
0.999977 0.723256 0.001958
0.999932 0.677373 0.001753
0.004710 0.884298 0.251920
0.003265 0.880345 0.248652
0.000074 0.881002 0.200992
0.007647 0.875092 0.145604
0.000231 0.867408 0.005199
0.004748 0.860622 0.000054
0.000699 0.843879 0.000000
0.000157 0.820053 0.003652
0.000849 0.796625 0.049382
0.338188 0.786099 0.000374
0.560699 0.798644 0.000158
0.723091 0.805650 0.000000
0.880703 0.824599 0.000023
0.998935 0.830331 0.000796
0.998079 0.805386 0.002005
0.994796 0.757240 0.001327
0.000000 0.958653 0.385757
0.003343 0.957447 0.384636
0.001026 0.956757 0.374956
0.000099 0.952909 0.356776
0.000000 0.949087 0.308953
0.000291 0.937285 0.260401
0.007024 0.934955 0.173930
0.002199 0.917697 0.222408
0.005326 0.896791 0.313422
0.329071 0.875807 0.364602
0.509568 0.871734 0.300545
0.657290 0.886182 0.154645
0.798256 0.890122 0.000046
0.945158 0.899760 0.002241
0.998924 0.886383 0.000046
0.999145 0.838328 0.005083
0.003922 0.998045 0.518253
0.003307 0.999941 0.515159
0.000691 0.995844 0.506526
0.003836 0.999997 0.514508
0.000602 0.996740 0.508052
0.001275 0.996130 0.498775
0.005622 0.994013 0.489022
0.000215 0.988404 0.475545
0.014290 0.975993 0.509463
0.424381 0.956170 0.566056
0.584128 0.946861 0.617717
0.657770 0.953554 0.590466
0.748727 0.957630 0.520881
0.859080 0.959175 0.409096
0.983941 0.953429 0.138648
0.999946 0.915003 0.000000
0.002834 0.996512 0.664190
0.003891 0.997372 0.668613
0.001293 0.997052 0.665188
0.003789 0.997066 0.669697
0.002142 0.998572 0.669953
0.022431 0.995438 0.669691
0.094734 0.997623 0.667983
0.323072 0.999001 0.678548
0.437020 0.999955 0.683927
0.578898 0.996404 0.718675
0.680673 0.998087 0.747209
0.763324 0.996896 0.780498
0.803037 0.991095 0.769294
0.844763 0.996405 0.734569
0.911036 0.999924 0.685318
0.987290 0.980369 0.411191
0.305434 0.999987 0.718638
0.309877 0.999825 0.721119
0.318393 0.998417 0.724412
0.318393 1.000000 0.721295
0.322988 0.999929 0.725553
0.339613 0.997492 0.726603
0.394174 0.999909 0.732756
0.472235 0.999985 0.736710
0.547936 0.999874 0.749726
0.626206 0.999906 0.762626
0.708182 0.999963 0.791546
0.784451 0.999963 0.827696
0.843881 0.999805 0.857476
0.858818 1.000000 0.828804
0.896805 0.999929 0.779832
0.935156 0.998256 0.723809
0.015686 0.019608 0.027556
0.022805 0.015730 0.028766
0.035276 0.015721 0.031249
0.062315 0.008837 0.038557
0.125951 0.003616 0.034611
0.223847 0.002872 0.025264
0.357293 0.000036 0.009653
0.528481 0.000814 0.005008
0.723772 0.003586 0.003916
0.884578 0.002723 0.003829
0.992478 0.001078 0.005406
0.998355 0.005133 0.000000
0.998060 0.003587 0.001982
0.996078 0.000000 0.000075
0.997989 0.005814 0.000009
0.996078 0.000000 0.002778
0.012515 0.016484 0.024183
0.018792 0.019608 0.030987
0.033450 0.015571 0.030176
0.061992 0.011764 0.029258
0.121193 0.000023 0.024783
0.216650 0.003889 0.015719
0.352515 0.003117 0.000399
0.528027 0.000320 0.000154
0.743860 0.000292 0.002199
0.886611 0.000722 0.000048
0.990843 0.002153 0.000044
0.996917 0.001151 0.000839
0.996078 0.000000 0.002469
0.996917 0.002170 0.000839
0.996078 0.000763 0.001899
0.996118 0.003165 0.000000
0.009257 0.022822 0.021022
0.009532 0.023466 0.022495
0.023264 0.030185 0.022643
0.058812 0.022625 0.016943
0.128098 0.024013 0.012105
0.243152 0.001694 0.009067
0.394136 0.001679 0.005133
0.574610 0.000000 0.002846
0.762090 0.003170 0.002482
0.904526 0.002621 0.002719
0.994824 0.000956 0.001547
0.996299 0.000363 0.000663
0.997752 0.001674 0.009338
0.996063 0.000426 0.003476
0.996090 0.000012 0.000012
0.996129 0.000093 0.000009
0.001658 0.046548 0.037251
0.002311 0.045476 0.029490
0.013511 0.038887 0.023523
0.030762 0.035561 0.015696
0.088389 0.051324 0.008755
0.197980 0.055283 0.000215
0.341961 0.039978 0.005860
0.527549 0.003579 0.000955
0.729229 0.003666 0.002840
0.889559 0.001742 0.004466
0.985163 0.002776 0.004183
0.996088 0.002599 0.001006
0.999578 0.003500 0.003902
0.998591 0.005025 0.002437
0.999995 0.003918 0.005470
0.996148 0.000447 0.000070
0.002103 0.093950 0.039316
0.000025 0.086028 0.035178
0.000902 0.071813 0.016750
0.017247 0.061459 0.018700
0.053339 0.068895 0.007882
0.144083 0.099743 0.000919
0.297329 0.123389 0.000639
0.484283 0.130586 0.002745
0.681154 0.121505 0.003336
0.839976 0.099200 0.000149
0.963082 0.048219 0.002196
0.993069 0.007403 0.003679
0.998692 0.002622 0.004071
0.997894 0.003701 0.001729
0.996299 0.000221 0.004869
0.996078 0.000000 0.000315
0.000911 0.173798 0.042774
0.000000 0.162886 0.031038
0.000018 0.128584 0.009311
0.000000 0.117014 0.006677
0.014525 0.115473 0.010184
0.097990 0.135640 0.001522
0.236345 0.180594 0.003217
0.432887 0.227194 0.000673
0.650987 0.256405 0.003117
0.812250 0.286808 0.003103
0.932443 0.290265 0.001043
0.997374 0.281308 0.002352
0.999873 0.255139 0.006326
0.998779 0.213903 0.003907
0.999884 0.128270 0.000004
0.997183 0.012027 0.000060
0.005771 0.265929 0.022350
0.002803 0.249770 0.008943
0.000000 0.221602 0.001639
0.001507 0.209767 0.000547
0.000851 0.189914 0.000731
0.008585 0.200678 0.001206
0.151942 0.233861 0.000021
0.340035 0.288070 0.000575
0.570295 0.350225 0.002970
0.768984 0.380247 0.000086
0.892489 0.410334 0.000000
0.988726 0.413345 0.000332
0.997154 0.406727 0.001076
0.998162 0.381564 0.001299
0.996969 0.340046 0.001284
0.999197 0.277254 0.000000
0.005011 0.414362 0.006086
0.005024 0.390285 0.000000
0.000000 0.362882 0.000092
0.002188 0.348344 0.000045
0.000192 0.325548 0.001999
0.000769 0.293622 0.000000
0.010532 0.317354 0.008492
0.258664 0.360849 0.000436
0.489966 0.425736 0.005788
0.697144 0.484211 0.005314
0.849062 0.513583 0.004911
0.959281 0.518239 0.000519
1.000000 0.513364 0.000078
0.996130 0.499700 0.000092
0.999022 0.461312 0.001889
0.996798 0.416163 0.001819
0.001778 0.560918 0.000000
0.000000 0.538656 0.000000
0.000929 0.526355 0.000316
0.003032 0.507002 0.000320
0.000901 0.487910 0.000000
0.000034 0.450468 0.005333
0.005532 0.420335 0.001072
0.087792 0.454423 0.002705
0.372949 0.496580 0.000169
0.598338 0.543362 0.000237
0.789653 0.591389 0.000995
0.923017 0.604574 0.002925
0.998664 0.598946 0.000000
0.999351 0.587431 0.000630
1.000000 0.557817 0.000565
0.997846 0.518708 0.000116
0.000000 0.701649 0.000141
0.000090 0.685607 0.000004
0.000657 0.677273 0.000237
0.001168 0.664640 0.001146
0.005420 0.646279 0.000095
0.004766 0.615832 0.006620
0.000048 0.586861 0.000240
0.000386 0.567558 0.000405
0.265149 0.603406 0.000000
0.523879 0.629192 0.000076
0.721443 0.659002 0.000000
0.879196 0.684922 0.000032
0.991215 0.686112 0.002185
0.998529 0.668721 0.000000
0.997974 0.638985 0.004730
0.993791 0.602146 0.000000
0.002307 0.796116 0.019005
0.000422 0.785960 0.007922
0.002592 0.784137 0.012646
0.000000 0.777112 0.000000
0.002229 0.771326 0.000173
0.005261 0.750619 0.004843
0.003237 0.725066 0.004120
0.001838 0.693231 0.001060
0.030002 0.690468 0.000000
0.422551 0.708777 0.002970
0.632275 0.724973 0.003750
0.810556 0.744079 0.000000
0.949538 0.761462 0.002953
0.998898 0.750489 0.000000
0.999783 0.721044 0.001117
0.997769 0.675696 0.000055
0.006923 0.885809 0.241772
0.006542 0.880013 0.232734
0.006187 0.880387 0.241017
0.002021 0.876032 0.177891
0.001801 0.874224 0.030944
0.006673 0.859399 0.000070
0.001324 0.847058 0.001417
0.001454 0.822558 0.002803
0.000689 0.792739 0.045536
0.336206 0.788197 0.000860
0.556683 0.795237 0.001700
0.722610 0.808962 0.000000
0.882873 0.824792 0.000000
0.998646 0.828392 0.000928
0.997615 0.804768 0.008353
0.999230 0.754245 0.002383
0.000000 0.956877 0.372591
0.003507 0.956630 0.383609
0.002699 0.956164 0.384269
0.007547 0.953469 0.371448
0.003527 0.952983 0.330826
0.001450 0.945348 0.278750
0.006209 0.937123 0.186253
0.001894 0.915518 0.218148
0.001686 0.896729 0.307142
0.310128 0.876768 0.362670
0.507168 0.877614 0.307254
0.652583 0.885620 0.162229
0.796782 0.889627 0.000428
0.946588 0.898966 0.004813
0.997603 0.884912 0.001835
0.999367 0.837666 0.003855
0.000062 0.999938 0.522350
0.002055 0.999741 0.514526
0.003165 0.999350 0.510680
0.000186 0.997393 0.512679
0.000901 0.997182 0.511096
0.000644 0.996869 0.506167
0.005011 0.991430 0.488585
0.002723 0.988506 0.477209
0.011412 0.974374 0.515745
0.422443 0.961202 0.572502
0.576796 0.949391 0.616410
0.660998 0.952077 0.588882
0.740789 0.957226 0.521819
0.856920 0.957118 0.407549
0.985085 0.953300 0.137640
0.999524 0.913608 0.000000
0.003917 0.999995 0.661746
0.003665 0.999743 0.663101
0.003043 0.999859 0.664684
0.002137 1.000000 0.665790
0.006130 0.996559 0.671889
0.016124 0.998512 0.670277
0.066101 0.997683 0.669490
0.315042 0.997401 0.678965
0.433688 0.997905 0.688754
0.572330 0.999067 0.716308
0.679420 0.998702 0.747315
0.757613 0.993658 0.781869
0.802421 0.993414 0.765012
0.845977 0.996647 0.731918
0.910012 1.000000 0.685572
0.986920 0.981307 0.407128
0.306733 0.996104 0.719908
0.309816 0.999188 0.727755
0.320744 0.997510 0.721295
0.318358 0.999964 0.721261
0.326132 0.999999 0.725265
0.334468 0.996082 0.725534
0.383673 0.996937 0.727702
0.465589 0.998462 0.735428
0.545311 0.995704 0.742715
0.616799 0.999977 0.766336
0.709163 0.999967 0.790635
0.776131 1.000000 0.830915
0.843643 0.999995 0.853646
0.858208 0.999940 0.824482
0.894232 0.999953 0.784807
0.942491 1.000000 0.725682
0.019608 0.016155 0.077023
0.030603 0.012435 0.067905
0.053697 0.012667 0.065660
0.075843 0.007205 0.060362
0.130326 0.003657 0.085324
0.243868 0.002142 0.097232
0.386636 0.002722 0.091397
0.559931 0.002157 0.030919
0.745913 0.002934 0.000000
0.889951 0.000160 0.003670
0.990041 0.003019 0.005507
0.996847 0.000769 0.000769
0.997539 0.002921 0.000000
0.996078 0.002245 0.000000
0.996078 0.001018 0.000000
0.996078 0.002049 0.000000
0.004120 0.025546 0.067988
0.013796 0.018526 0.074898
0.049195 0.012212 0.073687
0.076322 0.010114 0.063224
0.132650 0.000087 0.080785
0.241215 0.000052 0.088495
0.381106 0.002163 0.079995
0.568459 0.000000 0.015076
0.754923 0.002082 0.000964
0.893936 0.002126 0.004477
0.988404 0.001080 0.001946
0.996078 0.000000 0.001798
0.996098 0.000020 0.000089
0.997700 0.002899 0.003759
0.996783 0.000705 0.002000
0.996990 0.000912 0.002683
0.000000 0.042442 0.056657
0.001062 0.036277 0.057785
0.023850 0.024364 0.064731
0.072948 0.017830 0.064287
0.143101 0.002321 0.076909
0.260081 0.000582 0.066558
0.404490 0.002643 0.025314
0.579379 0.002754 0.004943
0.759715 0.002574 0.001304
0.905601 0.001910 0.005757
0.995971 0.003499 0.006714
0.998463 0.004947 0.000439
0.996078 0.000000 0.007222
0.996084 0.000020 0.002959
0.996078 0.000020 0.003466
0.998815 0.002805 0.004710
0.000199 0.049124 0.051315
0.000162 0.048992 0.051239
0.004838 0.047492 0.049751
0.041892 0.042945 0.048998
0.111642 0.035734 0.036317
0.214443 0.023305 0.017226
0.369219 0.002715 0.004345
0.563716 0.001368 0.000000
0.762523 0.000232 0.002427
0.909219 0.001197 0.001435
0.992125 0.003944 0.000000
0.997531 0.001453 0.003359
0.996284 0.000576 0.003804
0.996250 0.002090 0.000172
0.996130 0.000052 0.000110
0.996078 0.000000 0.003030
0.000147 0.111642 0.081434
0.000004 0.108131 0.076383
0.000000 0.100022 0.058562
0.003535 0.087494 0.038907
0.066496 0.078805 0.024752
0.173197 0.105096 0.005540
0.337589 0.121153 0.003769
0.538867 0.122926 0.002813
0.741703 0.102702 0.001746
0.889712 0.049483 0.003772
0.984604 0.002578 0.001729
0.996848 0.002055 0.001429
0.997063 0.000985 0.001021
0.996985 0.000907 0.004748
0.996221 0.001948 0.000143
0.998607 0.002529 0.003457
0.000317 0.198852 0.096531
0.000000 0.184646 0.086689
0.001293 0.171639 0.061550
0.002215 0.154625 0.020043
0.007146 0.125469 0.025083
0.107730 0.144202 0.002553
0.248104 0.184809 0.000506
0.463876 0.225557 0.005347
0.681417 0.255474 0.000284
0.845927 0.271105 0.002821
0.955740 0.273361 0.002315
0.997320 0.252089 0.003362
0.995408 0.209099 0.001000
0.997212 0.133803 0.000089
0.997050 0.005007 0.000446
0.996820 0.000907 0.003320
0.002776 0.300463 0.098204
0.000723 0.287850 0.081256
0.003722 0.269070 0.058238
0.001944 0.240463 0.002904
0.000266 0.206599 0.000017
0.006352 0.201279 0.001012
0.168798 0.237024 0.000138
0.363326 0.292927 0.000425
0.593800 0.350390 0.001979
0.780517 0.386110 0.000000
0.912885 0.400088 0.000168
0.995159 0.402236 0.000196
0.998007 0.385420 0.000355
0.999991 0.353886 0.004706
0.998845 0.306956 0.000699
0.999741 0.236584 0.000997
0.002790 0.459768 0.087284
0.000000 0.437768 0.072052
0.002479 0.411914 0.015701
0.001569 0.369448 0.000365
0.000000 0.336204 0.002527
0.000879 0.298728 0.000001
0.018658 0.323227 0.004620
0.263461 0.366117 0.002098
