Fusion/LUTs/Dennis-Schmelz-LUTS-Collection/Cave_Slog3_LUT.cube
LUT_3D_SIZE 6
0.015686 0.015686 0.015686
0.056010 0.014578 0.019608
0.349789 0.003922 0.000154
0.877598 0.003829 0.000000
0.996078 0.000000 0.000000
0.996078 0.000000 0.004134
0.003316 0.038163 0.016739
0.030686 0.035294 0.016154
0.315618 0.066946 0.000027
0.851405 0.001261 0.002522
1.000000 0.007843 0.000000
0.995611 0.000731 0.000731
0.000000 0.245077 0.002291
0.002750 0.204838 0.000027
0.154401 0.226921 0.000000
0.741117 0.388704 0.000060
0.997833 0.417450 0.000000
0.999456 0.303438 0.000000
0.003781 0.706728 0.000000
0.002598 0.666521 0.002789
0.000000 0.583593 0.000000
0.512562 0.636043 0.000179
0.985130 0.690208 0.007837
0.993934 0.608397 0.000000
0.000000 0.960793 0.384342
0.003917 0.951529 0.359742
0.010671 0.932268 0.178995
0.327615 0.871289 0.359820
0.789868 0.886295 0.000043
1.000000 0.837643 0.004496
0.298981 0.996117 0.713451
0.312901 1.000000 0.721295
0.390555 0.997715 0.731389
0.634642 0.996536 0.771306
0.844180 0.999993 0.851724
0.936713 1.000000 0.725723
0.019608 0.016155 0.077023
0.075843 0.007205 0.060362
0.386636 0.002722 0.091397
0.889951 0.000160 0.003670
0.997539 0.002921 0.000000
0.996078 0.002049 0.000000
0.000199 0.049124 0.051315
0.041892 0.042945 0.048998
0.369219 0.002715 0.004345
0.909219 0.001197 0.001435
0.996284 0.000576 0.003804
0.996078 0.000000 0.003030
0.002776 0.300463 0.098204
0.001944 0.240463 0.002904
0.168798 0.237024 0.000138
0.780517 0.386110 0.000000
0.998007 0.385420 0.000355
0.999741 0.236584 0.000997
0.003912 0.714442 0.069506
0.004299 0.672406 0.003759
0.001351 0.595187 0.000147
0.535106 0.624640 0.002866
0.996224 0.683401 0.005063
0.997866 0.592539 0.001634
0.002461 0.955420 0.385807
0.002903 0.957860 0.387502
0.006111 0.935840 0.215015
0.301986 0.880169 0.363630
0.801026 0.889995 0.001526
0.998833 0.835032 0.004285
0.314540 0.999970 0.732911
0.319167 0.999868 0.721634
0.367713 0.999949 0.733492
0.606741 0.999982 0.755573
0.842886 0.999557 0.854035
0.940805 0.999750 0.726256
0.000000 0.000000 0.412391
0.166674 0.000000 0.452304
0.574635 0.003845 0.521785
0.960229 0.000000 0.572086
0.999448 0.001755 0.323381
0.998107 0.002063 0.002029
0.000577 0.111433 0.359720
0.000081 0.043838 0.428912
0.605045 0.002471 0.551463
0.978138 0.000328 0.523375
0.998199 0.001521 0.149575
0.996366 0.000288 0.000288
0.003253 0.356035 0.396700
0.002435 0.343997 0.386136
0.286727 0.345300 0.376756
0.888670 0.271169 0.211365
0.998923 0.291666 0.000887
0.998240 0.119030 0.000952
0.000446 0.801350 0.552082
0.003297 0.776378 0.499804
0.001656 0.726838 0.340651
0.595215 0.655906 0.000019
1.000000 0.662698 0.002658
0.997564 0.560530 0.001081
0.000000 0.975481 0.502882
0.004104 0.971281 0.477683
0.000309 0.957529 0.327430
0.176058 0.887041 0.366721
0.807428 0.890477 0.003516
0.997458 0.817672 0.002865
0.318819 0.996078 0.729021
0.339765 0.999986 0.729059
0.373542 1.000000 0.740787
0.583479 0.996540 0.759162
0.831141 0.998515 0.849881
0.945452 1.000000 0.730914
0.003428 0.000000 0.786291
0.306711 0.002313 0.804414
0.728635 0.002403 0.862537
0.999919 0.001046 0.882384
0.994168 0.001547 0.814705
0.998139 0.003928 0.654559
0.001596 0.122676 0.786467
0.018774 0.001780 0.822620
0.698534 0.002551 0.878673
0.999450 0.003461 0.901512
0.997981 0.002042 0.806632
0.999960 0.000192 0.626899
0.000635 0.417236 0.686469
0.000016 0.399073 0.700772
0.354929 0.367669 0.799611
0.945302 0.412159 0.872306
0.999195 0.004582 0.775083
0.997512 0.003914 0.522123
0.003904 0.749971 0.774788
0.000633 0.747091 0.773235
0.005166 0.740603 0.770092
0.684847 0.724725 0.754613
0.997941 0.653405 0.644306
0.997530 0.431166 0.098708
0.003917 0.999536 0.786619
0.003184 0.999058 0.774751
0.004464 0.997772 0.721435
0.491384 0.939707 0.720384
0.826705 0.891755 0.378300
0.999306 0.778601 0.002959
0.000038 0.999962 0.725258
0.001632 0.996372 0.720429
0.265846 0.995274 0.728409
0.501814 0.996652 0.767718
0.803155 0.999888 0.838742
0.946688 0.996605 0.721974
0.397872 0.193683 0.996078
0.509374 0.142209 0.998048
0.716349 0.004234 0.998936
0.963936 0.000000 1.000000
0.997870 0.001065 0.996970
1.000000 0.000000 0.918665
0.338847 0.356662 0.996078
0.490735 0.355235 0.998126
0.703559 0.236989 0.997612
0.944269 0.003698 1.000000
0.997687 0.002105 0.999040
0.995087 0.000013 0.912671
0.071347 0.593957 0.982247
0.327885 0.605974 0.990348
0.610571 0.594270 0.999903
0.869351 0.544581 0.997317
0.997303 0.276667 0.997411
0.998949 0.003033 0.907498
0.001929 0.748961 0.956728
0.000030 0.747633 0.960569
0.052453 0.752277 0.963868
0.729953 0.751868 0.981541
0.998770 0.773121 0.990925
0.996341 0.647215 0.899576
0.001993 0.939265 0.966562
0.003211 0.939153 0.968899
0.001601 0.941626 0.973206
0.011577 0.916443 0.952632
0.865222 0.906070 0.924537
0.998968 0.893844 0.907960
0.000144 0.999962 0.882977
0.000344 0.996114 0.880169
0.004021 0.996441 0.849529
0.000081 0.996494 0.794344
0.793866 0.999135 0.909767
0.967125 0.998074 0.853049
0.658746 0.619647 0.996117
0.690051 0.606728 0.999988
0.759015 0.568015 0.998404
0.891083 0.460429 1.000000
0.993619 0.119772 1.000000
0.996328 0.003883 0.998164
0.658732 0.636561 0.999975
0.675719 0.611872 0.996750
0.754619 0.570555 0.999901
0.881640 0.470234 0.999986
0.996216 0.138990 0.999689
0.995219 0.001948 0.999992
0.665449 0.742433 1.000000
0.680279 0.733863 0.999971
0.749346 0.704934 0.993914
0.863971 0.651797 0.999572
0.999703 0.418488 0.999900
0.999987 0.001299 0.999974
0.557180 0.835061 0.999998
0.580752 0.827566 0.996117
0.682505 0.819794 0.997512
0.830914 0.808346 0.988997
0.984088 0.770319 0.997060
0.999960 0.618285 0.999852
0.002297 0.906490 0.998375
0.005945 0.903580 0.999987
0.000040 0.897867 0.998131
0.598064 0.903723 0.993813
0.922276 0.925471 0.997857
0.998148 0.923711 0.998127
0.003844 0.999961 0.999961
0.000028 0.999989 0.999989
0.000040 1.000000 1.000000
0.000001 0.996210 0.996210
0.699602 0.999943 0.993613
0.999943 0.998183 0.999999
