Fusion/LUTs/Dennis-Schmelz-LUTS-Collection/Chicago_Slog3_LUT.cube
LUT_3D_SIZE 6
0.021712 0.024475 0.022859
0.058484 0.038381 0.036963
0.293649 0.063321 0.062869
0.841272 0.022794 0.031887
0.967259 0.004979 0.111116
0.967381 0.001440 0.380599
0.028717 0.034704 0.030374
0.042921 0.040150 0.034900
0.306067 0.063563 0.062695
0.852048 0.020968 0.024566
0.967381 0.004995 0.042127
0.967179 0.003254 0.345497
0.057042 0.149063 0.060247
0.053709 0.120332 0.056887
0.244750 0.236955 0.061777
0.811122 0.299586 0.010562
0.965837 0.256114 0.029296
0.965261 0.298650 0.194421
0.035935 0.455542 0.037792
0.039627 0.435322 0.041781
0.068331 0.343447 0.055380
0.742892 0.710149 0.004288
0.967381 0.687926 0.000000
0.966233 0.582524 0.000000
0.039785 0.902969 0.246790
0.037218 0.891820 0.231114
0.017140 0.853815 0.129852
0.537122 0.793662 0.006223
0.946777 0.921419 0.008389
0.963450 0.836823 0.000000
0.819397 0.996793 0.912485
0.820830 0.996662 0.915966
0.833431 0.993706 0.919549
0.868355 0.994267 0.922016
0.911316 0.988447 0.912702
0.967381 0.990776 0.726847
0.031789 0.034637 0.065152
0.053056 0.038097 0.055579
0.325157 0.063800 0.078246
0.870237 0.017725 0.023625
0.965318 0.002315 0.098548
0.967381 0.001440 0.379224
0.034756 0.044578 0.056333
0.047055 0.050852 0.059130
0.332477 0.063854 0.064530
0.875176 0.017043 0.025946
0.966758 0.004744 0.037414
0.967054 0.004798 0.350825
0.059555 0.190547 0.080296
0.058524 0.168281 0.075488
0.285050 0.258656 0.059861
0.831975 0.348459 0.001478
0.964159 0.295015 0.025824
0.966440 0.310846 0.205502
0.030517 0.482599 0.032091
0.036978 0.449967 0.038898
0.107631 0.338417 0.055783
0.764616 0.720031 0.000000
0.967391 0.692164 0.000000
0.964449 0.575440 0.002290
0.040027 0.898334 0.243963
0.032382 0.886345 0.214856
0.075918 0.845260 0.119277
0.556083 0.801808 0.012470
0.954326 0.917796 0.002103
0.965864 0.830110 0.001309
0.818380 0.996383 0.911536
0.821851 0.997722 0.917789
0.837354 0.994620 0.922614
0.873487 0.992128 0.926794
0.911600 0.988586 0.913648
0.967381 0.988885 0.724215
0.055603 0.059629 0.336798
0.101659 0.060992 0.361104
0.456091 0.060070 0.371258
0.941239 0.002611 0.416626
0.962025 0.001440 0.311932
0.961796 0.001440 0.427570
0.056431 0.089912 0.321451
0.057267 0.092602 0.335864
0.461138 0.059638 0.386526
0.929571 0.002054 0.406327
0.967055 0.003218 0.316437
0.967381 0.068648 0.400897
0.056920 0.283124 0.320728
0.057263 0.279076 0.310047
0.351447 0.344356 0.344623
0.875954 0.306390 0.251382
0.966357 0.283355 0.082496
0.965140 0.293733 0.275044
0.003334 0.668491 0.396581
0.002540 0.673373 0.392121
0.220013 0.601778 0.300523
0.794998 0.749218 0.004608
0.965375 0.681408 0.000792
0.967381 0.550242 0.009892
0.054118 0.916676 0.447421
0.050222 0.910772 0.438815
0.174918 0.874632 0.352093
0.583516 0.815489 0.018584
0.958595 0.921447 0.005067
0.966265 0.816651 0.000894
0.817030 0.996290 0.913788
0.821135 0.997189 0.919122
0.835025 0.995049 0.921694
0.861335 0.989892 0.924397
0.909439 0.992370 0.911878
0.967381 0.987769 0.713913
0.071595 0.076143 0.788117
0.288189 0.068651 0.808196
0.715489 0.071986 0.856566
0.950446 0.068712 0.846898
0.966509 0.068688 0.766628
0.966623 0.458069 0.733923
0.066692 0.206921 0.795495
0.217713 0.221444 0.811546
0.695030 0.261722 0.853224
0.934476 0.131694 0.845883
0.967033 0.423022 0.788712
0.964736 0.533224 0.734347
0.035569 0.398034 0.709853
0.035823 0.395292 0.714838
0.529451 0.514342 0.807906
0.865502 0.613648 0.834747
0.966818 0.685475 0.812227
0.965463 0.714865 0.783638
0.002605 0.736878 0.762893
0.001352 0.751697 0.771969
0.303476 0.764221 0.784365
0.759229 0.794897 0.791253
0.965885 0.740090 0.685511
0.961663 0.523250 0.291314
0.069126 0.952274 0.809284
0.064910 0.950704 0.804228
0.456106 0.935247 0.801090
0.640887 0.887604 0.700420
0.954396 0.924552 0.428716
0.967381 0.770813 0.002750
0.808627 0.992857 0.914057
0.810614 0.996736 0.912637
0.830776 0.992900 0.919046
0.848658 0.996179 0.922081
0.905669 0.987576 0.919040
0.963127 0.990836 0.704488
0.530690 0.450111 0.975635
0.600044 0.465692 0.978860
0.762042 0.502823 0.981497
0.923856 0.585020 0.978388
0.967381 0.464996 0.971470
0.967381 0.710568 0.917309
0.528339 0.541027 0.976341
0.595262 0.562104 0.972417
0.754540 0.600718 0.979038
0.907472 0.686995 0.977939
0.965043 0.616432 0.966129
0.967381 0.712015 0.922937
0.329109 0.640934 0.967593
0.513892 0.677690 0.962807
0.715607 0.736088 0.964188
0.873592 0.800677 0.965876
0.965347 0.790497 0.958282
0.967381 0.826035 0.931499
0.073426 0.784963 0.954148
0.070472 0.785583 0.948312
0.460416 0.787420 0.940660
0.813389 0.857955 0.953612
0.936918 0.892084 0.955264
0.966725 0.902297 0.943296
0.073190 0.933246 0.946677
0.071184 0.931121 0.944960
0.504738 0.933194 0.944253
0.750718 0.936048 0.938663
0.901000 0.941826 0.944417
0.967381 0.907301 0.903871
0.783800 0.997369 0.966525
0.786858 0.999022 0.966069
0.820954 0.994657 0.965357
0.841877 0.995190 0.958992
0.896849 0.990862 0.943399
0.965349 0.986910 0.665849
0.842911 0.877922 0.999971
0.852843 0.884350 0.999613
0.872014 0.877950 0.999667
0.915400 0.885476 0.995650
0.965322 0.889644 0.995964
0.965939 0.868122 0.994774
0.835756 0.881280 0.999613
0.847650 0.882342 0.998321
0.873803 0.880232 0.997657
0.919289 0.886822 0.998752
0.965096 0.888111 0.994796
0.967234 0.866644 0.994535
0.831086 0.906223 0.999455
0.845786 0.906884 0.999831
0.870557 0.910962 0.996420
0.915910 0.907166 0.998326
0.964343 0.901657 0.996817
0.967345 0.863190 0.989346
0.755299 0.916611 0.998324
0.771960 0.919733 0.996556
0.833954 0.927559 0.995470
0.896124 0.935080 0.997382
0.953751 0.937254 0.991646
0.964613 0.916029 0.989491
0.734972 0.957237 0.993871
0.741334 0.958190 0.994892
0.746841 0.953754 0.993926
0.836477 0.956861 0.991362
0.928790 0.963515 0.990492
0.963491 0.963179 0.990116
0.751115 0.992968 0.987998
0.752602 0.991894 0.988535
0.753512 0.995253 0.990247
0.757057 0.995859 0.985792
0.900669 0.991028 0.990241
0.952607 0.993080 0.991825
