Fusion/LUTs/Dennis-Schmelz-LUTS-Collection/Chicago_Slog3_LUT.cube
LUT_3D_SIZE 16
0.021712 0.024475 0.022859
0.021712 0.024475 0.022859
0.025231 0.026346 0.024746
0.058484 0.038381 0.036963
0.092414 0.045761 0.044480
0.175437 0.056819 0.056235
0.293649 0.063321 0.062869
0.487698 0.060109 0.059897
0.688437 0.043791 0.043602
0.841272 0.022794 0.031887
0.958092 0.005140 0.044903
0.967381 0.001440 0.072956
0.967259 0.004979 0.111116
0.963053 0.001440 0.180035
0.965570 0.004762 0.282231
0.967381 0.001440 0.380599
0.021712 0.024475 0.022859
0.021712 0.024475 0.022859
0.025262 0.026364 0.024764
0.058573 0.038406 0.036988
0.092505 0.045778 0.044497
0.175522 0.056827 0.056243
0.293718 0.063322 0.062871
0.487798 0.060104 0.059891
0.688504 0.043783 0.043597
0.841317 0.022786 0.031884
0.958102 0.005140 0.044910
0.967381 0.001440 0.066269
0.967381 0.004098 0.112177
0.965129 0.004505 0.170054
0.965719 0.002210 0.277892
0.967381 0.001440 0.379633
0.024296 0.027901 0.025792
0.024306 0.027914 0.025803
0.026717 0.027691 0.025901
0.052682 0.037007 0.035368
0.100120 0.047125 0.045913
0.189888 0.058085 0.057114
0.323429 0.063778 0.062976
0.532477 0.057519 0.056563
0.720205 0.040072 0.038738
0.866049 0.018714 0.025821
0.961655 0.001440 0.033316
0.966288 0.003180 0.047420
0.966558 0.001440 0.092353
0.967381 0.002513 0.148839
0.965069 0.004461 0.257279
0.967381 0.002054 0.357003
0.028717 0.034704 0.030374
0.028721 0.034710 0.030376
0.029405 0.034233 0.030394
0.042921 0.040150 0.034900
0.095569 0.053690 0.046436
0.181639 0.058943 0.056459
0.306067 0.063563 0.062695
0.502054 0.059347 0.058588
0.700491 0.042406 0.041481
0.852048 0.020968 0.024566
0.964533 0.001440 0.040205
0.964505 0.002054 0.041131
0.967381 0.004995 0.042127
0.966588 0.003594 0.128082
0.967044 0.003980 0.238150
0.967179 0.003254 0.345497
0.037276 0.052715 0.039484
0.037280 0.052723 0.039488
0.033155 0.042448 0.035527
0.040426 0.045937 0.037300
0.074387 0.069491 0.047390
0.167848 0.086795 0.057323
0.293191 0.088774 0.062675
0.475282 0.061555 0.059785
0.683685 0.044316 0.043005
0.835575 0.023742 0.025613
0.952205 0.005208 0.035443
0.964223 0.002054 0.034053
0.964434 0.001440 0.034822
0.966697 0.002054 0.056757
0.962441 0.003438 0.183279
0.965859 0.021547 0.308253
0.048585 0.091428 0.052064
0.048587 0.091438 0.052066
0.045288 0.077531 0.048405
0.045735 0.073719 0.047145
0.061268 0.089211 0.051418
0.143805 0.136244 0.060345
0.302090 0.174659 0.062746
0.484407 0.173278 0.056638
0.683136 0.154849 0.040375
0.833580 0.128808 0.022634
0.945045 0.062658 0.030913
0.964701 0.015684 0.033732
0.964263 0.002315 0.035526
0.965635 0.003053 0.036239
0.962102 0.017774 0.116369
0.962042 0.195665 0.268115
0.057042 0.149063 0.060247
0.057043 0.149078 0.060248
0.054537 0.126354 0.057830
0.053709 0.120332 0.056887
0.055343 0.112014 0.057165
0.098836 0.156193 0.060994
0.244750 0.236955 0.061777
0.504035 0.307444 0.045275
0.686576 0.300747 0.028949
0.811122 0.299586 0.010562
0.925490 0.302449 0.013722
0.967381 0.293103 0.025795
0.965837 0.256114 0.029296
0.964165 0.223002 0.032822
0.965972 0.228130 0.031251
0.965261 0.298650 0.194421
0.059776 0.237486 0.062829
0.059958 0.215478 0.063024
0.059879 0.206581 0.062949
0.059781 0.200467 0.062892
0.059354 0.185576 0.062395
0.075877 0.176531 0.062132
0.175324 0.256692 0.061771
0.401860 0.383449 0.041602
0.705399 0.507179 0.009353
0.827638 0.504894 0.003518
0.921193 0.490695 0.004990
0.967381 0.470284 0.002030
0.963719 0.440004 0.007393
0.967381 0.408079 0.015975
0.966334 0.385553 0.019209
0.966648 0.392363 0.039583
0.051808 0.351545 0.054557
0.054973 0.321293 0.057774
0.055305 0.317350 0.058150
0.056821 0.298807 0.059742
0.058175 0.278353 0.061167
0.059431 0.253449 0.062368
0.112376 0.277327 0.061024
0.284650 0.379495 0.047151
0.586396 0.551212 0.003248
0.814648 0.639448 0.002750
0.908379 0.622716 0.000000
0.967014 0.599815 0.001603
0.966076 0.572783 0.000000
0.967381 0.534702 0.002170
0.963435 0.506357 0.001603
0.966212 0.486054 0.003491
0.035935 0.455542 0.037792
0.037338 0.448126 0.039259
0.037612 0.446554 0.039562
0.039627 0.435322 0.041781
0.044176 0.407997 0.046438
0.048042 0.381440 0.050598
0.068331 0.343447 0.055380
0.215311 0.406020 0.044861
0.459678 0.560054 0.002030
0.742892 0.710149 0.004288
0.894772 0.745278 0.001309
0.964212 0.723528 0.003595
0.967381 0.687926 0.000000
0.967381 0.655752 0.000894
0.967134 0.612857 0.001603
0.966233 0.582524 0.000000
0.002244 0.632534 0.000000
0.001692 0.628505 0.000000
0.001239 0.617795 0.000702
0.001551 0.602474 0.001949
0.006313 0.575938 0.006391
0.015443 0.545114 0.016911
0.027092 0.498232 0.028580
0.162836 0.453958 0.037101
0.351020 0.556105 0.004990
0.619773 0.707743 0.000000
0.827925 0.806598 0.004456
0.947390 0.809153 0.003314
0.967381 0.784343 0.002103
0.967381 0.751046 0.000000
0.967381 0.706968 0.003314
0.967381 0.663732 0.000000
0.000000 0.797848 0.023389
0.000845 0.796452 0.022481
0.000749 0.794430 0.021695
0.003977 0.789120 0.021360
0.003977 0.768240 0.010233
0.005977 0.752023 0.004332
0.000000 0.717522 0.002103
0.208301 0.672262 0.000000
0.340692 0.643120 0.000000
0.571442 0.749071 0.000000
0.763483 0.830403 0.007423
0.904026 0.870376 0.001523
0.967381 0.861462 0.003376
0.964753 0.829513 0.002941
0.965383 0.794272 0.001949
0.967381 0.755086 0.000000
0.039785 0.902969 0.246790
0.039836 0.900701 0.245349
0.039291 0.896976 0.241073
0.037218 0.891820 0.231114
0.025169 0.881444 0.202699
0.012437 0.870015 0.171964
0.017140 0.853815 0.129852
0.268060 0.827322 0.077281
0.418335 0.800324 0.017764
0.537122 0.793662 0.006223
0.702644 0.856797 0.032332
0.841929 0.898594 0.035714
0.946777 0.921419 0.008389
0.964890 0.901616 0.000000
0.963042 0.868172 0.001309
0.963450 0.836823 0.000000
0.107802 0.958684 0.549926
0.107950 0.958259 0.550085
0.111937 0.957988 0.548790
0.116206 0.958074 0.543199
0.208780 0.955867 0.542245
0.331996 0.953794 0.534333
0.420834 0.945043 0.524873
0.499882 0.937880 0.498107
0.570202 0.924165 0.477994
0.636862 0.911249 0.445953
0.717478 0.910192 0.412207
0.805441 0.933928 0.365644
0.897018 0.951684 0.247130
0.966538 0.958778 0.053107
0.965126 0.930929 0.003491
0.965859 0.900174 0.002103
0.607437 0.982919 0.769830
0.609684 0.984291 0.771601
0.615636 0.985757 0.773491
0.622511 0.985792 0.780122
0.627621 0.985490 0.784699
0.642536 0.988339 0.785128
0.669618 0.984590 0.790565
0.700206 0.980508 0.787260
0.743451 0.973938 0.790332
0.766572 0.973964 0.781385
0.804441 0.968502 0.784040
0.836769 0.971930 0.770059
0.878841 0.974481 0.740164
0.928931 0.982004 0.667817
0.966761 0.981937 0.527388
0.965899 0.962846 0.257508
0.819397 0.996793 0.912485
0.819682 0.997314 0.912563
0.820228 0.995947 0.912200
0.820830 0.996662 0.915966
0.830061 0.995317 0.913463
0.826378 0.995853 0.914203
0.833431 0.993706 0.919549
0.841152 0.993099 0.915661
0.853853 0.992172 0.920653
0.868355 0.994267 0.922016
0.884859 0.991959 0.924740
0.900866 0.990211 0.927617
0.911316 0.988447 0.912702
0.923014 0.990743 0.878092
0.950643 0.990742 0.818935
0.967381 0.990776 0.726847
0.021712 0.024475 0.022859
0.021712 0.024475 0.022859
0.025234 0.026348 0.024748
0.058493 0.038383 0.036966
0.092423 0.045763 0.044482
0.175446 0.056820 0.056236
0.293656 0.063321 0.062870
0.487708 0.060109 0.059896
0.688444 0.043790 0.043601
0.841277 0.022792 0.031887
0.958093 0.005140 0.044904
0.964523 0.004932 0.075729
0.967381 0.002315 0.119331
0.965573 0.001440 0.191577
0.966967 0.003053 0.281505
0.964101 0.003903 0.386153
0.021712 0.024475 0.022859
0.021712 0.024475 0.022859
0.025260 0.026362 0.024762
0.058564 0.038403 0.036986
0.092499 0.045777 0.044496
0.175521 0.056827 0.056243
0.293721 0.063322 0.062871
0.487806 0.060104 0.059891
0.688512 0.043782 0.043596
0.841324 0.022784 0.031883
0.958104 0.005140 0.044911
0.967381 0.002315 0.073619
0.964723 0.001440 0.111391
0.963816 0.003876 0.177679
0.966528 0.002054 0.275743
0.967381 0.002397 0.374266
0.024299 0.027905 0.025795
0.024307 0.027915 0.025804
0.026713 0.027690 0.025899
0.053753 0.037256 0.035655
0.101676 0.047392 0.046176
0.192774 0.058320 0.057358
0.325431 0.063796 0.062989
0.533174 0.057474 0.056517
0.719758 0.040125 0.038792
0.865028 0.018887 0.025834
0.961213 0.001440 0.033203
0.966037 0.003053 0.040348
0.966728 0.001440 0.088052
0.967228 0.001440 0.147223
0.966721 0.004368 0.254930
0.967238 0.001440 0.353739
0.028719 0.034706 0.030375
0.028721 0.034711 0.030376
0.029180 0.033988 0.030203
0.042923 0.040152 0.034901
0.095358 0.053488 0.046362
0.181739 0.058907 0.056464
0.306018 0.063562 0.062695
0.502064 0.059347 0.058588
0.700513 0.042403 0.041483
0.852054 0.020966 0.024520
0.964764 0.002054 0.034143
0.964995 0.007593 0.035369
0.966523 0.003664 0.040134
0.965690 0.002898 0.127349
0.967381 0.004815 0.232633
0.966427 0.003053 0.349781
0.037277 0.052717 0.039485
0.037280 0.052724 0.039488
0.033328 0.042896 0.035730
0.040288 0.045866 0.037251
0.074391 0.069495 0.047392
0.167826 0.086641 0.057309
0.293137 0.088633 0.062673
0.475272 0.061542 0.059786
0.683688 0.044316 0.043005
0.841807 0.022746 0.024896
0.958163 0.005040 0.040640
0.964277 0.004995 0.033761
0.964588 0.001440 0.036028
0.967381 0.003480 0.053395
0.965940 0.005442 0.186641
0.967381 0.030194 0.301272
0.048585 0.091431 0.052065
0.048587 0.091440 0.052066
0.045412 0.078015 0.048641
0.045751 0.073773 0.047182
0.061165 0.089116 0.051399
0.143812 0.136249 0.060346
0.302096 0.174561 0.062748
0.484407 0.173241 0.056640
0.698837 0.164846 0.038109
0.845733 0.143416 0.021037
0.949501 0.096499 0.033530
0.965475 0.021871 0.034946
0.964588 0.003288 0.033847
0.965714 0.002898 0.035749
0.964020 0.019504 0.119691
0.965569 0.203822 0.274310
0.057042 0.149068 0.060247
0.057044 0.149081 0.060249
0.054522 0.126242 0.057804
0.053719 0.120407 0.056902
0.055749 0.112881 0.056674
0.103495 0.157912 0.061175
0.249807 0.236032 0.061805
0.513677 0.309931 0.044298
0.696241 0.312919 0.025897
0.817636 0.311722 0.007644
0.929897 0.316366 0.013892
0.967381 0.297092 0.025699
0.966572 0.256348 0.027682
0.965119 0.224051 0.032255
0.967381 0.230801 0.035426
0.964348 0.300153 0.197136
0.059885 0.230563 0.063016
0.059935 0.212215 0.063007
0.059866 0.204847 0.062923
0.059623 0.193495 0.062685
0.059249 0.183067 0.062339
0.077292 0.177713 0.062111
0.174258 0.260161 0.061555
0.411377 0.391509 0.039806
0.711329 0.505192 0.009705
0.827466 0.508704 0.000792
0.920128 0.492252 0.001148
0.966454 0.471936 0.000792
0.964659 0.442627 0.009277
0.967381 0.405954 0.017994
0.964873 0.384726 0.018090
0.966698 0.391096 0.041302
0.052594 0.344563 0.055304
0.055675 0.313469 0.058506
0.056347 0.304995 0.059244
0.057267 0.292722 0.060256
0.058313 0.276716 0.061255
0.059834 0.245545 0.062625
0.112429 0.274662 0.061174
0.285876 0.383750 0.046477
0.589225 0.554023 0.000792
0.814625 0.637177 0.002609
0.907153 0.623240 0.000000
0.966697 0.598070 0.002487
0.965037 0.570316 0.000000
0.967381 0.534029 0.001428
0.967044 0.506942 0.000792
0.967078 0.486566 0.005029
0.036866 0.450555 0.038780
0.037629 0.446648 0.039544
0.038333 0.442600 0.040321
0.040415 0.430801 0.042524
0.044038 0.408831 0.046305
0.048477 0.378268 0.050999
0.068490 0.337301 0.056072
0.214557 0.413563 0.043683
0.458327 0.559273 0.000850
0.745115 0.713374 0.001672
0.893985 0.748351 0.001672
0.965118 0.722796 0.003105
0.966989 0.689759 0.000000
0.967381 0.653680 0.001733
0.967140 0.612439 0.002850
0.965234 0.579992 0.000000
0.003593 0.628017 0.003330
0.005406 0.626535 0.004683
0.000000 0.614890 0.000702
0.001299 0.601561 0.001639
0.007832 0.573974 0.007106
0.016370 0.541666 0.017393
0.027417 0.496712 0.029053
0.160821 0.450913 0.037841
0.353203 0.556042 0.004890
0.625314 0.709792 0.000000
0.828738 0.804022 0.003759
0.947785 0.811277 0.003105
0.967381 0.784437 0.002344
0.967381 0.750913 0.000000
0.967381 0.707551 0.003026
0.967381 0.666029 0.000000
0.001086 0.796572 0.022810
0.001239 0.794499 0.021720
0.001759 0.795058 0.021934
0.002169 0.788909 0.021302
0.000000 0.770623 0.011371
0.005901 0.749230 0.003066
0.000000 0.716814 0.001523
0.210544 0.668982 0.000000
0.341428 0.644156 0.000000
0.570025 0.750268 0.000894
0.762903 0.831773 0.004695
0.901952 0.873771 0.002609
0.967381 0.862125 0.001309
0.965830 0.830637 0.004571
0.966057 0.794414 0.004148
0.967381 0.755044 0.000000
0.040023 0.899955 0.241329
0.039177 0.900570 0.242642
0.039385 0.896955 0.240328
0.037269 0.892491 0.227716
0.024567 0.881383 0.202588
0.012390 0.869892 0.167466
0.015462 0.852463 0.122695
0.266892 0.829855 0.074664
0.421043 0.800564 0.017830
0.537262 0.794339 0.006770
0.703752 0.858364 0.034098
0.843051 0.899725 0.036695
0.948840 0.919715 0.008479
0.965154 0.904438 0.000894
0.964240 0.866392 0.000000
0.960911 0.835540 0.000000
0.109042 0.959046 0.549233
0.109976 0.959011 0.549441
0.112162 0.958156 0.548687
0.115038 0.958546 0.547242
0.207134 0.954696 0.539977
0.332526 0.951122 0.533283
0.420004 0.944847 0.520811
0.497141 0.934162 0.499045
0.569124 0.921568 0.475491
0.635196 0.913196 0.447457
0.716804 0.909402 0.411020
0.805859 0.935298 0.367311
0.897437 0.949103 0.245424
0.966583 0.958692 0.055451
0.964539 0.930160 0.004243
0.965374 0.900180 0.003105
0.610975 0.982896 0.775030
0.612218 0.983594 0.776091
0.616488 0.985123 0.778257
0.624872 0.985824 0.782514
0.629892 0.987481 0.786956
0.643803 0.985111 0.782850
0.669710 0.981272 0.784786
0.702167 0.982211 0.789181
0.739823 0.975520 0.790513
0.766641 0.975305 0.783047
0.804639 0.968654 0.783707
0.836040 0.971298 0.768785
0.879801 0.975261 0.739416
0.929335 0.982361 0.670268
0.965665 0.982001 0.525749
0.965524 0.962662 0.254644
0.818998 0.996664 0.913993
0.819851 0.997059 0.914541
0.821059 0.995899 0.914414
0.821676 0.996354 0.914383
0.827583 0.996115 0.916242
0.825911 0.995654 0.916373
0.831206 0.995405 0.918477
0.841706 0.992884 0.917457
0.853609 0.991971 0.919889
0.864751 0.993950 0.919827
0.881774 0.992625 0.923617
0.902857 0.990757 0.927847
0.910957 0.988115 0.911855
0.924489 0.991041 0.878724
0.948877 0.991296 0.820683
0.967381 0.988761 0.726426
0.026108 0.029171 0.036572
0.026112 0.029173 0.036595
0.029654 0.029170 0.031772
0.055464 0.037644 0.038815
0.102065 0.047475 0.047036
0.178353 0.057086 0.056288
0.300642 0.063455 0.063468
0.502556 0.059319 0.058460
0.708341 0.041491 0.040164
0.868060 0.018125 0.023831
0.964534 0.001440 0.034260
0.965288 0.003053 0.061675
0.966328 0.002397 0.108996
0.965438 0.004224 0.178004
0.966874 0.002397 0.276900
0.967381 0.001440 0.385531
0.026122 0.029176 0.036647
0.026123 0.029176 0.036655
0.029653 0.029169 0.031765
0.056151 0.037821 0.038985
0.102054 0.047472 0.046898
0.178223 0.057074 0.056233
0.300625 0.063455 0.063497
0.502653 0.059314 0.058454
0.708553 0.041466 0.040141
0.868128 0.018114 0.023816
0.964528 0.001440 0.034240
0.967381 0.002054 0.059789
0.964768 0.002210 0.100879
0.965555 0.002898 0.174559
0.966772 0.002837 0.274528
0.967381 0.003790 0.374737
0.025137 0.028396 0.031650
0.025137 0.028395 0.031648
0.027393 0.029481 0.030100
0.050929 0.036449 0.036386
0.099472 0.047085 0.046049
0.187287 0.057867 0.056995
0.310353 0.063633 0.062781
0.510221 0.058878 0.058030
0.712386 0.041023 0.039707
0.862286 0.019166 0.030852
0.964525 0.001440 0.040310
0.965514 0.002696 0.035607
0.967381 0.003140 0.063264
0.963555 0.003697 0.145995
0.967148 0.004120 0.249174
0.959926 0.005929 0.350820
0.031731 0.039788 0.037849
0.031560 0.039507 0.037292
0.031396 0.038325 0.037021
0.050122 0.042615 0.037853
0.101041 0.054160 0.047159
0.183529 0.060420 0.056684
0.312721 0.063661 0.062809
0.517766 0.058438 0.057449
0.718381 0.040310 0.038980
0.874112 0.017137 0.025930
0.964454 0.002210 0.034100
0.966675 0.004932 0.037229
0.966158 0.003254 0.037810
0.966901 0.003218 0.119218
0.967381 0.002054 0.229996
0.967381 0.003480 0.335057
0.040942 0.062516 0.048783
0.040829 0.062187 0.048502
0.038097 0.053642 0.044580
0.043663 0.054410 0.041719
0.081029 0.075679 0.049294
0.173713 0.094557 0.058281
0.305380 0.095882 0.062897
0.507958 0.065312 0.058004
0.701118 0.042355 0.041176
0.852390 0.020913 0.023944
0.958411 0.005069 0.038162
0.966984 0.004589 0.037570
0.964136 0.001440 0.038997
0.966052 0.002210 0.045685
0.963599 0.004707 0.181460
0.966078 0.061161 0.305532
0.051660 0.107243 0.057126
0.051680 0.107361 0.057108
0.048793 0.092358 0.053989
0.047730 0.080523 0.050978
0.070811 0.096014 0.053398
0.158272 0.144713 0.061241
0.321490 0.182993 0.062310
0.520323 0.187045 0.053705
0.705433 0.180062 0.036509
0.849574 0.165176 0.019823
0.952743 0.135847 0.031788
0.962330 0.052565 0.034899
0.964548 0.012719 0.034938
0.965289 0.002315 0.040953
0.965589 0.022932 0.116527
0.964768 0.208019 0.269574
0.058138 0.162819 0.062097
0.058115 0.162487 0.062067
0.055951 0.138125 0.060202
0.054446 0.125563 0.059183
0.059444 0.118638 0.056844
0.110558 0.167287 0.061821
0.259980 0.246733 0.061083
0.521529 0.316547 0.042924
0.701397 0.325035 0.023665
0.823019 0.328133 0.003896
0.930072 0.327983 0.012574
0.967381 0.308783 0.025035
0.965872 0.269661 0.026755
0.965610 0.230601 0.029802
0.966714 0.233467 0.032355
0.963273 0.300442 0.198164
0.059569 0.245641 0.062724
0.059946 0.222447 0.063026
0.059936 0.212316 0.063021
0.059656 0.195213 0.062798
0.059126 0.179964 0.062181
0.081122 0.188892 0.062576
0.192087 0.269394 0.060846
0.438657 0.403829 0.036159
0.716353 0.511808 0.010323
0.830297 0.514632 0.001949
0.921634 0.496859 0.003376
0.967381 0.474337 0.000000
0.966198 0.446503 0.008146
0.965980 0.411662 0.016817
0.964922 0.386517 0.018710
0.967381 0.397276 0.047453
0.052530 0.345159 0.055437
0.055889 0.310593 0.058762
0.056820 0.298815 0.059740
0.057551 0.288428 0.060641
0.058647 0.269411 0.061655
0.060244 0.239193 0.062788
0.125854 0.285917 0.060915
0.302484 0.390928 0.044824
0.597138 0.560342 0.001428
0.818716 0.642617 0.004266
0.911378 0.627463 0.001672
0.967381 0.603279 0.001949
0.965703 0.574936 0.000000
0.967381 0.537047 0.003026
0.965434 0.507671 0.001949
0.966932 0.486535 0.006168
0.036460 0.452941 0.038321
0.038404 0.442207 0.040403
0.038920 0.439328 0.040942
0.040839 0.428319 0.043029
0.045252 0.400838 0.047590
0.048873 0.375446 0.051428
0.076389 0.338384 0.055984
0.231680 0.417774 0.042579
0.477671 0.572070 0.002609
0.753737 0.713490 0.002290
0.900043 0.746756 0.002750
0.966307 0.719257 0.002103
0.966682 0.689668 0.000000
0.966518 0.655922 0.000792
0.967358 0.612518 0.002716
0.964258 0.579194 0.000000
0.000804 0.626064 0.000702
0.003227 0.620889 0.000000
0.002787 0.608339 0.001309
0.000749 0.594658 0.000894
0.007975 0.570227 0.008389
0.017718 0.536655 0.018710
0.029386 0.487913 0.030883
0.169091 0.448801 0.038123
0.365943 0.560773 0.002030
0.636262 0.713312 0.000000
0.829938 0.804838 0.001949
0.951254 0.810299 0.002344
0.967302 0.784671 0.002103
0.967377 0.747786 0.000000
0.967324 0.709612 0.003759
0.967381 0.670516 0.000000
0.000000 0.798492 0.023447
0.000000 0.798820 0.023602
0.002356 0.789959 0.022319
0.002435 0.781921 0.016931
0.000000 0.763903 0.009973
0.002540 0.740864 0.002030
0.002507 0.713970 0.000000
0.222560 0.666632 0.000792
0.349991 0.648048 0.001733
0.581649 0.754265 0.000792
0.765223 0.834952 0.001787
0.904288 0.875387 0.001672
0.966386 0.860805 0.000000
0.966890 0.825485 0.000894
0.967062 0.792387 0.001523
0.967381 0.756574 0.000000
0.040086 0.898069 0.243821
0.037796 0.896337 0.245120
0.039256 0.897385 0.234888
0.034437 0.890176 0.223651
0.023356 0.879675 0.199193
0.009800 0.867152 0.162648
0.039006 0.852365 0.129018
0.276559 0.828459 0.074674
0.418569 0.801318 0.018363
0.539679 0.796194 0.007981
0.709171 0.858669 0.033843
0.842628 0.899779 0.038048
0.949722 0.920586 0.006488
0.967230 0.901237 0.000000
0.965743 0.869354 0.000894
0.965725 0.833121 0.001787
0.111827 0.958154 0.549295
0.111372 0.957564 0.549622
0.112568 0.958253 0.548121
0.116306 0.958669 0.548547
0.223276 0.952201 0.543288
0.339011 0.953087 0.534848
0.422760 0.943203 0.519808
0.501476 0.935982 0.502340
0.572029 0.925675 0.478179
0.635487 0.913246 0.447577
0.717118 0.910852 0.414770
0.810042 0.932107 0.364460
0.898715 0.953207 0.240274
0.967381 0.954228 0.049737
0.967166 0.933094 0.007775
0.967027 0.897191 0.000000
0.613014 0.984298 0.776465
0.613938 0.983660 0.778535
0.619395 0.985812 0.784193
0.626619 0.985488 0.784189
0.628785 0.987066 0.786126
0.640981 0.983661 0.788550
0.668257 0.982907 0.782572
0.705218 0.979170 0.793186
0.739284 0.975983 0.790488
0.767293 0.972238 0.785256
0.800061 0.968797 0.779369
0.837635 0.971505 0.771276
0.875590 0.975069 0.734435
0.932213 0.978104 0.669259
0.967312 0.985083 0.529060
0.965929 0.961234 0.253022
0.820913 0.995488 0.915325
0.821594 0.995397 0.915804
0.820862 0.996217 0.917315
0.821694 0.996675 0.916215
0.825077 0.994233 0.912154
0.825081 0.996146 0.917059
0.834776 0.993214 0.916818
0.842090 0.993131 0.920063
0.853900 0.992207 0.920629
0.869982 0.992822 0.922461
0.881816 0.990923 0.922158
0.901033 0.987045 0.928297
0.911392 0.988461 0.910230
0.925793 0.990617 0.876324
0.948895 0.991925 0.820928
0.967066 0.990509 0.725527
0.031789 0.034637 0.065152
0.031791 0.034640 0.065167
0.040170 0.036006 0.063831
0.053056 0.038097 0.055579
0.105009 0.048331 0.065163
0.190451 0.058223 0.073606
0.325157 0.063800 0.078246
0.523862 0.058062 0.059480
0.721825 0.039900 0.038691
0.870237 0.017725 0.023625
0.964473 0.001440 0.033841
0.967381 0.001440 0.059455
0.965318 0.002315 0.098548
0.963059 0.001440 0.173205
0.967381 0.003321 0.270555
0.967381 0.001440 0.379224
0.031797 0.034646 0.065201
0.031797 0.034646 0.065205
0.039851 0.035937 0.063809
0.053085 0.038106 0.055592
0.105091 0.048339 0.064963
0.190329 0.058212 0.073412
0.325156 0.063800 0.078092
0.523964 0.058055 0.059472
0.721933 0.039888 0.038682
0.870354 0.017704 0.023619
0.964470 0.001440 0.033840
0.966037 0.002898 0.049324
0.964778 0.001440 0.098351
0.967381 0.001440 0.173824
0.967381 0.001440 0.273455
0.967381 0.002054 0.378527
0.032342 0.037490 0.062917
0.032529 0.037817 0.063530
0.035271 0.037446 0.064062
0.055517 0.039988 0.061723
0.105497 0.048424 0.064536
0.196227 0.058660 0.071416
0.329527 0.063833 0.069991
0.522800 0.058126 0.058040
0.714552 0.040757 0.039678
0.864107 0.018984 0.025698
0.960671 0.004744 0.033118
0.964796 0.002513 0.034360
0.967381 0.004243 0.059109
0.967256 0.004589 0.139805
0.967381 0.004319 0.250480
0.961506 0.005098 0.352646
0.034756 0.044578 0.056333
0.034760 0.044589 0.056334
0.035437 0.044655 0.059257
0.047055 0.050852 0.059130
0.101615 0.052758 0.059333
0.197742 0.059025 0.064564
0.332477 0.063854 0.064530
0.543300 0.056797 0.055765
0.732544 0.038552 0.037418
0.875176 0.017043 0.025946
0.967204 0.004319 0.038288
0.963567 0.006500 0.033667
0.966758 0.004744 0.037414
0.963605 0.002315 0.102852
0.967381 0.002898 0.228494
0.967054 0.004798 0.350825
0.043781 0.070425 0.069671
0.043753 0.070339 0.069525
0.042856 0.067329 0.066367
0.048777 0.072056 0.063440
0.089786 0.082710 0.058770
0.193497 0.089870 0.060200
0.329255 0.083489 0.063110
0.522201 0.059763 0.057152
0.712473 0.041013 0.039940
0.861517 0.019399 0.023518
0.964786 0.001440 0.042088
0.966781 0.007361 0.034286
0.964595 0.002054 0.036780
0.966558 0.003629 0.043124
0.962213 0.003557 0.179766
0.965775 0.096428 0.310930
0.054349 0.123966 0.078880
0.054343 0.123936 0.078699
0.053330 0.116998 0.073556
0.053546 0.114947 0.071901
0.075287 0.107519 0.066572
0.168111 0.157088 0.062042
0.342996 0.182913 0.061947
0.534952 0.192928 0.052350
0.713932 0.198237 0.034362
0.854715 0.197436 0.017903
0.954604 0.174303 0.033433
0.966288 0.120777 0.032582
0.960813 0.042326 0.038600
0.965237 0.012041 0.036107
0.964517 0.052517 0.103729
0.965946 0.217205 0.262331
0.059555 0.190547 0.080296
0.059555 0.190508 0.080225
0.058895 0.175139 0.074105
0.058524 0.168281 0.075488
0.062155 0.145071 0.067999
0.117947 0.182175 0.062585
0.285050 0.258656 0.059861
0.543071 0.324370 0.040271
0.713575 0.341993 0.019675
0.831975 0.348459 0.001478
0.936058 0.353778 0.014059
0.967004 0.329954 0.022655
0.964159 0.295015 0.025824
0.964074 0.247652 0.030195
0.966105 0.243380 0.034110
0.966440 0.310846 0.205502
0.057802 0.284718 0.064626
0.059204 0.256749 0.064129
0.059190 0.257301 0.064881
0.059682 0.241445 0.069062
0.059954 0.219862 0.065684
0.089768 0.203276 0.063056
0.210327 0.284869 0.059533
0.461820 0.412066 0.033230
