Fusion/LUTs/Dennis-Schmelz-LUTS-Collection/Netral_Slog3_LUT.cube
LUT_3D_SIZE 6
0.000999 0.000865 0.000748
0.061460 0.002780 0.003745
0.404666 0.018290 0.020803
0.916085 0.048784 0.076765
0.998646 0.085851 0.126913
0.998646 0.085871 0.131982
0.005658 0.061793 0.005644
0.049840 0.053961 0.005666
0.402693 0.039922 0.018345
0.916222 0.048797 0.076792
0.998646 0.085851 0.126914
0.998646 0.085871 0.131982
0.037328 0.407646 0.037226
0.036812 0.402022 0.036712
0.356070 0.376689 0.039554
0.910243 0.259600 0.053109
0.998646 0.085851 0.126920
0.998646 0.085871 0.131982
0.097746 0.898051 0.097571
0.097624 0.897443 0.097445
0.115274 0.894059 0.096796
0.838599 0.879619 0.108770
0.999280 0.664857 0.179103
0.998646 0.085870 0.131982
0.249406 0.999714 0.344526
0.249391 0.999714 0.343215
0.249332 0.999714 0.337893
0.695884 0.999830 0.327334
0.991151 0.999960 0.311118
0.999932 0.979049 0.301138
0.605660 0.999830 0.808040
0.625476 0.999835 0.810879
0.685991 0.999852 0.820844
0.870767 0.999921 0.867662
0.979964 0.999981 0.848297
0.999955 0.999964 0.315305
0.001722 0.001128 0.046698
0.058293 0.002981 0.049625
0.403758 0.018341 0.088644
0.916070 0.048785 0.080200
0.998646 0.085851 0.126914
0.998646 0.085871 0.131982
0.005004 0.052171 0.047797
0.043590 0.044182 0.044978
0.398799 0.018819 0.083161
0.916048 0.048783 0.080859
0.998646 0.085851 0.126914
0.998646 0.085871 0.131982
0.036851 0.403452 0.041967
0.036347 0.397945 0.040693
0.351087 0.374071 0.039413
0.909209 0.262582 0.053181
0.998646 0.085851 0.126920
0.998646 0.085871 0.131982
0.097344 0.896092 0.097167
0.097218 0.895483 0.097042
0.113259 0.892166 0.096407
0.838229 0.878483 0.108541
0.999281 0.665117 0.179180
0.998646 0.085870 0.131982
0.249945 0.999717 0.388605
0.249935 0.999717 0.387874
0.249886 0.999716 0.384214
0.695540 0.999832 0.366659
0.990871 0.999960 0.311069
0.999932 0.979068 0.301145
0.605031 0.999831 0.811880
0.624890 0.999836 0.814652
0.685484 0.999853 0.824374
0.872060 0.999922 0.871705
0.980020 0.999982 0.853325
0.999955 0.999964 0.315506
0.008662 0.008059 0.334222
0.052116 0.008200 0.332777
0.391068 0.020226 0.350866
0.913704 0.049696 0.377494
0.998646 0.085851 0.126914
0.998646 0.085871 0.131982
0.008421 0.008047 0.333517
0.031434 0.008063 0.332197
0.387979 0.020104 0.350351
0.913814 0.049720 0.379482
0.998646 0.085852 0.127322
0.998646 0.085871 0.131982
0.034584 0.360034 0.340957
0.034059 0.354208 0.338265
0.325346 0.328093 0.330693
0.919146 0.086573 0.339451
0.998646 0.085851 0.127079
0.998646 0.085871 0.131982
0.095512 0.883983 0.380845
0.095382 0.883348 0.379699
0.095314 0.879916 0.374037
0.831341 0.868672 0.181879
0.999328 0.689051 0.186213
0.998646 0.085870 0.131982
0.251883 0.999727 0.505477
0.251874 0.999727 0.505032
0.251833 0.999727 0.502914
0.707368 0.999841 0.531733
0.988899 0.999960 0.359934
0.999933 0.979147 0.301184
0.602424 0.999833 0.827999
0.622466 0.999838 0.830493
0.683381 0.999855 0.839217
0.871147 0.999924 0.882211
0.980260 0.999983 0.872562
0.999959 0.999969 0.456055
0.022824 0.021507 0.824236
0.022820 0.021502 0.824124
0.414595 0.028094 0.826173
0.900996 0.054602 0.822275
0.998736 0.099630 0.734124
0.998646 0.085887 0.133311
0.022788 0.021474 0.823362
0.022793 0.021472 0.823304
0.408013 0.027853 0.825552
0.901130 0.054618 0.822513
0.998736 0.099644 0.734433
0.998646 0.085888 0.133314
0.027756 0.243189 0.818654
0.027199 0.233124 0.818453
0.297692 0.062350 0.841993
0.890440 0.053638 0.820902
0.998737 0.099703 0.735791
0.998646 0.085888 0.133330
0.090961 0.835709 0.817083
0.090821 0.834847 0.817051
0.090082 0.830277 0.817151
0.818023 0.810862 0.822697
0.999211 0.636582 0.741984
0.998646 0.085892 0.133750
0.255513 0.999737 0.765842
0.255361 0.999736 0.765849
0.254697 0.999731 0.765640
0.748172 0.999801 0.815585
0.987283 0.999868 0.815891
0.999932 0.978615 0.315794
0.591812 0.999842 0.886998
0.612565 0.999847 0.888580
0.674798 0.999864 0.894113
0.866613 0.999930 0.921815
0.982489 0.999990 0.938487
0.999985 0.999989 0.836187
0.031638 0.030348 0.994411
0.031645 0.030351 0.994441
0.295321 0.033396 0.995289
0.828103 0.080062 0.998584
0.998832 0.113868 0.997536
0.998829 0.113443 0.990837
0.031625 0.030325 0.994183
0.031624 0.030328 0.994213
0.271889 0.032866 0.994960
0.825286 0.078833 0.998566
0.998832 0.113868 0.997543
0.998829 0.113443 0.990849
0.031185 0.109653 0.993483
0.031007 0.100533 0.993458
0.146963 0.032983 0.994743
0.803780 0.067449 0.998408
0.998832 0.113870 0.997572
0.998829 0.113446 0.990901
0.088473 0.729710 0.996085
0.088318 0.728658 0.996107
0.087545 0.723298 0.996277
0.777518 0.755467 0.998185
0.999165 0.537653 0.989354
0.998829 0.113464 0.991187
0.134918 0.995972 0.982925
0.134848 0.995844 0.983238
0.134548 0.995296 0.984480
0.683518 0.997398 0.993509
0.990694 0.987933 0.991967
0.999884 0.955976 0.981381
0.579449 0.999856 0.970843
0.600229 0.999861 0.971239
0.663695 0.999877 0.972702
0.860057 0.999941 0.979941
0.988533 0.999995 0.991928
0.999550 1.000000 0.991286
0.090635 0.535945 0.998685
0.089923 0.533508 0.998681
0.102713 0.521236 0.998662
0.762214 0.458734 0.998849
0.998824 0.113976 0.998833
0.998824 0.113976 0.998833
0.095795 0.553383 0.998718
0.095173 0.551305 0.998714
0.106332 0.540942 0.998698
0.761827 0.491368 0.998881
0.998824 0.113976 0.998833
0.998824 0.113976 0.998833
0.113719 0.611465 0.998837
0.113198 0.609817 0.998833
0.114361 0.602143 0.998818
0.764394 0.601372 0.999007
0.998840 0.149297 0.998850
0.998824 0.113976 0.998833
0.180048 0.799123 0.999290
0.179738 0.798324 0.999288
0.178353 0.794759 0.999279
0.769119 0.827543 0.999429
0.998218 0.761822 0.999478
0.998824 0.113976 0.998833
0.237143 0.975796 0.999601
0.237405 0.975399 0.999603
0.238425 0.973880 0.999611
0.731839 0.973738 0.999763
0.988341 0.987561 0.999939
0.999904 0.961109 0.999858
0.606403 0.999867 0.994368
0.621410 0.999870 0.994475
0.681889 0.999885 0.994930
0.863674 0.999934 0.996996
0.986985 0.999931 0.999746
0.999705 0.999589 0.999768
