Fusion/LUTs/Dennis-Schmelz-LUTS-Collection/Netral_Slog3_LUT.cube
LUT_3D_SIZE 16
0.000999 0.000865 0.000748
0.010599 0.000569 0.001286
0.029369 0.001343 0.002379
0.061460 0.002780 0.003745
0.121700 0.005501 0.006142
0.231456 0.010462 0.011069
0.404666 0.018290 0.020803
0.608821 0.027832 0.035612
0.784773 0.038157 0.054918
0.916085 0.048784 0.076765
0.992489 0.058695 0.095712
0.998646 0.085827 0.120799
0.998646 0.085851 0.126913
0.998646 0.085864 0.130106
0.998646 0.085869 0.131414
0.998646 0.085871 0.131982
0.000935 0.010024 0.001643
0.007991 0.008739 0.000995
0.025786 0.011013 0.001497
0.058617 0.012457 0.002803
0.120051 0.011210 0.005470
0.231140 0.010460 0.010509
0.405073 0.018309 0.020786
0.609074 0.027846 0.035630
0.784883 0.038164 0.054938
0.916127 0.048788 0.076773
0.992500 0.058697 0.095721
0.998646 0.085827 0.120800
0.998646 0.085851 0.126914
0.998646 0.085865 0.130106
0.998646 0.085869 0.131414
0.998646 0.085870 0.131982
0.002632 0.028808 0.002892
0.007828 0.026673 0.002479
0.022482 0.024700 0.002596
0.055113 0.029242 0.003471
0.117563 0.031043 0.005746
0.229578 0.024351 0.010464
0.404413 0.018288 0.019711
0.609305 0.027857 0.035630
0.784994 0.038172 0.054954
0.916170 0.048792 0.076782
0.992510 0.058699 0.095724
0.998646 0.085827 0.120801
0.998646 0.085851 0.126914
0.998646 0.085864 0.130106
0.998646 0.085869 0.131414
0.998646 0.085870 0.131982
0.005658 0.061793 0.005644
0.006284 0.059404 0.005427
0.020655 0.056948 0.005290
0.049840 0.053961 0.005666
0.112798 0.061974 0.007232
0.226674 0.062368 0.011163
0.402693 0.039922 0.018345
0.608705 0.027828 0.034029
0.785134 0.038182 0.054975
0.916222 0.048797 0.076792
0.992523 0.058702 0.095727
0.998646 0.085827 0.120802
0.998646 0.085851 0.126914
0.998646 0.085865 0.130106
0.998646 0.085869 0.131414
0.998646 0.085871 0.131982
0.011292 0.123300 0.011260
0.011084 0.121061 0.011056
0.012671 0.118679 0.010841
0.043726 0.115599 0.010760
0.102761 0.110214 0.011579
0.218594 0.125696 0.014394
0.397387 0.125854 0.020147
0.605737 0.080038 0.028144
0.784658 0.038147 0.052408
0.916321 0.048807 0.076811
0.992548 0.058706 0.095735
0.998646 0.085827 0.120804
0.998646 0.085851 0.126915
0.998646 0.085864 0.130106
0.998646 0.085869 0.131414
0.998646 0.085871 0.131982
0.021688 0.236815 0.021626
0.021475 0.234541 0.021418
0.021265 0.232243 0.021208
0.024417 0.229129 0.020929
0.085992 0.223398 0.020809
0.200595 0.213524 0.022452
0.383431 0.237498 0.026517
0.597274 0.231439 0.032442
0.780429 0.150166 0.039420
0.915794 0.048751 0.072353
0.992593 0.058715 0.095749
0.998646 0.085827 0.120808
0.998646 0.085851 0.126917
0.998646 0.085864 0.130107
0.998646 0.085869 0.131414
0.998646 0.085870 0.131982
0.037328 0.407646 0.037226
0.037176 0.405988 0.037074
0.037020 0.404269 0.036917
0.036812 0.402022 0.036712
0.042286 0.397643 0.036321
0.177652 0.389841 0.036617
0.356070 0.376689 0.039554
0.575513 0.404170 0.044019
0.768392 0.374098 0.048889
0.910243 0.259600 0.053109
0.992036 0.058613 0.088566
0.998646 0.085827 0.120817
0.998646 0.085851 0.126920
0.998646 0.085865 0.130107
0.998646 0.085869 0.131414
0.998646 0.085871 0.131982
0.056054 0.604562 0.055902
0.055958 0.603643 0.055806
0.055854 0.602676 0.055705
0.055722 0.601408 0.055570
0.055462 0.598961 0.055315
0.086747 0.594196 0.054886
0.338277 0.586643 0.056613
0.543349 0.573391 0.060532
0.745076 0.573251 0.065132
0.896433 0.519700 0.069080
0.988330 0.386945 0.069848
0.998652 0.109959 0.099801
0.998646 0.085851 0.126924
0.998646 0.085864 0.130109
0.998646 0.085869 0.131414
0.998646 0.085871 0.131982
0.076757 0.774233 0.076577
0.076695 0.773798 0.076515
0.076621 0.773330 0.076449
0.076543 0.772779 0.076371
0.076378 0.771600 0.076203
0.076056 0.769310 0.075879
0.218276 0.765239 0.075947
0.506601 0.759490 0.079490
0.709988 0.748577 0.084091
0.874509 0.719335 0.088743
0.978882 0.644068 0.092089
0.998994 0.526967 0.140477
0.998700 0.208653 0.108382
0.998646 0.085864 0.130112
0.998646 0.085869 0.131414
0.998646 0.085871 0.131982
0.097746 0.898051 0.097571
0.097719 0.897898 0.097539
0.097673 0.897694 0.097497
0.097624 0.897443 0.097445
0.097520 0.896929 0.097339
0.097312 0.895942 0.097136
0.115274 0.894059 0.096796
0.412543 0.891543 0.098999
0.652183 0.887463 0.103665
0.838599 0.879619 0.108770
0.961821 0.830813 0.113738
0.999264 0.759001 0.192390
0.999280 0.664857 0.179103
0.998792 0.291338 0.124605
0.998646 0.085869 0.131414
0.998646 0.085870 0.131982
0.118875 0.977832 0.118711
0.118851 0.977769 0.118687
0.118824 0.977697 0.118661
0.118786 0.977596 0.118624
0.118719 0.977406 0.118553
0.118583 0.977030 0.118415
0.118350 0.976394 0.118184
0.279612 0.975391 0.118838
0.568741 0.974054 0.123462
0.763268 0.971603 0.128850
0.924685 0.966515 0.134085
0.996524 0.919130 0.137544
0.999721 0.872580 0.251432
0.999554 0.793447 0.221645
0.998915 0.366041 0.142827
0.998646 0.085870 0.131982
0.244982 0.999680 0.245637
0.244833 0.999678 0.245496
0.244705 0.999677 0.245374
0.244505 0.999675 0.245180
0.244134 0.999672 0.244819
0.243458 0.999667 0.244143
0.242264 0.999656 0.242904
0.272921 0.999642 0.241234
0.525346 0.999669 0.246698
0.708700 0.999694 0.250991
0.858096 0.999702 0.245562
0.961143 0.999612 0.186948
0.999895 0.984563 0.289014
0.999911 0.966204 0.294413
0.999795 0.905182 0.266163
0.999082 0.454076 0.164904
0.249406 0.999714 0.344526
0.249402 0.999714 0.344131
0.249397 0.999714 0.343728
0.249391 0.999714 0.343215
0.249382 0.999714 0.342310
0.249365 0.999714 0.340714
0.249332 0.999714 0.337893
0.288622 0.999719 0.331029
0.523503 0.999770 0.330539
0.695884 0.999830 0.327334
0.838845 0.999892 0.311330
0.936213 0.999936 0.302527
0.991151 0.999960 0.311118
0.999954 0.999964 0.312701
0.999962 0.998598 0.311823
0.999932 0.979049 0.301138
0.252042 0.999728 0.512524
0.252038 0.999728 0.512384
0.252036 0.999728 0.512242
0.252033 0.999728 0.512061
0.252026 0.999728 0.511709
0.252052 0.999728 0.511054
0.267805 0.999730 0.509379
0.386709 0.999748 0.511420
0.589263 0.999795 0.546696
0.725119 0.999848 0.541927
0.843114 0.999901 0.526529
0.928501 0.999939 0.479381
0.982880 0.999959 0.383013
0.999700 0.999964 0.312658
0.999954 0.999964 0.312701
0.999954 0.999964 0.312701
0.275002 0.999748 0.657788
0.279147 0.999749 0.657687
0.285505 0.999750 0.657586
0.294550 0.999751 0.657487
0.314216 0.999754 0.657440
0.357448 0.999761 0.658210
0.453287 0.999778 0.665170
0.566761 0.999802 0.684238
0.696848 0.999838 0.719282
0.793445 0.999881 0.730233
0.874011 0.999922 0.724974
0.936227 0.999953 0.709451
0.978675 0.999969 0.668643
0.999055 0.999972 0.551930
0.999955 0.999964 0.323918
0.999954 0.999964 0.312702
0.605660 0.999830 0.808040
0.611877 0.999832 0.808908
0.617973 0.999833 0.809780
0.625476 0.999835 0.810879
0.636603 0.999838 0.812557
0.654920 0.999843 0.815463
0.685991 0.999852 0.820844
0.735908 0.999868 0.830809
0.800211 0.999891 0.846472
0.870767 0.999921 0.867662
0.914346 0.999948 0.866105
0.952142 0.999969 0.861069
0.979964 0.999981 0.848297
0.997002 0.999986 0.816310
0.999974 0.999981 0.726459
0.999955 0.999964 0.315305
0.001351 0.000286 0.007385
0.009846 0.000526 0.008043
0.028507 0.001323 0.011388
0.060764 0.002766 0.014718
0.121209 0.005489 0.018632
0.231145 0.010455 0.023747
0.404520 0.018288 0.030976
0.608793 0.027832 0.038947
0.784780 0.038157 0.054924
0.916089 0.048784 0.076763
0.992490 0.058695 0.095716
0.998646 0.085827 0.120799
0.998646 0.085851 0.126913
0.998646 0.085865 0.130106
0.998646 0.085869 0.131414
0.998646 0.085871 0.131982
0.000786 0.008102 0.007377
0.006966 0.006915 0.006950
0.025822 0.003670 0.006836
0.058149 0.003583 0.010649
0.119543 0.005607 0.016637
0.230786 0.010444 0.023449
0.404908 0.018306 0.031633
0.609037 0.027845 0.039617
0.784891 0.038165 0.054940
0.916130 0.048788 0.076773
0.992500 0.058697 0.095720
0.998646 0.085827 0.120800
0.998646 0.085851 0.126914
0.998646 0.085865 0.130106
0.998646 0.085869 0.131414
0.998646 0.085870 0.131982
0.002438 0.026524 0.010217
0.003072 0.024426 0.008136
0.020999 0.022479 0.004255
0.054590 0.025838 0.004639
0.117244 0.025490 0.006564
0.229389 0.011064 0.012243
0.404210 0.018279 0.030602
0.609259 0.027857 0.040258
0.785002 0.038173 0.054954
0.916173 0.048793 0.076781
0.992511 0.058699 0.095722
0.998646 0.085827 0.120801
0.998646 0.085851 0.126914
0.998646 0.085865 0.130106
0.998646 0.085869 0.131414
0.998646 0.085870 0.131982
0.005482 0.059942 0.011495
0.005305 0.057550 0.010925
0.018003 0.055128 0.005781
0.048569 0.052094 0.006141
0.112200 0.059766 0.007610
0.226349 0.058762 0.011510
0.402568 0.032655 0.018738
0.608639 0.027826 0.039124
0.785142 0.038182 0.054972
0.916225 0.048798 0.076790
0.992524 0.058702 0.095728
0.998646 0.085827 0.120802
0.998646 0.085851 0.126914
0.998646 0.085865 0.130106
0.998646 0.085869 0.131414
0.998646 0.085871 0.131982
0.011135 0.121907 0.012310
0.010928 0.119646 0.012061
0.011279 0.117278 0.010786
0.042500 0.114200 0.010696
0.101797 0.108826 0.011521
0.218090 0.124309 0.014366
0.397113 0.124022 0.020192
0.605705 0.078386 0.028288
0.784654 0.038147 0.052369
0.916324 0.048807 0.076810
0.992549 0.058707 0.095736
0.998646 0.085827 0.120804
0.998646 0.085851 0.126915
0.998646 0.085864 0.130106
0.998646 0.085869 0.131414
0.998646 0.085871 0.131982
0.021595 0.235862 0.021539
0.021390 0.233604 0.021333
0.021175 0.231283 0.021121
0.024019 0.228197 0.020844
0.084975 0.222465 0.020716
0.199870 0.212609 0.022362
0.383023 0.236641 0.026444
0.597108 0.231050 0.032422
0.780415 0.150730 0.039432
0.915788 0.048751 0.072293
0.992594 0.058716 0.095752
0.998646 0.085827 0.120808
0.998646 0.085851 0.126917
0.998646 0.085864 0.130107
0.998646 0.085869 0.131414
0.998646 0.085870 0.131982
0.037261 0.406913 0.037159
0.037106 0.405237 0.037005
0.036954 0.403545 0.036851
0.036748 0.401290 0.036645
0.041894 0.396882 0.036251
0.176819 0.389138 0.036546
0.355553 0.376040 0.039489
0.575315 0.403761 0.043978
0.768363 0.374411 0.048908
0.910230 0.260078 0.053127
0.992034 0.058614 0.088502
0.998646 0.085827 0.120817
0.998646 0.085851 0.126920
0.998646 0.085865 0.130109
0.998646 0.085869 0.131414
0.998646 0.085871 0.131982
0.055969 0.603823 0.055825
0.055885 0.602967 0.055734
0.055784 0.602029 0.055636
0.055649 0.600753 0.055502
0.055399 0.598333 0.055249
0.086071 0.593569 0.054819
0.337637 0.586061 0.056546
0.542994 0.572885 0.060478
0.744945 0.573180 0.065121
0.896419 0.519897 0.069097
0.988325 0.387233 0.069867
0.998653 0.110451 0.099796
0.998646 0.085851 0.126924
0.998646 0.085865 0.130109
0.998646 0.085869 0.131414
0.998646 0.085871 0.131982
0.076651 0.773531 0.076478
0.076593 0.773118 0.076419
0.076533 0.772668 0.076355
0.076447 0.772095 0.076273
0.076285 0.770963 0.076113
0.075968 0.768700 0.075793
0.217636 0.764706 0.075868
0.506255 0.759066 0.079426
0.709766 0.748251 0.084042
0.874489 0.719405 0.088751
0.978876 0.644173 0.092100
0.998994 0.527119 0.140508
0.998700 0.208851 0.108403
0.998646 0.085865 0.130112
0.998646 0.085869 0.131414
0.998646 0.085871 0.131982
0.097636 0.897522 0.097461
0.097602 0.897352 0.097427
0.097563 0.897150 0.097385
0.097509 0.896901 0.097334
0.097404 0.896394 0.097229
0.097204 0.895421 0.097029
0.114739 0.893540 0.096689
0.411865 0.891053 0.098890
0.651932 0.887067 0.103579
0.838527 0.879416 0.108729
0.961814 0.830853 0.113743
0.999264 0.759050 0.192399
0.999280 0.664937 0.179128
0.998792 0.291419 0.124621
0.998646 0.085869 0.131414
0.998646 0.085870 0.131982
0.118739 0.977454 0.118571
0.118717 0.977395 0.118550
0.118692 0.977328 0.118525
0.118655 0.977235 0.118491
0.118587 0.977048 0.118422
0.118453 0.976677 0.118287
0.118216 0.976025 0.118052
0.278358 0.975007 0.118689
0.568408 0.973722 0.123334
0.763173 0.971307 0.128738
0.924674 0.966394 0.134042
0.996523 0.919151 0.137547
0.999721 0.872603 0.251440
0.999554 0.793485 0.221658
0.998915 0.366081 0.142838
0.998646 0.085870 0.131982
0.243629 0.999668 0.244985
0.243473 0.999667 0.244848
0.243341 0.999666 0.244728
0.243127 0.999664 0.244530
0.242732 0.999660 0.244183
0.242011 0.999654 0.243525
0.240730 0.999643 0.242277
0.270130 0.999628 0.240375
0.524193 0.999652 0.245094
0.708256 0.999680 0.248781
0.857936 0.999688 0.242424
0.961127 0.999607 0.184894
0.999896 0.984568 0.289016
0.999911 0.966213 0.294415
0.999795 0.905200 0.266173
0.999082 0.454096 0.164911
0.249582 0.999715 0.359939
0.249577 0.999715 0.359512
0.249572 0.999715 0.359077
0.249566 0.999715 0.358520
0.249553 0.999715 0.357515
0.249535 0.999715 0.355718
0.249498 0.999714 0.352500
0.288390 0.999719 0.345081
0.523388 0.999770 0.343717
0.695628 0.999831 0.337334
0.838589 0.999892 0.322841
0.935950 0.999936 0.303486
0.991075 0.999960 0.311107
0.999954 0.999964 0.312702
0.999962 0.998598 0.311823
0.999932 0.979056 0.301139
0.252165 0.999728 0.518553
0.252160 0.999728 0.518416
0.252159 0.999728 0.518278
0.252154 0.999728 0.518099
0.252147 0.999728 0.517755
0.252172 0.999728 0.517112
0.267723 0.999730 0.515475
0.385958 0.999748 0.517379
0.591265 0.999795 0.554629
0.726177 0.999849 0.549975
0.843562 0.999902 0.535146
0.928597 0.999939 0.490698
0.982693 0.999959 0.392164
0.999689 0.999964 0.312656
0.999954 0.999964 0.312702
0.999954 0.999964 0.312702
0.274653 0.999749 0.660669
0.278742 0.999749 0.660569
0.285059 0.999750 0.660469
0.294058 0.999751 0.660368
0.313668 0.999754 0.660317
0.356861 0.999761 0.661062
0.452820 0.999778 0.667906
0.566402 0.999802 0.686733
0.696601 0.999838 0.721397
0.794212 0.999881 0.733558
0.874408 0.999923 0.728412
0.936378 0.999953 0.713316
0.978644 0.999970 0.673489
0.999007 0.999972 0.559814
0.999955 0.999964 0.325261
0.999954 0.999964 0.312702
0.605466 0.999830 0.809225
0.611686 0.999832 0.810088
0.617786 0.999833 0.810953
0.625295 0.999835 0.812045
0.636425 0.999838 0.813710
0.654749 0.999843 0.816594
0.685835 0.999852 0.821935
0.735772 0.999868 0.831827
0.800100 0.999892 0.847379
0.871164 0.999921 0.868916
0.914588 0.999948 0.867385
0.952251 0.999969 0.862410
0.979981 0.999982 0.849859
0.996951 0.999987 0.818312
0.999974 0.999982 0.730092
0.999954 0.999964 0.315368
0.001881 0.000508 0.020820
0.011738 0.000694 0.020520
0.027465 0.001391 0.022568
0.059913 0.002803 0.029116
0.120605 0.005511 0.036316
0.230725 0.010467 0.044414
0.404239 0.018296 0.053475
0.608609 0.027837 0.060012
0.784732 0.038157 0.060864
0.916092 0.048784 0.076764
0.992491 0.058696 0.095716
0.998646 0.085827 0.120799
0.998646 0.085851 0.126913
0.998646 0.085864 0.130106
0.998646 0.085869 0.131414
0.998646 0.085870 0.131982
0.000794 0.008604 0.020266
0.006810 0.003321 0.021705
0.024088 0.002435 0.021232
0.057061 0.003117 0.027699
0.118850 0.005512 0.035407
0.230331 0.010450 0.044362
0.404615 0.018314 0.054346
0.608855 0.027850 0.060969
0.784836 0.038165 0.061599
0.916134 0.048788 0.076771
0.992501 0.058697 0.095718
0.998646 0.085827 0.120800
0.998646 0.085851 0.126914
0.998646 0.085865 0.130106
0.998646 0.085869 0.131414
0.998646 0.085870 0.131982
0.002249 0.023480 0.021060
0.002696 0.021349 0.020150
0.019299 0.019427 0.019541
0.056233 0.011673 0.018031
0.115979 0.008375 0.026647
0.226392 0.010739 0.040316
0.400061 0.018109 0.052607
0.608891 0.027853 0.061765
0.784941 0.038173 0.062341
0.916176 0.048793 0.076781
0.992512 0.058700 0.095724
0.998646 0.085827 0.120801
0.998646 0.085851 0.126914
0.998646 0.085864 0.130106
0.998646 0.085869 0.131414
0.998646 0.085870 0.131982
0.005293 0.057406 0.026224
0.005103 0.055021 0.025513
0.007754 0.052765 0.020705
0.046214 0.049865 0.011507
0.108788 0.054469 0.011331
0.217387 0.050192 0.013767
0.388195 0.019030 0.035958
0.606137 0.027711 0.059879
0.785071 0.038182 0.063285
0.916228 0.048798 0.076792
0.992525 0.058702 0.095728
0.998646 0.085827 0.120802
0.998646 0.085851 0.126914
0.998646 0.085865 0.130106
0.998646 0.085869 0.131414
0.998646 0.085870 0.131982
0.010972 0.119936 0.027247
0.010768 0.117706 0.026663
0.010637 0.115377 0.025762
0.036743 0.112455 0.012504
0.099431 0.107312 0.013202
0.207548 0.122166 0.015456
0.383751 0.122986 0.020863
0.600976 0.071219 0.029166
0.784570 0.038147 0.061936
0.916327 0.048808 0.076811
0.992550 0.058707 0.095736
0.998646 0.085827 0.120804
0.998646 0.085851 0.126915
0.998646 0.085864 0.130106
0.998646 0.085869 0.131414
0.998646 0.085870 0.131982
0.021409 0.234381 0.023873
0.021206 0.232163 0.023498
0.020996 0.229870 0.023131
0.021664 0.226825 0.020853
0.083396 0.221116 0.020711
0.197331 0.211942 0.022357
0.377890 0.235871 0.026426
0.590718 0.232296 0.032414
0.780421 0.148901 0.039687
0.915781 0.048750 0.072237
0.992595 0.058716 0.095751
0.998646 0.085827 0.120808
0.998646 0.085851 0.126917
0.998646 0.085864 0.130107
0.998646 0.085869 0.131414
0.998646 0.085870 0.131982
0.037144 0.405680 0.037046
0.036994 0.404025 0.036895
0.036834 0.402331 0.036740
0.036631 0.400069 0.036534
0.041387 0.395742 0.036147
0.175662 0.388077 0.036438
0.354196 0.375372 0.039393
0.574725 0.403068 0.043905
0.768195 0.373932 0.048866
0.910217 0.260556 0.053144
0.992031 0.058616 0.088438
0.998646 0.085827 0.120817
0.998646 0.085851 0.126920
0.998646 0.085865 0.130109
0.998646 0.085869 0.131414
0.998646 0.085870 0.131982
0.055864 0.602757 0.055712
0.055769 0.601882 0.055620
0.055676 0.600972 0.055525
0.055543 0.599705 0.055392
0.055289 0.597281 0.055139
0.085114 0.592595 0.054715
0.336776 0.585201 0.056448
0.542529 0.572174 0.060402
0.744774 0.572715 0.065065
0.896399 0.520049 0.069109
0.988321 0.387521 0.069886
0.998653 0.110940 0.099792
0.998646 0.085851 0.126924
0.998646 0.085864 0.130109
0.998646 0.085869 0.131414
0.998646 0.085870 0.131982
0.076535 0.772724 0.076364
0.076479 0.772331 0.076307
0.076418 0.771893 0.076246
0.076336 0.771316 0.076163
0.076178 0.770190 0.076003
0.075858 0.767931 0.075685
0.216759 0.763946 0.075756
0.505749 0.758375 0.079323
0.709520 0.747792 0.083977
0.874397 0.719234 0.088722
0.978869 0.644276 0.092111
0.998995 0.527271 0.140538
0.998700 0.209050 0.108426
0.998646 0.085864 0.130112
0.998646 0.085869 0.131414
0.998646 0.085871 0.131982
0.097523 0.896954 0.097344
0.097482 0.896771 0.097307
0.097443 0.896570 0.097266
0.097390 0.896325 0.097215
0.097285 0.895813 0.097109
0.097087 0.894826 0.096907
0.114127 0.892974 0.096573
0.411145 0.890515 0.098772
0.651640 0.886554 0.103469
0.838407 0.879076 0.108660
0.961802 0.830854 0.113740
0.999264 0.759099 0.192406
0.999281 0.665017 0.179151
0.998792 0.291498 0.124639
0.998646 0.085869 0.131415
0.998646 0.085870 0.131982
0.118572 0.977001 0.118405
0.118548 0.976937 0.118382
0.118524 0.976873 0.118359
0.118491 0.976784 0.118326
0.118420 0.976587 0.118254
0.118286 0.976219 0.118122
0.118058 0.975581 0.117892
0.277126 0.974628 0.118542
0.568023 0.973332 0.123185
0.763052 0.970986 0.128620
0.924651 0.966192 0.133970
0.996519 0.919166 0.137548
0.999721 0.872626 0.251450
0.999554 0.793523 0.221672
0.998915 0.366120 0.142849
0.998646 0.085870 0.131982
0.241882 0.999653 0.246462
0.241729 0.999652 0.246225
0.241600 0.999651 0.246006
0.241394 0.999649 0.245687
0.241016 0.999646 0.245112
0.240327 0.999640 0.244067
0.239099 0.999629 0.242311
0.267453 0.999614 0.240014
0.523110 0.999637 0.244239
0.707751 0.999665 0.246584
0.857778 0.999675 0.239318
0.961110 0.999599 0.181562
0.999896 0.984573 0.289017
0.999911 0.966222 0.294422
0.999795 0.905218 0.266181
0.999082 0.454116 0.164917
0.249767 0.999716 0.375189
0.249764 0.999716 0.374918
0.249760 0.999716 0.374640
0.249755 0.999716 0.374187
0.249744 0.999716 0.373222
0.249721 0.999716 0.371460
0.249681 0.999715 0.368146
0.288193 0.999720 0.360260
0.523600 0.999771 0.358645
0.695488 0.999831 0.349273
0.838356 0.999892 0.332989
0.935692 0.999936 0.306064
0.990987 0.999960 0.311088
0.999954 0.999964 0.312701
0.999962 0.998599 0.311823
0.999932 0.979061 0.301141
0.252284 0.999729 0.524470
0.252282 0.999729 0.524336
0.252280 0.999729 0.524200
0.252275 0.999729 0.524025
0.252269 0.999729 0.523688
0.252293 0.999729 0.523056
0.267647 0.999731 0.521457
0.385229 0.999749 0.523232
0.593295 0.999796 0.562387
0.727256 0.999849 0.557846
0.844025 0.999902 0.543540
0.928695 0.999940 0.501091
0.982507 0.999959 0.401265
0.999679 0.999964 0.312657
0.999954 0.999964 0.312701
0.999954 0.999964 0.312701
0.274314 0.999749 0.663515
0.278347 0.999749 0.663416
0.284621 0.999750 0.663317
0.293580 0.999752 0.663216
0.313130 0.999754 0.663160
0.356283 0.999761 0.663882
0.452364 0.999778 0.670614
0.566049 0.999802 0.689204
0.696358 0.999838 0.723494
0.794977 0.999882 0.736832
0.874806 0.999923 0.731795
0.936520 0.999953 0.717012
0.978616 0.999970 0.678204
0.998962 0.999973 0.567995
0.999955 0.999964 0.326603
0.999954 0.999964 0.312702
0.605272 0.999830 0.810405
0.611497 0.999832 0.811261
0.617602 0.999834 0.812120
0.625115 0.999836 0.813203
0.636249 0.999838 0.814855
0.654580 0.999843 0.817717
0.685679 0.999853 0.823019
0.735639 0.999868 0.832839
0.799991 0.999892 0.848282
0.871562 0.999922 0.870158
0.914830 0.999948 0.868651
0.952361 0.999969 0.863736
0.979998 0.999982 0.851404
0.996901 0.999987 0.820288
0.999975 0.999982 0.733492
0.999954 0.999964 0.315433
0.001722 0.001128 0.046698
0.013432 0.001213 0.046173
0.030858 0.001726 0.045905
0.058293 0.002981 0.049625
0.119433 0.005623 0.062252
0.229962 0.010537 0.075769
0.403758 0.018341 0.088644
0.608301 0.027863 0.094581
0.784576 0.038171 0.088604
0.916070 0.048785 0.080200
0.992491 0.058696 0.095717
0.998646 0.085827 0.120799
0.998646 0.085851 0.126914
0.998646 0.085865 0.130106
0.998646 0.085869 0.131414
0.998646 0.085871 0.131982
0.001182 0.006451 0.046334
0.008708 0.001504 0.045961
0.027504 0.001771 0.045553
0.055250 0.002924 0.048520
0.117560 0.005550 0.061765
0.229501 0.010518 0.076011
0.404119 0.018360 0.089657
0.608543 0.027877 0.095759
0.784683 0.038179 0.089514
0.916112 0.048789 0.080450
0.992502 0.058698 0.095719
0.998646 0.085827 0.120800
0.998646 0.085851 0.126914
0.998646 0.085865 0.130106
0.998646 0.085869 0.131414
0.998646 0.085870 0.131982
0.002107 0.023552 0.046087
0.002240 0.021253 0.045599
0.018715 0.010377 0.050353
0.052620 0.007132 0.047874
0.115146 0.006785 0.059914
0.227746 0.010576 0.074975
0.403219 0.018318 0.089198
0.608664 0.027885 0.096759
0.784791 0.038187 0.090424
0.916154 0.048794 0.080705
0.992513 0.058700 0.095724
0.998646 0.085827 0.120801
0.998646 0.085851 0.126914
0.998646 0.085865 0.130106
0.998646 0.085869 0.131414
0.998646 0.085870 0.131982
0.005004 0.052171 0.047797
0.004793 0.049709 0.046682
0.006832 0.047339 0.045610
0.043590 0.044182 0.044978
0.116722 0.026808 0.042175
0.224622 0.017048 0.059142
0.398799 0.018819 0.083161
0.605049 0.027695 0.093738
0.782676 0.038044 0.089712
0.916048 0.048783 0.080859
0.992526 0.058702 0.095727
0.998646 0.085827 0.120802
0.998646 0.085851 0.126914
0.998646 0.085865 0.130106
0.998646 0.085869 0.131414
0.998646 0.085871 0.131982
0.010720 0.116014 0.057983
0.010508 0.113708 0.057137
0.010344 0.111347 0.056262
0.016571 0.108784 0.047332
0.096787 0.103540 0.026357
0.212682 0.112031 0.024696
0.387768 0.104877 0.026904
0.596078 0.032241 0.043630
0.776277 0.037610 0.086500
0.914620 0.048642 0.081006
0.992551 0.058707 0.095736
0.998646 0.085827 0.120805
0.998646 0.085851 0.126916
0.998646 0.085864 0.130106
0.998646 0.085869 0.131414
0.998646 0.085871 0.131982
0.021195 0.231616 0.056453
0.020990 0.229378 0.055734
0.020780 0.227078 0.055111
0.020640 0.224003 0.053918
0.070710 0.218636 0.025131
0.195465 0.209195 0.026439
0.369217 0.232897 0.029279
0.578819 0.232971 0.034186
0.765611 0.161782 0.040682
0.912298 0.048416 0.077568
0.992596 0.058716 0.095752
0.998646 0.085827 0.120808
0.998646 0.085851 0.126917
0.998646 0.085864 0.130107
0.998646 0.085869 0.131414
0.998646 0.085870 0.131982
0.036851 0.403452 0.041967
0.036704 0.401838 0.041521
0.036551 0.400163 0.041136
0.036347 0.397945 0.040693
0.036793 0.393618 0.036216
0.173244 0.386004 0.036491
0.351087 0.374071 0.039413
0.558442 0.404367 0.043813
0.758561 0.380633 0.048844
0.909209 0.262582 0.053181
0.992028 0.058620 0.088351
0.998646 0.085827 0.120817
0.998646 0.085851 0.126920
0.998646 0.085865 0.130109
0.998646 0.085869 0.131414
0.998646 0.085871 0.131982
0.055685 0.601172 0.055546
0.055590 0.600295 0.055455
0.055493 0.599339 0.055354
0.055366 0.598103 0.055225
0.055113 0.595656 0.054970
0.083598 0.590955 0.054542
0.335344 0.583599 0.056268
0.540386 0.571189 0.060245
