Fusion/LUTs/Dennis-Schmelz-LUTS-Collection/Rejang_Slog3_LUT.cube
LUT_3D_SIZE 16
0.006644 0.007144 0.000000
0.026382 0.000000 0.000064
0.064537 0.000000 0.000158
0.140689 0.000000 0.000461
0.239527 0.000000 0.001185
0.367515 0.000000 0.002837
0.524280 0.000000 0.006240
0.671646 0.000000 0.011119
0.814814 0.000000 0.017699
0.952209 0.000000 0.026027
1.000000 0.000000 0.035077
1.000000 0.000000 0.042114
1.000000 0.000000 0.046622
1.000000 0.000000 0.048945
1.000000 0.000000 0.049863
1.000000 0.000000 0.050183
0.001396 0.023501 0.000000
0.019459 0.021488 0.000000
0.064753 0.017622 0.000000
0.143091 0.006925 0.000001
0.242340 0.000013 0.000399
0.370055 0.000000 0.002155
0.525896 0.000000 0.005713
0.672552 0.000000 0.010771
0.815464 0.000000 0.017732
0.952537 0.000000 0.026050
1.000000 0.000000 0.035089
1.000000 0.000000 0.042117
1.000000 0.000000 0.046624
1.000000 0.000000 0.048945
1.000000 0.000000 0.049864
1.000000 0.000000 0.050183
0.000000 0.070527 0.000000
0.004730 0.067539 0.000000
0.056263 0.062328 0.000000
0.140895 0.048070 0.000000
0.242951 0.018651 0.000003
0.371549 0.000069 0.000909
0.527026 0.000000 0.004724
0.673241 0.000000 0.010126
0.815827 0.000000 0.017230
0.952865 0.000000 0.026072
1.000000 0.000000 0.035101
1.000000 0.000000 0.042122
1.000000 0.000000 0.046625
1.000000 0.000000 0.048946
1.000000 0.000000 0.049864
1.000000 0.000000 0.050183
0.000000 0.141165 0.000000
0.000013 0.139247 0.000000
0.019279 0.136017 0.000000
0.124480 0.129119 0.000000
0.237554 0.105573 0.000000
0.370109 0.048464 0.000005
0.526407 0.000250 0.001351
0.672854 0.000003 0.007413
0.815857 0.000000 0.015715
0.953040 0.000000 0.025489
1.000000 0.000000 0.035114
1.000000 0.000000 0.042128
1.000000 0.000000 0.046627
1.000000 0.000000 0.048946
1.000000 0.000000 0.049864
1.000000 0.000000 0.050183
0.000000 0.235697 0.000000
0.000000 0.234181 0.000000
0.000072 0.232040 0.000000
0.051065 0.228155 0.000000
0.215236 0.218491 0.000000
0.361997 0.185368 0.000000
0.522187 0.116611 0.000001
0.669702 0.001873 0.000295
0.813582 0.000295 0.008500
0.952012 0.000000 0.021020
1.000000 0.000000 0.034379
1.000000 0.000000 0.042134
1.000000 0.000000 0.046630
1.000000 0.000000 0.048947
1.000000 0.000000 0.049864
1.000000 0.000000 0.050183
0.000000 0.356392 0.000000
0.000000 0.355111 0.000000
0.000000 0.353688 0.000000
0.000238 0.351326 0.000000
0.111441 0.345780 0.000000
0.332971 0.333017 0.000000
0.506755 0.292053 0.000000
0.659014 0.230617 0.000000
0.805933 0.103332 0.000024
0.946646 0.001040 0.004164
1.000000 0.000335 0.022878
1.000000 0.000000 0.040479
1.000000 0.000000 0.046623
1.000000 0.000000 0.048949
1.000000 0.000000 0.049864
1.000000 0.000000 0.050183
0.000000 0.494340 0.000000
0.000000 0.493447 0.000000
0.000000 0.492478 0.000000
0.000008 0.490993 0.000000
0.004636 0.487670 0.000000
0.237794 0.480426 0.000000
0.467991 0.465944 0.000000
0.631830 0.427872 0.000000
0.785450 0.375059 0.000000
0.931439 0.288850 0.000001
1.000000 0.094246 0.000280
1.000000 0.001535 0.013675
1.000000 0.000496 0.042622
1.000000 0.000000 0.048915
1.000000 0.000000 0.049864
1.000000 0.000000 0.050183
0.000000 0.621818 0.000000
0.000000 0.621105 0.000000
0.000000 0.620356 0.000000
0.000000 0.619263 0.000000
0.000236 0.616976 0.000000
0.083341 0.612172 0.000000
0.397156 0.603513 0.000000
0.592107 0.589461 0.000000
0.754025 0.554637 0.000000
0.904829 0.509941 0.000000
0.999980 0.448711 0.000000
1.000000 0.354661 0.000011
1.000000 0.116423 0.001701
1.000000 0.001895 0.040250
1.000000 0.000035 0.049776
1.000000 0.000000 0.050184
0.000000 0.745667 0.000000
0.000000 0.745058 0.000000
0.000000 0.744434 0.000000
0.000000 0.743559 0.000000
0.000028 0.741833 0.000000
0.010814 0.738551 0.000000
0.307807 0.733113 0.000000
0.528993 0.724221 0.000000
0.713375 0.710169 0.000000
0.869929 0.678182 0.000000
0.995906 0.640740 0.000000
1.000000 0.596478 0.000000
1.000000 0.530929 0.000000
1.000000 0.375332 0.000303
1.000000 0.010112 0.031972
1.000000 0.000070 0.049999
0.000000 0.862931 0.000000
0.000000 0.862460 0.000000
0.000000 0.861990 0.000000
0.000000 0.861358 0.000000
0.000000 0.860233 0.000000
0.000800 0.858211 0.000000
0.216574 0.854683 0.000000
0.468557 0.848850 0.000000
0.658180 0.839668 0.000000
0.828547 0.826169 0.000000
0.960654 0.799665 0.000000
0.999986 0.772318 0.000000
1.000000 0.739736 0.000000
1.000000 0.687635 0.000000
1.000000 0.561523 0.000000
1.000000 0.112154 0.000007
0.001347 0.960428 0.000000
0.001413 0.960130 0.000000
0.001476 0.959835 0.000000
0.001553 0.959448 0.000000
0.002029 0.958729 0.000000
0.007576 0.957440 0.000000
0.253342 0.955148 0.000000
0.454982 0.951294 0.000000
0.626547 0.945185 0.000000
0.787665 0.936312 0.000000
0.921207 0.925481 0.000000
0.997799 0.908465 0.000000
1.000000 0.891157 0.000000
1.000000 0.868825 0.000000
1.000000 0.828362 0.000000
1.000000 0.768997 0.000000
0.187154 1.000000 0.000000
0.196256 1.000000 0.000000
0.204786 1.000000 0.000000
0.215334 1.000000 0.000000
0.278354 1.000000 0.000000
0.351720 1.000000 0.000000
0.436411 1.000000 0.000000
0.538380 0.999909 0.000000
0.656758 0.998476 0.000000
0.784717 0.996004 0.000000
0.896952 0.993100 0.000000
0.978330 0.990223 0.000000
1.000000 0.982725 0.000000
1.000000 0.973658 0.000000
1.000000 0.961352 0.000000
1.000000 0.945673 0.000000
0.560274 1.000000 0.000000
0.564732 1.000000 0.000000
0.569111 1.000000 0.000000
0.574711 1.000000 0.000000
0.584918 1.000000 0.000000
0.602569 1.000000 0.000000
0.632276 1.000000 0.000000
0.678896 1.000000 0.000000
0.744382 1.000000 0.000000
0.822405 1.000000 0.000000
0.900550 1.000000 0.000000
0.966171 1.000000 0.000000
1.000000 1.000000 0.000000
1.000000 1.000000 0.000000
1.000000 1.000000 0.000000
1.000000 0.999992 0.000000
0.775049 1.000000 0.000000
0.776513 1.000000 0.000000
0.777968 1.000000 0.000000
0.779841 1.000000 0.000000
0.783308 1.000000 0.000000
0.789463 1.000000 0.000000
0.800202 1.000000 0.000000
0.818116 1.000000 0.000000
0.845538 1.000000 0.000000
0.883205 1.000000 0.000000
0.927749 1.000000 0.000000
0.971390 1.000000 0.000000
1.000000 1.000000 0.000000
1.000000 1.000000 0.000000
1.000000 1.000000 0.000000
1.000000 1.000000 0.000000
0.905158 1.000000 0.000000
0.905605 1.000000 0.000000
0.906052 1.000000 0.000000
0.906628 1.000000 0.000000
0.907704 1.000000 0.000000
0.909639 1.000000 0.000000
0.913095 1.000000 0.000000
0.919156 1.000000 0.000000
0.929143 1.000000 0.000000
0.944335 1.000000 0.000000
0.964819 1.000000 0.000000
0.987967 1.000000 0.000000
1.000000 1.000000 0.000000
1.000000 1.000000 0.000000
1.000000 1.000000 0.000000
1.000000 1.000000 0.000000
0.975836 1.000000 0.000000
0.975968 1.000000 0.000000
0.976098 1.000000 0.000000
0.976268 1.000000 0.000000
0.976585 1.000000 0.000000
0.977159 1.000000 0.000000
0.978193 1.000000 0.000000
0.980050 1.000000 0.000000
0.983233 1.000000 0.000000
0.988391 1.000000 0.000000
0.996019 1.000000 0.000000
0.999710 1.000000 0.000000
1.000000 1.000000 0.000000
1.000000 1.000000 0.000000
1.000000 1.000000 0.000000
1.000000 1.000000 0.000000
0.000000 0.000000 0.019047
0.024469 0.000000 0.018682
0.062133 0.000000 0.018509
0.139223 0.000000 0.017843
0.238616 0.000000 0.017067
0.366938 0.000000 0.016645
0.523960 0.000000 0.017267
0.671480 0.000000 0.018664
0.814743 0.000000 0.017701
0.952172 0.000000 0.026024
1.000000 0.000000 0.035075
1.000000 0.000000 0.042113
1.000000 0.000000 0.046622
1.000000 0.000000 0.048945
1.000000 0.000000 0.049863
1.000000 0.000000 0.050183
0.000704 0.019595 0.017531
0.018011 0.017698 0.017183
0.067748 0.012714 0.016145
0.153214 0.003522 0.013951
0.256343 0.000000 0.012049
0.385426 0.000000 0.011512
0.538373 0.000000 0.012807
0.683084 0.000000 0.015459
0.824157 0.000000 0.018260
0.955072 0.000000 0.026548
1.000000 0.000000 0.035427
1.000000 0.000000 0.042309
1.000000 0.000000 0.046711
1.000000 0.000000 0.048976
1.000000 0.000000 0.049874
1.000000 0.000000 0.050183
0.000000 0.065318 0.015166
0.003398 0.065688 0.011929
0.055432 0.058624 0.011188
0.146543 0.041766 0.010305
0.252589 0.014132 0.009493
0.383506 0.000000 0.009519
0.537536 0.000000 0.011395
0.682511 0.000000 0.013722
0.823792 0.000000 0.017799
0.955265 0.000000 0.026535
1.000000 0.000000 0.035420
1.000000 0.000000 0.042304
1.000000 0.000000 0.046708
1.000000 0.000000 0.048975
1.000000 0.000000 0.049874
1.000000 0.000000 0.050183
0.000000 0.138256 0.009085
0.000000 0.140254 0.005681
0.017282 0.135940 0.005506
0.124213 0.127642 0.005301
0.241832 0.100988 0.005507
0.377230 0.043014 0.005923
0.533700 0.000000 0.007452
0.679937 0.000000 0.009959
0.822315 0.000000 0.016266
0.955078 0.000000 0.025950
1.000000 0.000000 0.035394
1.000000 0.000000 0.042291
1.000000 0.000000 0.046703
1.000000 0.000000 0.048974
1.000000 0.000000 0.049873
1.000000 0.000000 0.050183
0.000000 0.233877 0.000805
0.000000 0.235950 0.000476
0.000000 0.233036 0.000487
0.048960 0.228487 0.000460
0.215184 0.217799 0.000439
0.365187 0.182531 0.000653
0.526472 0.110871 0.001310
0.674522 0.001091 0.002193
0.818409 0.000000 0.009103
0.953675 0.000000 0.021621
1.000000 0.000000 0.034677
1.000000 0.000000 0.042276
1.000000 0.000000 0.046696
1.000000 0.000000 0.048971
1.000000 0.000000 0.049872
1.000000 0.000000 0.050183
0.000000 0.355246 0.000001
0.000000 0.356979 0.000000
0.000000 0.354934 0.000000
0.000000 0.352208 0.000000
0.109063 0.346204 0.000000
0.333087 0.332683 0.000000
0.508756 0.290540 0.000000
0.661949 0.226733 0.000004
0.809250 0.099121 0.000169
0.948049 0.000000 0.004782
1.000000 0.000000 0.023514
1.000000 0.000000 0.040753
1.000000 0.000000 0.046691
1.000000 0.000000 0.048969
1.000000 0.000000 0.049871
1.000000 0.000000 0.050183
0.000000 0.493734 0.000000
0.000000 0.494919 0.000000
0.000000 0.493545 0.000000
0.000000 0.491877 0.000000
0.003914 0.488334 0.000000
0.235322 0.480809 0.000000
0.468168 0.465837 0.000000
0.633231 0.427145 0.000000
0.787518 0.373331 0.000000
0.932663 0.284434 0.000010
1.000000 0.089861 0.000549
1.000000 0.000000 0.014355
1.000000 0.000000 0.042940
1.000000 0.000000 0.048969
1.000000 0.000000 0.049870
1.000000 0.000000 0.050183
0.000000 0.621532 0.000000
0.000000 0.622353 0.000000
0.000000 0.621300 0.000000
0.000000 0.620106 0.000000
0.000000 0.617697 0.000000
0.082095 0.612738 0.000000
0.395893 0.603869 0.000000
0.592268 0.589477 0.000000
0.754998 0.554317 0.000000
0.905807 0.509146 0.000000
0.999995 0.447174 0.000000
1.000000 0.350605 0.000031
1.000000 0.112390 0.002191
1.000000 0.000000 0.040592
1.000000 0.000000 0.049870
1.000000 0.000000 0.050184
0.000000 0.745536 0.000000
0.000000 0.746092 0.000000
0.000000 0.745229 0.000000
0.000000 0.744287 0.000000
0.000000 0.742490 0.000000
0.009858 0.739117 0.000000
0.305241 0.733555 0.000000
0.528370 0.724506 0.000000
0.713511 0.710214 0.000000
0.870520 0.678053 0.000000
0.995936 0.640391 0.000000
1.000000 0.595758 0.000000
1.000000 0.529078 0.000000
1.000000 0.370709 0.000651
1.000000 0.008515 0.032181
1.000000 0.000098 0.049990
0.000000 0.862865 0.000000
0.000000 0.863200 0.000000
0.000000 0.862559 0.000000
0.000000 0.861887 0.000000
0.000000 0.860725 0.000000
0.000059 0.858652 0.000000
0.214533 0.855063 0.000000
0.467410 0.849154 0.000000
0.657863 0.839862 0.000000
0.828649 0.826213 0.000000
0.960772 0.799647 0.000000
0.999988 0.772196 0.000000
1.000000 0.739397 0.000000
1.000000 0.686628 0.000000
1.000000 0.557514 0.000000
1.000000 0.112974 0.000006
0.001345 0.960402 0.000000
0.002323 0.960431 0.000000
0.002445 0.960041 0.000000
0.002538 0.959640 0.000000
0.003206 0.958916 0.000000
0.009232 0.957617 0.000000
0.251167 0.955318 0.000000
0.453920 0.951455 0.000000
0.626073 0.945321 0.000000
0.787560 0.936400 0.000000
0.921256 0.925507 0.000000
0.997797 0.908486 0.000000
1.000000 0.891140 0.000000
1.000000 0.868693 0.000000
1.000000 0.828098 0.000000
1.000000 0.769867 0.000000
0.186980 1.000000 0.000000
0.194341 1.000000 0.000000
0.205505 1.000000 0.000000
0.216170 1.000000 0.000000
0.277685 1.000000 0.000000
0.351173 1.000000 0.000000
0.435965 1.000000 0.000000
0.537929 0.999915 0.000000
0.656386 0.998487 0.000000
0.784562 0.996014 0.000000
0.896934 0.993106 0.000000
0.978338 0.990221 0.000000
1.000000 0.982742 0.000000
1.000000 0.973682 0.000000
1.000000 0.961378 0.000000
1.000000 0.945956 0.000000
0.560187 1.000000 0.000000
0.563938 1.000000 0.000000
0.569470 1.000000 0.000000
0.575157 1.000000 0.000000
0.585269 1.000000 0.000000
0.602791 1.000000 0.000000
0.632375 1.000000 0.000000
0.678830 1.000000 0.000000
0.744229 1.000000 0.000000
0.822294 1.000000 0.000000
0.900514 1.000000 0.000000
0.966181 1.000000 0.000000
1.000000 1.000000 0.000000
1.000000 1.000000 0.000000
1.000000 1.000000 0.000000
1.000000 0.999993 0.000000
0.775019 1.000000 0.000000
0.776444 1.000000 0.000000
0.778236 1.000000 0.000000
0.780132 1.000000 0.000000
0.783564 1.000000 0.000000
0.789668 1.000000 0.000000
0.800357 1.000000 0.000000
0.818186 1.000000 0.000000
0.845529 1.000000 0.000000
0.883162 1.000000 0.000000
0.927728 1.000000 0.000000
0.971403 1.000000 0.000000
1.000000 1.000000 0.000000
1.000000 1.000000 0.000000
1.000000 1.000000 0.000000
1.000000 1.000000 0.000000
0.905149 1.000000 0.000000
0.905663 1.000000 0.000000
0.906200 1.000000 0.000000
0.906782 1.000000 0.000000
0.907846 1.000000 0.000000
0.909764 1.000000 0.000000
0.913203 1.000000 0.000000
0.919229 1.000000 0.000000
0.929176 1.000000 0.000000
0.944334 1.000000 0.000000
0.964816 1.000000 0.000000
0.987987 1.000000 0.000000
1.000000 1.000000 0.000000
1.000000 1.000000 0.000000
1.000000 1.000000 0.000000
1.000000 1.000000 0.000000
0.975834 1.000000 0.000000
0.975984 1.000000 0.000000
0.976103 1.000000 0.000000
0.976272 1.000000 0.000000
0.976591 1.000000 0.000000
0.977167 1.000000 0.000000
0.978207 1.000000 0.000000
0.980070 1.000000 0.000000
0.983259 1.000000 0.000000
0.988423 1.000000 0.000000
0.996052 1.000000 0.000000
0.999715 1.000000 0.000000
1.000000 1.000000 0.000000
1.000000 1.000000 0.000000
1.000000 1.000000 0.000000
1.000000 1.000000 0.000000
0.000000 0.000000 0.055032
0.021458 0.000000 0.053877
0.058487 0.000000 0.052756
0.137195 0.000000 0.049676
0.237447 0.000000 0.045373
0.366243 0.000000 0.040579
0.523586 0.000000 0.035901
0.671290 0.000000 0.031197
0.814636 0.000000 0.028021
0.952136 0.000000 0.026037
1.000000 0.000000 0.035074
1.000000 0.000000 0.042113
1.000000 0.000000 0.046622
1.000000 0.000000 0.048945
1.000000 0.000000 0.049863
1.000000 0.000000 0.050183
0.000000 0.013369 0.052546
0.014667 0.010542 0.056110
0.063667 0.006419 0.054211
0.150518 0.001046 0.049066
0.254448 0.000000 0.042974
0.384169 0.000000 0.037982
0.537682 0.000000 0.033598
0.682730 0.000000 0.029662
0.823943 0.000000 0.026876
0.955011 0.000000 0.026541
1.000000 0.000000 0.035424
1.000000 0.000000 0.042308
1.000000 0.000000 0.046710
1.000000 0.000000 0.048976
1.000000 0.000000 0.049874
1.000000 0.000000 0.050183
0.000000 0.057631 0.049115
0.002459 0.056290 0.049269
0.052150 0.049320 0.047082
0.144825 0.034918 0.043907
0.255876 0.009946 0.039546
0.398686 0.000000 0.033871
0.559627 0.000000 0.028691
0.707490 0.000000 0.024733
0.848634 0.000000 0.023188
0.963503 0.000000 0.028118
1.000000 0.000000 0.036588
1.000000 0.000000 0.043006
1.000000 0.000000 0.047045
1.000000 0.000000 0.049099
1.000000 0.000000 0.049914
1.000000 0.000000 0.050183
0.000000 0.134198 0.040411
0.000000 0.135235 0.037669
0.015853 0.132533 0.035480
0.122013 0.123458 0.033002
0.243992 0.095774 0.028855
0.387509 0.039205 0.025008
0.549507 0.000014 0.022385
0.698703 0.000000 0.020113
0.843740 0.000000 0.021439
0.962353 0.000000 0.027518
1.000000 0.000000 0.036440
1.000000 0.000000 0.042930
1.000000 0.000000 0.047015
1.000000 0.000000 0.049090
1.000000 0.000000 0.049911
1.000000 0.000000 0.050183
0.000000 0.231535 0.022931
0.000000 0.232944 0.020270
0.000000 0.235319 0.014621
0.045772 0.229291 0.013986
0.213472 0.216761 0.012039
0.368655 0.178835 0.010372
0.535454 0.101638 0.009605
0.690272 0.003006 0.010045
0.835476 0.000000 0.013855
0.959821 0.000000 0.023600
1.000000 0.000000 0.035699
1.000000 0.000000 0.042829
1.000000 0.000000 0.046971
1.000000 0.000000 0.049076
1.000000 0.000000 0.049907
1.000000 0.000000 0.050183
0.000000 0.353861 0.002054
0.000000 0.355146 0.001727
0.000000 0.359672 0.000904
0.000000 0.355713 0.000915
0.103120 0.348303 0.000673
0.332466 0.332808 0.000298
0.512447 0.288173 0.000041
0.672336 0.213880 0.000195
0.821619 0.088410 0.000963
0.953363 0.000410 0.007286
1.000000 0.000000 0.025828
1.000000 0.000000 0.041461
1.000000 0.000000 0.046924
1.000000 0.000000 0.049060
1.000000 0.000000 0.049902
1.000000 0.000000 0.050183
0.000000 0.493021 0.000009
0.000000 0.493958 0.000000
0.000000 0.498180 0.000000
0.000000 0.495718 0.000000
0.003702 0.491395 0.000000
0.226119 0.482795 0.000000
0.468381 0.466267 0.000000
0.638694 0.424923 0.000000
0.795659 0.365614 0.000004
0.937513 0.265631 0.000154
1.000000 0.080810 0.002287
1.000000 0.000065 0.017602
1.000000 0.000000 0.043604
1.000000 0.000000 0.049044
1.000000 0.000000 0.049897
1.000000 0.000000 0.050183
0.000000 0.621143 0.000000
0.000000 0.621846 0.000000
0.000000 0.625572 0.000000
0.000000 0.623831 0.000000
0.000000 0.620950 0.000000
0.078266 0.615369 0.000000
0.388180 0.605637 0.000000
0.592920 0.589956 0.000000
0.759133 0.553092 0.000000
0.910027 0.505134 0.000000
1.000000 0.437166 0.000016
1.000000 0.328958 0.000475
1.000000 0.102458 0.005806
1.000000 0.000000 0.041458
1.000000 0.000000 0.049892
1.000000 0.000000 0.050184
0.000000 0.745357 0.000000
0.000000 0.745846 0.000000
0.000000 0.748942 0.000000
0.000000 0.747604 0.000000
0.000000 0.745520 0.000000
0.009339 0.741770 0.000000
0.291278 0.735679 0.000000
0.524599 0.725962 0.000000
0.714102 0.710697 0.000000
0.873233 0.677367 0.000000
0.996173 0.638219 0.000000
1.000000 0.590761 0.000001
1.000000 0.515465 0.000058
1.000000 0.344324 0.003159
1.000000 0.009209 0.033497
1.000000 0.000236 0.049937
0.000000 0.862800 0.000000
0.000000 0.863094 0.000000
0.000000 0.865349 0.000000
0.000000 0.864414 0.000000
0.000000 0.863084 0.000000
0.000196 0.860797 0.000000
0.202792 0.856932 0.000000
0.459489 0.850662 0.000000
0.655709 0.840920 0.000000
0.829117 0.826601 0.000000
0.961416 0.799338 0.000000
0.999996 0.770980 0.000000
1.000000 0.736419 0.000000
1.000000 0.678573 0.000016
1.000000 0.530099 0.000460
1.000000 0.136379 0.000000
0.001344 0.960377 0.000000
0.002318 0.960388 0.000000
0.006759 0.961152 0.000000
0.007038 0.960628 0.000000
0.008457 0.959877 0.000000
0.016034 0.958545 0.000000
0.236885 0.956210 0.000000
0.446391 0.952288 0.000000
0.622502 0.946041 0.000000
0.786472 0.936933 0.000000
0.921495 0.925723 0.000000
0.997807 0.908370 0.000000
1.000000 0.890520 0.000000
1.000000 0.867071 0.000000
1.000000 0.824493 0.000000
1.000000 0.774342 0.000000
0.186805 1.000000 0.000000
0.194406 1.000000 0.000000
0.206452 1.000000 0.000000
0.219928 1.000000 0.000000
0.271654 1.000000 0.000000
0.346804 1.000000 0.000000
0.432336 1.000000 0.000000
0.534540 0.999918 0.000000
0.653555 0.998548 0.000000
0.782722 0.996093 0.000000
0.896519 0.993166 0.000000
0.978377 0.990228 0.000000
1.000000 0.982681 0.000000
1.000000 0.973467 0.000000
1.000000 0.960922 0.000000
1.000000 0.947381 0.000000
0.560100 1.000000 0.000000
0.563974 1.000000 0.000000
0.569924 1.000000 0.000000
0.576983 1.000000 0.000000
0.586684 1.000000 0.000000
0.603564 1.000000 0.000000
0.632318 1.000000 0.000000
0.677931 1.000000 0.000000
0.742790 1.000000 0.000000
0.820915 1.000000 0.000000
0.899718 1.000000 0.000000
0.966077 1.000000 0.000000
1.000000 1.000000 0.000000
1.000000 1.000000 0.000000
1.000000 1.000000 0.000000
1.000000 0.999995 0.000000
0.774989 1.000000 0.000000
0.776455 1.000000 0.000000
0.779220 1.000000 0.000000
0.781556 1.000000 0.000000
0.784816 1.000000 0.000000
0.790643 1.000000 0.000000
0.800950 1.000000 0.000000
0.818319 1.000000 0.000000
0.845232 1.000000 0.000000
0.882585 1.000000 0.000000
0.927150 1.000000 0.000000
0.971134 1.000000 0.000000
1.000000 1.000000 0.000000
1.000000 1.000000 0.000000
1.000000 1.000000 0.000000
1.000000 1.000000 0.000000
0.905140 1.000000 0.000000
0.905666 1.000000 0.000000
0.906917 1.000000 0.000000
0.907629 1.000000 0.000000
0.908629 1.000000 0.000000
0.910444 1.000000 0.000000
0.913736 1.000000 0.000000
0.919563 1.000000 0.000000
0.929285 1.000000 0.000000
0.944229 1.000000 0.000000
0.964569 1.000000 0.000000
0.987757 1.000000 0.000000
0.999975 1.000000 0.000000
1.000000 1.000000 0.000000
1.000000 1.000000 0.000000
1.000000 1.000000 0.000000
0.975830 1.000000 0.000000
0.975981 1.000000 0.000000
0.976134 1.000000 0.000000
0.976305 1.000000 0.000000
0.976628 1.000000 0.000000
0.977220 1.000000 0.000000
0.978290 1.000000 0.000000
0.980175 1.000000 0.000000
0.983391 1.000000 0.000000
0.988576 1.000000 0.000000
0.996214 1.000000 0.000000
0.999739 1.000000 0.000000
1.000000 1.000000 0.000000
1.000000 1.000000 0.000000
1.000000 1.000000 0.000000
1.000000 1.000000 0.000000
0.000000 0.000000 0.116787
0.013879 0.000000 0.116020
0.048578 0.000000 0.115264
0.132619 0.000000 0.114110
0.235009 0.000000 0.106917
0.364847 0.000000 0.099016
0.522830 0.000000 0.089489
0.670892 0.000000 0.074746
0.814448 0.000000 0.054369
0.952060 0.000000 0.037515
1.000000 0.000000 0.035106
1.000000 0.000000 0.042112
1.000000 0.000000 0.046622
1.000000 0.000000 0.048945
1.000000 0.000000 0.049863
1.000000 0.000000 0.050183
0.000000 0.002000 0.115269
0.007492 0.001151 0.125206
0.051475 0.000023 0.124837
0.143652 0.000000 0.120454
0.250626 0.000000 0.109634
0.381822 0.000000 0.098561
0.536395 0.000000 0.087170
0.682007 0.000000 0.071898
0.823548 0.000000 0.052287
0.954889 0.000000 0.036834
1.000000 0.000000 0.035417
1.000000 0.000000 0.042305
1.000000 0.000000 0.046709
1.000000 0.000000 0.048976
1.000000 0.000000 0.049874
1.000000 0.000000 0.050183
0.000000 0.038668 0.113240
0.000562 0.034183 0.120309
0.043582 0.029645 0.118873
0.141003 0.017436 0.115873
0.255195 0.001839 0.107726
0.398585 0.000000 0.096848
0.558853 0.000000 0.083766
0.706642 0.000000 0.066563
0.847905 0.000000 0.047415
0.963294 0.000000 0.035229
1.000000 0.000000 0.036568
1.000000 0.000000 0.042997
1.000000 0.000000 0.047042
1.000000 0.000000 0.049098
1.000000 0.000000 0.049914
1.000000 0.000000 0.050183
0.000000 0.124711 0.108578
0.000000 0.124593 0.109226
0.011647 0.121258 0.108740
0.118439 0.111797 0.105887
0.242550 0.087633 0.100496
0.386457 0.035749 0.092543
0.550057 0.000699 0.081450
0.706386 0.000000 0.063919
0.858163 0.000000 0.044148
0.969439 0.000000 0.034004
1.000000 0.000000 0.037709
1.000000 0.000000 0.043782
1.000000 0.000000 0.047466
1.000000 0.000000 0.049268
1.000000 0.000000 0.049973
1.000000 0.000000 0.050183
0.000000 0.226524 0.091908
0.000000 0.227659 0.089399
0.000000 0.229350 0.084441
0.049843 0.222610 0.086344
0.210890 0.210628 0.082013
0.366640 0.177484 0.072590
0.537182 0.103408 0.060340
0.697420 0.013882 0.046468
0.849213 0.000000 0.033329
0.966651 0.000000 0.029830
1.000000 0.000000 0.036927
1.000000 0.000000 0.043611
1.000000 0.000000 0.047387
1.000000 0.000000 0.049241
1.000000 0.000000 0.049965
1.000000 0.000000 0.050183
0.000000 0.351005 0.057841
0.000000 0.352169 0.054615
0.000000 0.356176 0.045906
0.000000 0.354836 0.043873
0.103373 0.346891 0.041717
0.329729 0.331052 0.035385
0.510391 0.289846 0.026372
0.676966 0.211999 0.016262
0.832220 0.091404 0.009113
0.959840 0.004090 0.012408
1.000000 0.000000 0.028370
1.000000 0.000000 0.042355
1.000000 0.000000 0.047291
1.000000 0.000000 0.049207
1.000000 0.000000 0.049954
1.000000 0.000000 0.050183
0.000000 0.491510 0.007040
0.000000 0.492399 0.006400
0.000000 0.496331 0.005029
0.000000 0.498811 0.004479
0.003823 0.493680 0.005261
0.218625 0.484076 0.004150
0.466734 0.466527 0.002354
0.641669 0.424958 0.000758
0.803261 0.360512 0.000300
0.943944 0.245653 0.000530
1.000000 0.076643 0.004771
1.000000 0.000636 0.021825
1.000000 0.000000 0.044482
1.000000 0.000000 0.049171
1.000000 0.000000 0.049942
1.000000 0.000000 0.050183
0.000000 0.620360 0.000100
0.000000 0.621035 0.000000
0.000000 0.624584 0.000000
0.000000 0.628534 0.000007
0.000000 0.624949 0.000017
0.079656 0.618581 0.000002
0.378918 0.607765 0.000000
0.593441 0.590531 0.000000
