Fusion/LUTs/Dennis-Schmelz-LUTS-Collection/Rejang_Slog3_LUT.cube
LUT_3D_SIZE 6
0.006644 0.007144 0.000000
0.140689 0.000000 0.000461
0.524280 0.000000 0.006240
0.952209 0.000000 0.026027
1.000000 0.000000 0.046622
1.000000 0.000000 0.050183
0.000000 0.141165 0.000000
0.124480 0.129119 0.000000
0.526407 0.000250 0.001351
0.953040 0.000000 0.025489
1.000000 0.000000 0.046627
1.000000 0.000000 0.050183
0.000000 0.494340 0.000000
0.000008 0.490993 0.000000
0.467991 0.465944 0.000000
0.931439 0.288850 0.000001
1.000000 0.000496 0.042622
1.000000 0.000000 0.050183
0.000000 0.862931 0.000000
0.000000 0.861358 0.000000
0.216574 0.854683 0.000000
0.828547 0.826169 0.000000
1.000000 0.739736 0.000000
1.000000 0.112154 0.000007
0.560274 1.000000 0.000000
0.574711 1.000000 0.000000
0.632276 1.000000 0.000000
0.822405 1.000000 0.000000
1.000000 1.000000 0.000000
1.000000 0.999992 0.000000
0.975836 1.000000 0.000000
0.976268 1.000000 0.000000
0.978193 1.000000 0.000000
0.988391 1.000000 0.000000
1.000000 1.000000 0.000000
1.000000 1.000000 0.000000
0.000000 0.000000 0.116787
0.132619 0.000000 0.114110
0.522830 0.000000 0.089489
0.952060 0.000000 0.037515
1.000000 0.000000 0.046622
1.000000 0.000000 0.050183
0.000000 0.124711 0.108578
0.118439 0.111797 0.105887
0.550057 0.000699 0.081450
0.969439 0.000000 0.034004
1.000000 0.000000 0.047466
1.000000 0.000000 0.050183
0.000000 0.491510 0.007040
0.000000 0.498811 0.004479
0.466734 0.466527 0.002354
0.943944 0.245653 0.000530
1.000000 0.000000 0.044482
1.000000 0.000000 0.050183
0.000000 0.862671 0.000000
0.000000 0.868602 0.000000
0.186117 0.859974 0.000000
0.829891 0.827250 0.000000
1.000000 0.731884 0.000000
1.000000 0.176103 0.000000
0.559995 1.000000 0.000000
0.579655 1.000000 0.000000
0.632897 1.000000 0.000000
0.818918 1.000000 0.000000
1.000000 1.000000 0.000000
1.000000 1.000000 0.000000
0.975827 1.000000 0.000000
0.976366 1.000000 0.000000
0.978421 1.000000 0.000000
0.988824 1.000000 0.000000
1.000000 1.000000 0.000000
1.000000 1.000000 0.000000
0.000000 0.000000 0.431202
0.009468 0.000000 0.430406
0.507906 0.000000 0.426111
0.948619 0.000000 0.361947
1.000000 0.000000 0.089596
1.000000 0.000000 0.050183
0.000000 0.000136 0.429638
0.024949 0.000000 0.454570
0.536248 0.000000 0.444424
0.966002 0.000000 0.368272
1.000000 0.000000 0.078470
1.000000 0.000000 0.050183
0.000000 0.458984 0.412607
0.000000 0.461358 0.417221
0.454543 0.427961 0.407041
0.939470 0.245767 0.344756
1.000000 0.000000 0.083493
1.000000 0.000000 0.050183
0.000000 0.854776 0.284212
0.000000 0.860789 0.240279
0.167344 0.856239 0.224460
0.825273 0.823709 0.145637
1.000000 0.728680 0.000354
1.000000 0.307869 0.000000
0.558539 1.000000 0.000670
0.578000 1.000000 0.000000
0.636104 1.000000 0.000000
0.813490 1.000000 0.000000
1.000000 1.000000 0.000000
1.000000 1.000000 0.000000
0.975791 1.000000 0.000000
0.976329 1.000000 0.000000
0.978770 1.000000 0.000000
0.989538 1.000000 0.000000
1.000000 1.000000 0.000000
1.000000 1.000000 0.000000
0.000000 0.000000 0.773436
0.000000 0.000000 0.773304
0.387958 0.000000 0.772852
0.930977 0.000000 0.769434
1.000000 0.000000 0.719343
1.000000 0.000000 0.333674
0.000000 0.000000 0.773264
0.000000 0.000000 0.811128
0.422145 0.000000 0.811988
0.948038 0.000000 0.796687
1.000000 0.000000 0.729958
1.000000 0.000000 0.387967
0.000000 0.186844 0.769556
0.000000 0.155908 0.796931
0.393826 0.167309 0.794134
0.931137 0.000000 0.785250
1.000000 0.000000 0.736760
1.000000 0.000000 0.454665
0.000000 0.812417 0.749064
0.000000 0.815200 0.753280
0.069671 0.809473 0.754606
0.806002 0.772115 0.744406
1.000000 0.683906 0.681968
1.000000 0.326046 0.427110
0.515008 1.000000 0.676604
0.536574 1.000000 0.663267
0.600584 1.000000 0.637084
0.798016 0.999997 0.636638
0.997238 0.999048 0.548796
1.000000 0.999425 0.108122
0.975143 1.000000 0.031067
0.975602 1.000000 0.036635
0.977275 1.000000 0.088919
0.988043 1.000000 0.117373
0.999989 1.000000 0.042192
1.000000 1.000000 0.000802
0.000000 0.000000 0.984171
0.000000 0.000000 0.984165
0.018056 0.000000 0.984172
0.867003 0.000000 0.984698
1.000000 0.000000 0.984107
1.000000 0.000000 0.973353
0.000000 0.000000 0.984163
0.000000 0.000000 0.993560
0.052290 0.000000 0.992840
0.892743 0.000000 0.991174
1.000000 0.000000 0.988043
1.000000 0.000000 0.974667
0.000000 0.000000 0.984118
0.000000 0.000000 0.990525
0.123812 0.000000 0.991455
0.907273 0.000000 0.991031
1.000000 0.000000 0.989572
1.000000 0.000000 0.976396
0.000000 0.699186 0.973790
0.000000 0.693425 0.977611
0.000000 0.693406 0.981408
0.783214 0.648090 0.980349
1.000000 0.474640 0.979934
1.000000 0.009035 0.974169
0.394946 0.996316 0.961554
0.418448 0.996188 0.962339
0.501943 0.995605 0.963914
0.755005 0.986473 0.963116
0.981065 0.970372 0.960401
1.000000 0.960448 0.952525
0.943740 1.000000 0.945848
0.944189 1.000000 0.947379
0.946656 1.000000 0.949369
0.958670 1.000000 0.949787
0.987837 1.000000 0.947074
0.999999 0.999999 0.934362
0.000000 0.000000 1.000000
0.000000 0.000000 1.000000
0.000000 0.000000 1.000000
0.635176 0.000000 1.000000
1.000000 0.000000 1.000000
1.000000 0.000000 1.000000
0.000000 0.000000 1.000000
0.000000 0.000000 1.000000
0.000000 0.000000 1.000000
0.672381 0.000000 1.000000
1.000000 0.000000 1.000000
1.000000 0.000000 1.000000
0.000000 0.000000 1.000000
0.000000 0.000000 1.000000
0.000002 0.000000 1.000000
0.740128 0.000000 1.000000
1.000000 0.000000 1.000000
1.000000 0.000000 1.000000
0.000000 0.003566 1.000000
0.000000 0.004067 1.000000
0.000004 0.005655 1.000000
0.808474 0.007350 1.000000
1.000000 0.004551 1.000000
1.000000 0.000047 1.000000
0.001444 0.985844 0.999713
0.001907 0.986023 0.999696
0.154387 0.984028 0.999708
0.708547 0.970281 0.999918
0.980009 0.950257 0.999963
1.000000 0.933738 0.999965
0.931003 1.000000 0.998713
0.931738 1.000000 0.998715
0.935001 1.000000 0.998721
0.949413 1.000000 0.998750
0.982718 0.999970 0.998805
0.999893 0.999760 0.998737
