Fusion/LUTs/Lutify-Free-LUTs-Pack/Lutify Free LUTs Pack/Colour Film Boost Pro - Film Boost 10/Lutify.me-FilmBoost10-Rec709-to-Rec709.cube
# Created with: fylm.ai - Colour Grading and Collaboration Software in Cloud 
# Website: https://fylm.ai 
# META
# Option: Gamut compress
# Block 1: IDT | Rec709
# Block 2: colourMatch | Blending Mode: Normal | {"ColorSpace":0,"CrossCovarianceLimit":50,"ReshapingIterations":1,"PercentSaturationShift":100,"PercentShadingShift":100,"ExtraShading":true,"PercentTint":100,"PercentModified":100}
# Block 3: subtractiveColour | Blending Mode: Normal | {"sliders":{"gainY":0.55,"C":0.3,"M":0.3,"Y":0.3}}
# Block 4: LUT | Filmic Curve Response: Low Contrast 2 (100%)
# Block 5: logPrimaries | Blending Mode: Normal | {"wheels":{"shadows":{"Y":"0","R":"1","G":"1","B":"1"},"midtones":{"Y":"0","R":"1","G":"1","B":"1"},"highlights":{"Y":"0","R":"1","G":"1","B":"1"},"offset":{"Y":"0","R":"1","G":"1","B":"1"}},"sliders":{"shadows":{"Y":0,"R":-0.085,"G":0.024,"B":0.134},"midtones":{"Y":0,"R":0,"G":-0.023,"B":0},"highlights":{"Y":0,"R":0,"G":0,"B":0},"offset":{"Y":0,"R":0.012,"G":-0.012,"B":0}}}
# Block 6: HSL | Blending Mode: Normal | {"hue":{"Reds":0,"Yellows":0,"Greens":0,"Cyans":0,"Blues":0,"Magentas":0},"saturation":{"Reds":1,"Yellows":1,"Greens":1,"Cyans":1,"Blues":1,"Magentas":1},"luminance":{"Reds":0.9,"Yellows":0.9,"Greens":0.9,"Cyans":0.9,"Blues":0.9,"Magentas":0.9},"lum_sat":{"Blacks":1,"Shadows":1,"Midtones":1,"Highlights":1,"Whites":1},"sat_sat":{"10":1,"20":1,"30":1,"40":1,"50":1}}
# Block 7: ODT | Rec709
TITLE "Lutify.me-FilmBoost10-Rec709-to-Rec709" 
LUT_3D_SIZE 5
0.000000 0.000000 0.008111
0.190057 0.000000 0.000000
0.368920 0.000000 0.005422
0.538318 0.000000 0.031003
0.753959 0.000000 0.066696
0.000000 0.200168 0.000000
0.236029 0.193550 0.000000
0.408582 0.143711 0.000000
0.568917 0.072664 0.025110
0.778016 0.000000 0.073537
0.087047 0.384560 0.038729
0.212998 0.389781 0.000000
0.462771 0.371464 0.000000
0.623980 0.320525 0.000000
0.835088 0.226907 0.095461
0.000000 0.574511 0.096347
0.179158 0.573257 0.096852
0.429353 0.574961 0.074791
0.673780 0.562922 0.000000
0.919367 0.452034 0.128195
0.000000 0.895905 0.346961
0.000000 0.898681 0.354327
0.000000 0.908172 0.376855
0.308807 0.927111 0.430434
0.928632 0.945143 0.545171
0.000000 0.000000 0.141961
0.195484 0.000000 0.162475
0.387167 0.000000 0.146786
0.565954 0.000000 0.130213
0.767198 0.000000 0.122348
0.000000 0.216562 0.254381
0.201735 0.232650 0.260907
0.433481 0.174843 0.187992
0.593425 0.107964 0.146780
0.786802 0.000000 0.130608
0.000000 0.415683 0.255196
0.162810 0.422394 0.249375
0.462017 0.418648 0.233731
0.634704 0.346820 0.181435
0.846850 0.230864 0.145409
0.000000 0.592202 0.239550
0.158781 0.590234 0.234353
0.413916 0.593434 0.230390
0.672514 0.585744 0.209391
0.925033 0.457008 0.175714
0.000000 0.897943 0.371375
0.000000 0.899558 0.375857
0.000000 0.909720 0.384048
0.318494 0.927994 0.430687
0.930083 0.945053 0.545411
0.000000 0.041058 0.295217
0.160333 0.027208 0.306055
0.396295 0.000000 0.333495
0.568687 0.000000 0.302023
0.788145 0.000000 0.259239
0.000000 0.181954 0.393770
0.133693 0.199028 0.407946
0.431120 0.205930 0.407817
0.600073 0.150159 0.343517
0.810854 0.000000 0.266120
0.000000 0.422540 0.472652
0.107130 0.428746 0.477798
0.444784 0.450082 0.476917
0.649268 0.393524 0.400127
0.866350 0.267341 0.289970
0.000000 0.613917 0.467340
0.000000 0.618691 0.462579
0.402279 0.628276 0.466262
0.674280 0.626244 0.438068
0.930115 0.490290 0.306496
0.000000 0.900643 0.451100
0.000000 0.903611 0.452212
0.000000 0.915707 0.461358
0.335207 0.930457 0.486449
0.939782 0.946762 0.557767
0.000000 0.089254 0.468566
0.085987 0.091592 0.469609
0.348636 0.077552 0.489495
0.590585 0.000000 0.500018
0.790900 0.000000 0.448399
0.000000 0.166489 0.515598
0.000000 0.178631 0.526218
0.349262 0.178568 0.537454
0.607833 0.184298 0.548487
0.810624 0.000000 0.463853
0.000000 0.370175 0.598338
0.000000 0.381741 0.604208
0.331891 0.404094 0.622043
0.638401 0.412104 0.622746
0.875606 0.295209 0.505352
0.000000 0.612693 0.665457
0.000000 0.617952 0.668313
0.344195 0.636597 0.677794
0.676857 0.654371 0.677403
0.951083 0.510077 0.519505
0.000000 0.903029 0.615976
0.000000 0.907185 0.616361
0.000000 0.919922 0.614503
0.333344 0.940341 0.622736
0.959731 0.952529 0.618237
0.000000 0.282266 0.810161
0.000000 0.289457 0.814347
0.000000 0.316558 0.827683
0.347054 0.338383 0.838435
0.725818 0.339220 0.846414
0.000000 0.314913 0.823789
0.000000 0.318096 0.825710
0.000000 0.339963 0.833772
0.341744 0.359417 0.846801
0.736293 0.360181 0.850549
0.000000 0.391233 0.850497
0.000000 0.394644 0.853099
0.000000 0.408491 0.859464
0.338828 0.428593 0.868644
0.790871 0.434523 0.873861
0.000000 0.519663 0.895639
0.000000 0.520216 0.896165
0.000000 0.535357 0.899077
0.365110 0.550393 0.906103
0.889557 0.563493 0.907108
0.000000 0.888947 0.954203
0.000000 0.893756 0.953974
0.000000 0.910593 0.956595
0.000000 0.935926 0.961778
0.972681 0.978653 0.972736
