Fusion/LUTs/Lutify-Free-LUTs-Pack/Lutify Free LUTs Pack/Colour Film Boost Pro - Film Boost 10/Lutify.me-FilmBoost10-Rec709-to-Rec709.cube
# Created with: fylm.ai - Colour Grading and Collaboration Software in Cloud 
# Website: https://fylm.ai 
# META
# Option: Gamut compress
# Block 1: IDT | Rec709
# Block 2: colourMatch | Blending Mode: Normal | {"ColorSpace":0,"CrossCovarianceLimit":50,"ReshapingIterations":1,"PercentSaturationShift":100,"PercentShadingShift":100,"ExtraShading":true,"PercentTint":100,"PercentModified":100}
# Block 3: subtractiveColour | Blending Mode: Normal | {"sliders":{"gainY":0.55,"C":0.3,"M":0.3,"Y":0.3}}
# Block 4: LUT | Filmic Curve Response: Low Contrast 2 (100%)
# Block 5: logPrimaries | Blending Mode: Normal | {"wheels":{"shadows":{"Y":"0","R":"1","G":"1","B":"1"},"midtones":{"Y":"0","R":"1","G":"1","B":"1"},"highlights":{"Y":"0","R":"1","G":"1","B":"1"},"offset":{"Y":"0","R":"1","G":"1","B":"1"}},"sliders":{"shadows":{"Y":0,"R":-0.085,"G":0.024,"B":0.134},"midtones":{"Y":0,"R":0,"G":-0.023,"B":0},"highlights":{"Y":0,"R":0,"G":0,"B":0},"offset":{"Y":0,"R":0.012,"G":-0.012,"B":0}}}
# Block 6: HSL | Blending Mode: Normal | {"hue":{"Reds":0,"Yellows":0,"Greens":0,"Cyans":0,"Blues":0,"Magentas":0},"saturation":{"Reds":1,"Yellows":1,"Greens":1,"Cyans":1,"Blues":1,"Magentas":1},"luminance":{"Reds":0.9,"Yellows":0.9,"Greens":0.9,"Cyans":0.9,"Blues":0.9,"Magentas":0.9},"lum_sat":{"Blacks":1,"Shadows":1,"Midtones":1,"Highlights":1,"Whites":1},"sat_sat":{"10":1,"20":1,"30":1,"40":1,"50":1}}
# Block 7: ODT | Rec709
TITLE "Lutify.me-FilmBoost10-Rec709-to-Rec709" 
LUT_3D_SIZE 33
0.000000 0.000000 0.008111
0.000000 0.000000 0.008225
0.000000 0.000000 0.002285
0.052109 0.000000 0.000000
0.089330 0.000000 0.000000
0.116347 0.000000 0.000000
0.140855 0.000000 0.000000
0.165409 0.000000 0.000000
0.190057 0.000000 0.000000
0.214109 0.000000 0.000000
0.238688 0.000000 0.000000
0.266225 0.000000 0.000000
0.288161 0.000000 0.000000
0.307914 0.000000 0.000000
0.327356 0.000000 0.000000
0.350495 0.000000 0.000000
0.368920 0.000000 0.005422
0.393281 0.000000 0.014306
0.411289 0.000000 0.015021
0.433216 0.000000 0.018316
0.450454 0.000000 0.018764
0.472204 0.000000 0.022959
0.491658 0.000000 0.025915
0.514621 0.000000 0.028918
0.538318 0.000000 0.031003
0.562450 0.000000 0.032965
0.586939 0.000000 0.035487
0.608961 0.000000 0.039989
0.627333 0.000000 0.043217
0.656580 0.000000 0.047974
0.682978 0.000000 0.053428
0.717054 0.000000 0.061677
0.753959 0.000000 0.066696
0.000000 0.000000 0.009991
0.000000 0.000000 0.010185
0.006141 0.000000 0.003243
0.061137 0.000000 0.000000
0.093267 0.000000 0.000000
0.117338 0.000000 0.000000
0.141984 0.000000 0.000000
0.167202 0.000000 0.000000
0.189843 0.000000 0.000000
0.214092 0.000000 0.000000
0.238752 0.000000 0.000000
0.267914 0.000000 0.000000
0.291672 0.000000 0.000000
0.307920 0.000000 0.000000
0.327484 0.000000 0.000000
0.350637 0.000000 0.000000
0.371184 0.000000 0.000000
0.393281 0.000000 0.014306
0.411455 0.000000 0.016649
0.433396 0.000000 0.019605
0.450684 0.000000 0.019227
0.472204 0.000000 0.022959
0.491658 0.000000 0.025915
0.514621 0.000000 0.028918
0.538318 0.000000 0.031003
0.562450 0.000000 0.032965
0.586939 0.000000 0.035487
0.608961 0.000000 0.039989
0.627333 0.000000 0.043217
0.656580 0.000000 0.047974
0.683255 0.000000 0.054359
0.717048 0.000000 0.061425
0.753959 0.000000 0.066696
0.000000 0.036997 0.007513
0.000000 0.038130 0.000000
0.033913 0.038814 0.000000
0.065565 0.030746 0.000000
0.096684 0.022359 0.000000
0.120988 0.000000 0.000000
0.145413 0.000000 0.000000
0.173201 0.000000 0.000000
0.195507 0.000000 0.000000
0.219640 0.000000 0.000000
0.248150 0.000000 0.000000
0.271627 0.000000 0.000000
0.293591 0.000000 0.000000
0.311820 0.000000 0.000000
0.329709 0.000000 0.000000
0.353083 0.000000 0.000000
0.371547 0.000000 0.004555
0.395940 0.000000 0.012561
0.414419 0.000000 0.016819
0.433683 0.000000 0.018516
0.453565 0.000000 0.016880
0.475625 0.000000 0.023682
0.494735 0.000000 0.024496
0.514949 0.000000 0.028409
0.538646 0.000000 0.030527
0.565986 0.000000 0.033003
0.587474 0.000000 0.036704
0.608976 0.000000 0.039671
0.634620 0.000000 0.044159
0.656593 0.000000 0.047372
0.683255 0.000000 0.054359
0.717048 0.000000 0.061425
0.754544 0.000000 0.068633
0.000000 0.061849 0.000000
0.000000 0.062739 0.000000
0.029774 0.065129 0.000000
0.067733 0.062389 0.000000
0.100486 0.056039 0.000000
0.128492 0.048347 0.000000
0.155993 0.037198 0.000000
0.183610 0.018297 0.000000
0.202838 0.000000 0.000000
0.229776 0.000000 0.000000
0.253321 0.000000 0.000000
0.275071 0.000000 0.000000
0.295644 0.000000 0.000000
0.314384 0.000000 0.000000
0.338432 0.000000 0.000000
0.355904 0.000000 0.000000
0.379146 0.000000 0.006945
0.398987 0.000000 0.013262
0.420206 0.000000 0.016850
0.436875 0.000000 0.017623
0.457320 0.000000 0.018580
0.478964 0.000000 0.021481
0.501350 0.000000 0.023416
0.521382 0.000000 0.025847
0.541947 0.000000 0.028719
0.566097 0.000000 0.031092
0.590848 0.000000 0.035104
0.612631 0.000000 0.039106
0.634631 0.000000 0.043843
0.660549 0.000000 0.048501
0.686687 0.000000 0.053670
0.720492 0.000000 0.060806
0.754515 0.000000 0.068139
0.000000 0.090153 0.000000
0.000000 0.090060 0.000000
0.006142 0.090377 0.000000
0.066359 0.092112 0.000000
0.103287 0.086729 0.000000
0.129659 0.081150 0.000000
0.162145 0.070650 0.000000
0.186909 0.062605 0.000000
0.210512 0.056495 0.000000
0.234351 0.050380 0.000000
0.258666 0.041067 0.000000
0.280473 0.021330 0.000000
0.300022 0.000000 0.000000
0.320873 0.000000 0.000000
0.343440 0.000000 0.000000
0.363558 0.000000 0.000000
0.384708 0.000000 0.000000
0.405056 0.000000 0.010837
0.423799 0.000000 0.015054
0.440446 0.000000 0.014144
0.458612 0.000000 0.019067
0.486000 0.000000 0.020954
0.505288 0.000000 0.021717
0.525667 0.000000 0.026468
0.552482 0.000000 0.027919
0.570013 0.000000 0.029798
0.594546 0.000000 0.033005
0.612718 0.000000 0.037172
0.638341 0.000000 0.042582
0.661110 0.000000 0.049448
0.687243 0.000000 0.054971
0.721056 0.000000 0.062444
0.762019 0.000000 0.069456
0.000000 0.113548 0.000000
0.000000 0.115216 0.000000
0.000000 0.116735 0.000000
0.059665 0.117743 0.000000
0.098523 0.118199 0.000000
0.132036 0.113774 0.000000
0.165581 0.103637 0.000000
0.193996 0.095942 0.000000
0.218588 0.090855 0.000000
0.242714 0.087130 0.000000
0.264549 0.084213 0.000000
0.284911 0.076248 0.000000
0.306610 0.065536 0.000000
0.324031 0.058253 0.000000
0.346909 0.042921 0.000000
0.369211 0.010877 0.000000
0.390879 0.000000 0.000000
0.408874 0.000000 0.000000
0.427831 0.000000 0.007504
0.445190 0.000000 0.015113
0.468665 0.000000 0.016227
0.487527 0.000000 0.018546
0.507152 0.000000 0.024006
0.530147 0.000000 0.024445
0.556732 0.000000 0.025415
0.574200 0.000000 0.029282
0.598768 0.000000 0.032712
0.617215 0.000000 0.038174
0.638645 0.000000 0.042434
0.668492 0.000000 0.049795
0.691234 0.000000 0.055561
0.724779 0.000000 0.062505
0.766033 0.000000 0.070604
0.000000 0.146068 0.000000
0.000000 0.146048 0.000000
0.000000 0.146889 0.000000
0.039469 0.148608 0.000000
0.088824 0.149959 0.000000
0.129316 0.150542 0.000000
0.168207 0.145037 0.000000
0.197314 0.136546 0.000000
0.228145 0.125818 0.000000
0.250774 0.121405 0.000000
0.273372 0.115969 0.000000
0.295069 0.112853 0.000000
0.312025 0.107824 0.000000
0.329979 0.101987 0.000000
0.355307 0.092147 0.000000
0.373397 0.083644 0.000000
0.397279 0.069021 0.000000
0.413228 0.065450 0.000000
0.432654 0.054303 0.000000
0.452670 0.046959 0.000000
0.473897 0.000000 0.014688
0.492863 0.000000 0.017122
0.512066 0.000000 0.018866
0.534778 0.000000 0.019609
0.558261 0.000000 0.025741
0.581994 0.000000 0.028125
0.606352 0.000000 0.031208
0.624818 0.000000 0.037696
0.649946 0.000000 0.042768
0.672760 0.000000 0.050516
0.695785 0.000000 0.057778
0.728487 0.000000 0.061945
0.766570 0.000000 0.071827
0.000000 0.171654 0.000000
0.000000 0.172905 0.000000
0.000000 0.172715 0.000000
0.019979 0.174738 0.000000
0.090005 0.175211 0.000000
0.136732 0.176369 0.000000
0.174505 0.175750 0.000000
0.204133 0.170506 0.000000
0.228579 0.162626 0.000000
0.260213 0.152911 0.000000
0.280011 0.143279 0.000000
0.299324 0.142042 0.000000
0.319399 0.137434 0.000000
0.336218 0.136470 0.000000
0.360038 0.126702 0.000000
0.383168 0.119444 0.000000
0.402939 0.108677 0.000000
0.418310 0.102085 0.000000
0.439994 0.095955 0.000000
0.457590 0.091488 0.000000
0.478775 0.080684 0.000000
0.497854 0.072691 0.009866
0.517351 0.057138 0.019614
0.537165 0.038482 0.023015
0.563409 0.000000 0.024987
0.586910 0.000000 0.026180
0.611236 0.000000 0.030599
0.628908 0.000000 0.034480
0.655083 0.000000 0.044482
0.677068 0.000000 0.049891
0.700342 0.000000 0.059689
0.733051 0.000000 0.064346
0.770542 0.000000 0.072431
0.000000 0.200168 0.000000
0.000000 0.199993 0.000000
0.000000 0.199721 0.000000
0.027115 0.202290 0.000000
0.096233 0.202615 0.000000
0.135882 0.202567 0.000000
0.167257 0.202345 0.000000
0.205483 0.199486 0.000000
0.236029 0.193550 0.000000
0.262639 0.186269 0.000000
0.285268 0.176129 0.000000
0.308979 0.170150 0.000000
0.326418 0.166723 0.000000
0.346644 0.162627 0.000000
0.369775 0.157485 0.000000
0.389097 0.152841 0.000000
0.408582 0.143711 0.000000
0.424550 0.139145 0.000000
0.446052 0.131837 0.000000
0.463217 0.123319 0.000000
0.484319 0.116766 0.000000
0.502882 0.107877 0.000000
0.522373 0.103261 0.000000
0.542312 0.094464 0.015386
0.568917 0.072664 0.025110
0.592421 0.054541 0.026578
0.615904 0.000000 0.028453
0.637962 0.000000 0.037864
0.659714 0.000000 0.044107
0.685606 0.000000 0.052648
0.707785 0.000000 0.058634
0.737605 0.000000 0.066459
0.778016 0.000000 0.073537
0.000000 0.224325 0.000000
0.000000 0.224325 0.000000
0.000000 0.223946 0.000000
0.045832 0.226611 0.000000
0.102052 0.225716 0.000000
0.130680 0.226387 0.000000
0.162692 0.228183 0.000000
0.195872 0.229489 0.000000
0.238531 0.226303 0.000000
0.263615 0.219114 0.000000
0.291239 0.209676 0.000000
0.311084 0.201050 0.000000
0.332953 0.193772 0.000000
0.356960 0.187424 0.000000
0.378924 0.182966 0.000000
0.394077 0.179829 0.000000
0.416996 0.174412 0.000000
0.435996 0.169890 0.000000
0.452518 0.161548 0.000000
0.469668 0.156462 0.000000
0.490254 0.145534 0.000000
0.511453 0.137743 0.000000
0.530975 0.130311 0.000000
0.547696 0.123225 0.007764
0.573959 0.115674 0.011769
0.597750 0.101292 0.025395
0.618390 0.085015 0.031868
0.642888 0.055032 0.038588
0.664913 0.023369 0.045930
0.690499 0.000000 0.053848
0.716350 0.000000 0.061315
0.742132 0.000000 0.067491
0.782495 0.000000 0.075309
0.000000 0.249172 0.000000
0.000000 0.249172 0.000000
0.000000 0.248913 0.000000
0.069139 0.248341 0.000000
0.096256 0.251227 0.000000
0.120661 0.252356 0.000000
0.155515 0.254668 0.000000
0.193296 0.253048 0.000000
0.234540 0.250557 0.000000
0.265934 0.249566 0.000000
0.289935 0.243995 0.000000
0.312567 0.234846 0.000000
0.334241 0.227552 0.000000
0.360822 0.219116 0.000000
0.382227 0.211422 0.000000
0.398080 0.208347 0.000000
0.422548 0.201570 0.000000
0.439316 0.198101 0.000000
0.458981 0.193488 0.000000
0.482288 0.183712 0.000000
0.500395 0.179061 0.000000
0.518586 0.171715 0.000000
0.537145 0.161348 0.000000
0.553142 0.155968 0.000000
0.579802 0.146332 0.000000
0.603283 0.136261 0.020671
0.623853 0.126115 0.029588
0.648630 0.119519 0.037406
0.673860 0.102815 0.047402
0.696003 0.083450 0.056201
0.721504 0.042310 0.063096
0.746658 0.000000 0.068322
0.786955 0.000000 0.076998
0.000000 0.269262 0.000000
0.045164 0.269118 0.000000
0.055998 0.269045 0.000000
0.066698 0.272268 0.000000
0.106593 0.271697 0.000000
0.132262 0.272931 0.000000
0.161525 0.273889 0.000000
0.196234 0.272526 0.000000
0.230511 0.272668 0.000000
0.265684 0.270347 0.000000
0.297115 0.266765 0.000000
0.316393 0.263549 0.000000
0.339992 0.255646 0.000000
0.363010 0.249866 0.000000
0.383921 0.240237 0.000000
0.409744 0.233641 0.000000
0.427116 0.226233 0.000000
0.444360 0.222783 0.000000
0.462026 0.219205 0.000000
0.488905 0.213550 0.000000
0.507210 0.207444 0.000000
0.525673 0.200935 0.000000
0.544210 0.191608 0.000000
0.566301 0.182969 0.000000
0.585481 0.176915 0.000000
0.609078 0.169341 0.000000
0.630029 0.162133 0.028804
0.657647 0.150773 0.038442
0.679514 0.144560 0.048680
0.701295 0.133526 0.056989
0.726127 0.112876 0.062566
0.758603 0.082298 0.069792
0.791660 0.000000 0.079390
0.043895 0.292858 0.000000
0.043895 0.292858 0.000000
0.066912 0.292703 0.000000
0.089249 0.292460 0.000000
0.116369 0.292025 0.000000
0.139355 0.293472 0.000000
0.164842 0.296720 0.000000
0.194310 0.297711 0.000000
0.227161 0.296151 0.000000
0.262162 0.294281 0.000000
0.292608 0.294258 0.000000
0.320500 0.290971 0.000000
0.352483 0.281716 0.000000
0.374662 0.273528 0.000000
0.393694 0.265928 0.000000
0.415769 0.257926 0.000000
0.433488 0.254394 0.000000
0.455118 0.248198 0.000000
0.473477 0.244682 0.000000
0.495424 0.240764 0.000000
0.513808 0.232514 0.000000
0.531910 0.223842 0.000000
0.550673 0.217317 0.000000
0.572905 0.211963 0.000000
0.595759 0.203759 0.000000
0.618634 0.197181 0.000000
0.635787 0.192288 0.021734
0.663499 0.183538 0.037846
0.685452 0.176463 0.052258
0.706087 0.167967 0.055002
0.734740 0.155287 0.063539
0.767094 0.128656 0.072675
0.799751 0.088831 0.081205
0.066123 0.317034 0.000000
0.066123 0.317034 0.000000
0.076028 0.316951 0.000000
0.098980 0.316695 0.000000
0.112322 0.318609 0.000000
0.138336 0.318130 0.000000
0.162847 0.321826 0.000000
0.194462 0.320719 0.000000
0.217714 0.321719 0.000000
0.256041 0.319680 0.000000
0.290099 0.317479 0.000000
0.323238 0.317569 0.000000
0.356763 0.313507 0.000000
0.381234 0.304758 0.000000
0.405539 0.296161 0.000000
0.422259 0.290896 0.000000
0.442152 0.285002 0.000000
0.458885 0.277212 0.000000
0.477984 0.273686 0.000000
0.500980 0.267515 0.000000
0.519920 0.259062 0.000000
0.539016 0.253111 0.000000
0.557826 0.246804 0.000000
0.582829 0.236212 0.000000
0.602237 0.231779 0.000000
0.624928 0.223502 0.000000
0.642015 0.219397 0.022772
0.669596 0.212162 0.040394
0.690353 0.203114 0.049654
0.711916 0.196571 0.059778
0.739875 0.179477 0.067225
0.775546 0.159814 0.076132
0.811588 0.124176 0.085640
0.045848 0.343276 0.029108
0.045848 0.343276 0.029108
0.074886 0.343106 0.029218
0.084986 0.343019 0.029274
0.115606 0.342654 0.029498
0.140173 0.344183 0.000000
0.169644 0.343537 0.000000
0.189714 0.347282 0.000000
0.211740 0.348587 0.000000
0.246774 0.346915 0.000000
0.276828 0.345547 0.000000
0.317619 0.343315 0.000000
0.349786 0.343667 0.000000
0.382565 0.339869 0.000000
0.405503 0.330963 0.000000
0.428338 0.322326 0.000000
0.446406 0.316805 0.000000
0.463582 0.310927 0.000000
0.491291 0.301021 0.000000
0.504262 0.298500 0.000000
0.527800 0.286607 0.000000
0.547626 0.280676 0.000000
0.563971 0.275229 0.000000
0.590039 0.265269 0.000000
0.609090 0.261064 0.000000
0.631798 0.253405 0.000000
0.654834 0.248041 0.017213
0.674560 0.234550 0.035657
0.699090 0.228548 0.049916
0.723602 0.218719 0.060308
0.748418 0.211194 0.068464
0.780519 0.193121 0.078997
0.819242 0.159226 0.086941
0.069642 0.365714 0.029259
0.069642 0.365714 0.029259
0.092379 0.365534 0.029391
0.109659 0.365346 0.029522
0.130764 0.365431 0.039166
0.148860 0.364742 0.029920
0.166153 0.366455 0.000000
0.195117 0.365743 0.000000
0.218562 0.367130 0.000000
0.247630 0.365719 0.000000
0.271267 0.369574 0.000000
0.307173 0.367959 0.000000
0.346940 0.365945 0.000000
0.382680 0.363335 0.000000
0.413564 0.359593 0.000000
0.434469 0.351121 0.000000
0.453910 0.342118 0.000000
0.471949 0.335973 0.000000
0.493987 0.326771 0.000000
0.514449 0.323117 0.000000
0.535065 0.316735 0.000000
0.552299 0.311172 0.000000
0.569402 0.305696 0.000000
0.595403 0.295169 0.000000
0.618824 0.291214 0.000000
0.638486 0.284596 0.000000
0.660966 0.276677 0.013991
0.684479 0.265995 0.040922
0.704174 0.252129 0.048934
0.728601 0.246308 0.059389
0.753504 0.236906 0.071261
0.788278 0.222825 0.078518
0.826853 0.197935 0.088289
0.087047 0.384560 0.038729
0.087047 0.384560 0.038729
0.087047 0.384560 0.038729
0.115728 0.384271 0.038887
0.123579 0.384172 0.038940
0.138853 0.386518 0.034798
0.169317 0.385969 0.035111
0.190508 0.385288 0.029593
0.212998 0.389781 0.000000
0.242471 0.391670 0.000000
0.277418 0.390080 0.000000
0.307147 0.388905 0.000000
0.340718 0.387358 0.000000
0.382839 0.385067 0.000000
0.410031 0.384987 0.000000
0.435281 0.378926 0.000000
0.462771 0.371464 0.000000
0.486812 0.361804 0.000000
0.501660 0.356054 0.000000
0.520448 0.350279 0.000000
0.538512 0.344280 0.000000
0.559009 0.340451 0.000000
0.583702 0.333670 0.000000
0.600724 0.324716 0.000000
0.623980 0.320525 0.000000
0.646983 0.313218 0.000000
0.670566 0.306181 0.026738
0.693248 0.298184 0.030823
0.709876 0.285571 0.046557
0.737111 0.273419 0.059774
0.764697 0.260389 0.070220
0.796762 0.249079 0.083516
0.835088 0.226907 0.095461
0.034434 0.410650 0.044352
0.034434 0.410650 0.044352
0.063168 0.410566 0.044408
0.063168 0.410566 0.044408
0.104965 0.410303 0.044571
0.140073 0.409930 0.044792
0.154400 0.409732 0.044903
0.185497 0.408759 0.035114
0.222876 0.407933 0.035653
0.244229 0.410142 0.030333
0.281550 0.408961 0.031097
0.312641 0.407331 0.000000
0.343295 0.405757 0.000000
0.378414 0.403975 0.000000
0.405561 0.407663 0.000000
0.439443 0.404296 0.000000
0.463418 0.400784 0.000000
0.490113 0.387804 0.000000
0.509174 0.384859 0.000000
0.528405 0.378465 0.000000
0.547670 0.368884 0.000000
0.565723 0.365982 0.000000
0.586878 0.358917 0.000000
0.611086 0.354708 0.000000
0.632056 0.348279 0.000000
0.652539 0.341783 0.000000
0.679244 0.330747 0.034015
0.699022 0.323758 0.041874
0.718544 0.313220 0.047243
0.741662 0.298579 0.056301
0.776004 0.287960 0.069301
0.804829 0.275387 0.086926
0.845122 0.253717 0.096386
0.042241 0.429109 0.057049
0.042241 0.429109 0.057049
0.042241 0.429109 0.057049
0.086135 0.428930 0.057139
0.099701 0.428838 0.057186
0.130833 0.428551 0.057323
0.162394 0.427682 0.049642
0.200608 0.427010 0.049977
0.221040 0.432210 0.042521
0.257970 0.431257 0.043026
0.284700 0.433043 0.031981
0.313510 0.432023 0.032620
0.341531 0.430653 0.024274
0.378716 0.428918 0.025446
0.404512 0.430452 0.013477
0.431365 0.428428 0.000000
0.461381 0.425246 0.000000
0.490342 0.421548 0.000000
0.510700 0.414694 0.000000
0.530932 0.408227 0.000000
0.550284 0.405396 0.000000
0.577813 0.394614 0.000000
0.592536 0.388591 0.000000
0.614471 0.381759 0.000000
0.635745 0.374874 0.000000
0.659939 0.364059 0.000000
0.683760 0.356812 0.029535
0.707002 0.352518 0.035815
0.729936 0.344580 0.040008
0.750085 0.330865 0.055743
0.784078 0.310714 0.072827
0.818584 0.300173 0.086508
0.861552 0.279539 0.102417
0.000000 0.453976 0.067860
0.000000 0.453976 0.067860
0.000000 0.453884 0.067903
0.082479 0.453216 0.060735
0.098394 0.453119 0.060784
0.133308 0.452817 0.060933
0.167662 0.452387 0.061135
0.195884 0.451448 0.053113
0.234567 0.453511 0.049924
0.262413 0.452801 0.050265
0.290969 0.454840 0.046704
0.316296 0.453741 0.041343
0.346084 0.452593 0.041879
0.375408 0.451311 0.042403
0.399329 0.450151 0.042848
0.425607 0.451700 0.038296
0.466788 0.448939 0.039432
0.489758 0.452409 0.027008
0.514630 0.448700 0.000000
0.541071 0.438251 0.000000
0.556636 0.435537 0.000000
0.580837 0.428533 0.000000
0.596664 0.422651 0.000000
0.620287 0.408712 0.000000
0.641825 0.401382 0.000000
0.663181 0.394439 0.000000
0.690663 0.386233 0.000000
0.711268 0.379609 0.031835
0.738213 0.368257 0.050382
0.758193 0.357760 0.059206
0.791933 0.337639 0.074941
0.825578 0.327688 0.087653
0.870763 0.303841 0.105856
0.000000 0.475496 0.071874
0.000000 0.475496 0.071874
0.051733 0.475398 0.071920
0.097389 0.475197 0.072013
0.112074 0.475093 0.072059
0.146136 0.474279 0.064708
0.157577 0.477045 0.061870
0.204823 0.476324 0.062219
0.231297 0.475552 0.058108
0.261533 0.474836 0.058432
0.295228 0.473884 0.058824
0.319228 0.476037 0.055759
0.350734 0.474880 0.056189
0.371181 0.474042 0.056480
0.396074 0.472929 0.056855
0.429989 0.471241 0.057409
0.461285 0.472497 0.054480
0.488716 0.470245 0.049864
0.513358 0.470375 0.046388
0.541913 0.469880 0.042745
0.567006 0.462158 0.000000
0.583728 0.456013 0.000000
0.608063 0.448904 0.000000
0.627501 0.442124 0.000000
0.646880 0.431959 0.000000
0.672167 0.423951 0.000000
0.693864 0.413599 0.000000
0.718237 0.409777 0.017059
0.742346 0.399170 0.046684
0.775928 0.383092 0.063562
0.799176 0.368376 0.072816
0.835627 0.351651 0.092220
0.879239 0.332372 0.108432
0.047463 0.497556 0.080278
0.047463 0.497556 0.080278
0.047463 0.497556 0.080278
0.079178 0.497451 0.080322
0.099469 0.496838 0.073110
0.151272 0.496391 0.073315
0.179405 0.496034 0.073470
0.211019 0.495525 0.073680
0.238745 0.494726 0.070024
0.264235 0.494136 0.070253
0.290718 0.496388 0.067752
0.319411 0.495516 0.068062
0.347012 0.494562 0.068375
0.373509 0.493537 0.068698
0.396848 0.495537 0.066137
0.421964 0.494380 0.066514
0.456239 0.492632 0.067073
0.480817 0.496799 0.050563
0.509218 0.495018 0.051368
0.534257 0.495145 0.047829
0.567521 0.494075 0.044382
0.591779 0.489660 0.000000
0.609043 0.483661 0.000000
0.634898 0.469139 0.000000
0.658169 0.461687 0.000000
0.676924 0.454821 0.000000
0.699604 0.444395 0.000000
0.721518 0.437822 0.026622
0.749501 0.430037 0.048456
0.783494 0.414128 0.066618
0.809731 0.395606 0.078304
0.844007 0.381940 0.084858
0.889919 0.360233 0.111148
0.000000 0.522783 0.083574
0.000000 0.522783 0.083574
0.000000 0.522783 0.083574
0.088496 0.522563 0.083669
0.108252 0.522450 0.083718
0.150107 0.522097 0.083864
0.171597 0.521851 0.083963
0.199201 0.521464 0.084112
0.230990 0.520913 0.084314
0.259384 0.520320 0.084518
0.291983 0.519513 0.084778
0.319311 0.521728 0.082738
0.336964 0.521172 0.082908
0.365164 0.520193 0.083201
0.392190 0.519147 0.083508
0.415592 0.520652 0.073457
0.446224 0.519234 0.073938
0.475621 0.517201 0.065536
0.501041 0.521923 0.059183
0.528172 0.523408 0.056047
0.563898 0.518876 0.043846
0.593044 0.518345 0.039528
0.617749 0.514112 0.000000
0.635908 0.504326 0.000000
0.664618 0.492275 0.000000
0.688437 0.485229 0.000000
0.707451 0.478538 0.000000
0.729696 0.471486 0.000000
0.755199 0.460626 0.029071
0.789911 0.441352 0.061440
0.822615 0.426020 0.082927
0.861528 0.411739 0.089997
0.899480 0.395627 0.114182
0.000000 0.548291 0.087654
0.000000 0.548291 0.087654
0.000000 0.548291 0.087654
0.030911 0.548177 0.087705
0.078835 0.548061 0.087755
0.121723 0.547822 0.087856
0.162977 0.547447 0.088011
0.184729 0.547184 0.088115
0.212971 0.546773 0.088273
0.245758 0.546187 0.088486
0.275196 0.545556 0.088702
0.308854 0.544707 0.088979
0.330566 0.547111 0.086907
0.360433 0.546161 0.087219
0.383237 0.545355 0.087481
0.410627 0.549851 0.074363
0.442646 0.548493 0.074907
0.468102 0.546762 0.065600
0.495906 0.547889 0.049798
0.520770 0.546541 0.050730
0.557923 0.547457 0.047110
0.588179 0.547167 0.042974
0.621985 0.546044 0.038749
0.643517 0.538586 0.000000
0.668954 0.531025 0.000000
0.689473 0.524042 0.000000
0.711045 0.510307 0.000000
0.737864 0.502622 0.000000
0.767468 0.490879 0.021776
0.799348 0.472460 0.066227
0.834568 0.456827 0.088395
0.872583 0.439763 0.100002
0.908617 0.423858 0.119683
0.000000 0.574511 0.096347
0.000000 0.574511 0.096347
0.000000 0.574511 0.096347
0.000000 0.574511 0.096347
0.000000 0.574396 0.096397
0.073059 0.574037 0.096546
0.101729 0.573913 0.096596
0.153957 0.573526 0.096749
0.179158 0.573257 0.096852
0.229449 0.572537 0.097113
0.262883 0.571914 0.097327
0.285495 0.571424 0.097492
0.316333 0.573703 0.095625
0.342318 0.572978 0.095872
0.366718 0.578330 0.091673
0.401684 0.576577 0.083702
0.429353 0.574961 0.074791
0.456477 0.573820 0.075323
0.485363 0.575024 0.061447
0.511138 0.573750 0.062234
0.546139 0.571587 0.056903
0.578700 0.572797 0.053686
0.613997 0.572186 0.050496
0.651752 0.569927 0.019488
0.673780 0.562922 0.000000
0.696100 0.552376 0.000000
0.720491 0.544753 0.000000
0.745170 0.534116 0.000000
0.775424 0.522363 0.032969
0.803585 0.511284 0.061030
0.842018 0.487766 0.084626
0.881744 0.474653 0.102393
0.919367 0.452034 0.128195
0.000000 0.600343 0.098346
0.000000 0.600343 0.098346
0.000000 0.600343 0.098346
0.000000 0.600343 0.098346
0.000000 0.600226 0.098399
0.000000 0.599986 0.098505
0.000000 0.599863 0.098558
0.074935 0.599609 0.098666
