Fusion/LUTs/Lutify-Free-LUTs-Pack/Lutify Free LUTs Pack/Colour Film Boost Pro - Film Boost 10/Lutify.me-FilmBoost10-Rec709-to-Rec709.cube
# Created with: fylm.ai - Colour Grading and Collaboration Software in Cloud 
# Website: https://fylm.ai 
# META
# Option: Gamut compress
# Block 1: IDT | Rec709
# Block 2: colourMatch | Blending Mode: Normal | {"ColorSpace":0,"CrossCovarianceLimit":50,"ReshapingIterations":1,"PercentSaturationShift":100,"PercentShadingShift":100,"ExtraShading":true,"PercentTint":100,"PercentModified":100}
# Block 3: subtractiveColour | Blending Mode: Normal | {"sliders":{"gainY":0.55,"C":0.3,"M":0.3,"Y":0.3}}
# Block 4: LUT | Filmic Curve Response: Low Contrast 2 (100%)
# Block 5: logPrimaries | Blending Mode: Normal | {"wheels":{"shadows":{"Y":"0","R":"1","G":"1","B":"1"},"midtones":{"Y":"0","R":"1","G":"1","B":"1"},"highlights":{"Y":"0","R":"1","G":"1","B":"1"},"offset":{"Y":"0","R":"1","G":"1","B":"1"}},"sliders":{"shadows":{"Y":0,"R":-0.085,"G":0.024,"B":0.134},"midtones":{"Y":0,"R":0,"G":-0.023,"B":0},"highlights":{"Y":0,"R":0,"G":0,"B":0},"offset":{"Y":0,"R":0.012,"G":-0.012,"B":0}}}
# Block 6: HSL | Blending Mode: Normal | {"hue":{"Reds":0,"Yellows":0,"Greens":0,"Cyans":0,"Blues":0,"Magentas":0},"saturation":{"Reds":1,"Yellows":1,"Greens":1,"Cyans":1,"Blues":1,"Magentas":1},"luminance":{"Reds":0.9,"Yellows":0.9,"Greens":0.9,"Cyans":0.9,"Blues":0.9,"Magentas":0.9},"lum_sat":{"Blacks":1,"Shadows":1,"Midtones":1,"Highlights":1,"Whites":1},"sat_sat":{"10":1,"20":1,"30":1,"40":1,"50":1}}
# Block 7: ODT | Rec709
TITLE "Lutify.me-FilmBoost10-Rec709-to-Rec709" 
LUT_3D_SIZE 9
0.000000 0.000000 0.008111
0.089330 0.000000 0.000000
0.190057 0.000000 0.000000
0.288161 0.000000 0.000000
0.368920 0.000000 0.005422
0.450454 0.000000 0.018764
0.538318 0.000000 0.031003
0.627333 0.000000 0.043217
0.753959 0.000000 0.066696
0.000000 0.090153 0.000000
0.103287 0.086729 0.000000
0.210512 0.056495 0.000000
0.300022 0.000000 0.000000
0.384708 0.000000 0.000000
0.458612 0.000000 0.019067
0.552482 0.000000 0.027919
0.638341 0.000000 0.042582
0.762019 0.000000 0.069456
0.000000 0.200168 0.000000
0.096233 0.202615 0.000000
0.236029 0.193550 0.000000
0.326418 0.166723 0.000000
0.408582 0.143711 0.000000
0.484319 0.116766 0.000000
0.568917 0.072664 0.025110
0.659714 0.000000 0.044107
0.778016 0.000000 0.073537
0.043895 0.292858 0.000000
0.116369 0.292025 0.000000
0.227161 0.296151 0.000000
0.352483 0.281716 0.000000
0.433488 0.254394 0.000000
0.513808 0.232514 0.000000
0.595759 0.203759 0.000000
0.685452 0.176463 0.052258
0.799751 0.088831 0.081205
0.087047 0.384560 0.038729
0.123579 0.384172 0.038940
0.212998 0.389781 0.000000
0.340718 0.387358 0.000000
0.462771 0.371464 0.000000
0.538512 0.344280 0.000000
0.623980 0.320525 0.000000
0.709876 0.285571 0.046557
0.835088 0.226907 0.095461
0.000000 0.475496 0.071874
0.112074 0.475093 0.072059
0.231297 0.475552 0.058108
0.350734 0.474880 0.056189
0.461285 0.472497 0.054480
0.567006 0.462158 0.000000
0.646880 0.431959 0.000000
0.742346 0.399170 0.046684
0.879239 0.332372 0.108432
0.000000 0.574511 0.096347
0.000000 0.574396 0.096397
0.179158 0.573257 0.096852
0.316333 0.573703 0.095625
0.429353 0.574961 0.074791
0.546139 0.571587 0.056903
0.673780 0.562922 0.000000
0.775424 0.522363 0.032969
0.919367 0.452034 0.128195
0.000000 0.696574 0.136481
0.000000 0.696166 0.132676
0.000000 0.695441 0.132975
0.117837 0.696481 0.123815
0.318779 0.699116 0.107758
0.484619 0.705710 0.090472
0.629335 0.704356 0.069694
0.800646 0.692576 0.000000
0.953303 0.638781 0.163140
0.000000 0.895905 0.346961
0.000000 0.895811 0.346986
0.000000 0.898681 0.354327
0.000000 0.900915 0.358196
0.000000 0.908172 0.376855
0.000000 0.916326 0.392535
0.308807 0.927111 0.430434
0.638814 0.936472 0.458156
0.928632 0.945143 0.545171
0.000000 0.000000 0.070284
0.078247 0.000000 0.071633
0.191739 0.000000 0.067319
0.293653 0.000000 0.062415
0.381554 0.000000 0.055913
0.458314 0.000000 0.055572
0.547054 0.000000 0.058472
0.634848 0.000000 0.066686
0.758058 0.000000 0.079821
0.000000 0.097608 0.121399
0.089546 0.104554 0.122107
0.217466 0.075135 0.086886
0.306521 0.030673 0.070965
0.390606 0.000000 0.059252
0.465518 0.000000 0.055864
0.551811 0.000000 0.059496
0.642484 0.000000 0.067585
0.765557 0.000000 0.081071
0.000000 0.211831 0.117886
0.023088 0.217384 0.113585
0.226135 0.217999 0.107420
0.329974 0.186692 0.086472
0.415978 0.153896 0.067435
0.493728 0.130614 0.059247
0.576642 0.082709 0.062160
0.663813 0.000000 0.074168
0.781832 0.000000 0.086769
0.000000 0.308359 0.115563
0.000000 0.309516 0.112110
0.223370 0.307497 0.111822
0.354520 0.295449 0.099836
0.440215 0.275761 0.084535
0.521865 0.241479 0.065808
0.602837 0.211938 0.067472
0.689308 0.177899 0.074075
0.802658 0.089942 0.093904
0.000000 0.400984 0.122048
0.000000 0.400340 0.120191
0.199339 0.398401 0.120587
0.340560 0.398660 0.115490
0.461131 0.386091 0.099792
0.544491 0.359110 0.082162
0.625746 0.324981 0.073244
0.716801 0.287206 0.079456
0.839928 0.226646 0.104843
0.000000 0.481190 0.131405
0.037773 0.480897 0.131478
0.212879 0.481671 0.126026
0.341422 0.483762 0.121881
0.459135 0.480777 0.116521
0.571833 0.466636 0.101640
0.650687 0.435308 0.079910
0.744873 0.404957 0.082260
0.880800 0.333900 0.121891
0.000000 0.577762 0.132261
0.000000 0.577419 0.132366
0.171692 0.579394 0.131266
0.311281 0.576880 0.131904
0.426262 0.578433 0.120641
0.548592 0.574269 0.103748
0.675854 0.569584 0.092394
0.776862 0.527885 0.079326
0.919858 0.452796 0.135246
0.000000 0.698038 0.154713
0.000000 0.700716 0.149795
0.000000 0.699992 0.150060
0.097985 0.701015 0.141786
0.319889 0.700825 0.133567
0.486244 0.707646 0.124922
0.628870 0.709014 0.104400
0.801697 0.693914 0.076486
0.955245 0.639037 0.169254
0.000000 0.895905 0.346961
0.000000 0.897250 0.347017
0.000000 0.898681 0.354327
0.000000 0.900915 0.358196
0.000000 0.908172 0.376855
0.000000 0.916326 0.392535
0.306822 0.928165 0.430647
0.643690 0.936281 0.458229
0.928632 0.945143 0.545171
0.000000 0.000000 0.141961
0.063013 0.000000 0.147945
0.195484 0.000000 0.162475
0.291939 0.000000 0.159844
0.387167 0.000000 0.146786
0.475911 0.000000 0.137049
0.565954 0.000000 0.130213
0.650690 0.000000 0.116661
0.767198 0.000000 0.122348
0.000000 0.082010 0.205097
0.012129 0.086671 0.213201
0.209093 0.088180 0.210502
0.311199 0.063693 0.184860
0.403063 0.000000 0.165328
0.483464 0.000000 0.145409
0.571153 0.000000 0.135300
0.658000 0.000000 0.118080
0.771228 0.000000 0.124297
0.000000 0.216562 0.254381
0.000000 0.226726 0.254982
0.201735 0.232650 0.260907
0.336882 0.209208 0.220848
0.433481 0.174843 0.187992
0.511224 0.149772 0.166857
0.593425 0.107964 0.146780
0.674740 0.000000 0.128457
0.786802 0.000000 0.130608
0.000000 0.316233 0.257951
0.000000 0.317209 0.257122
0.192333 0.331432 0.249111
0.343051 0.329434 0.248755
0.446404 0.294758 0.219690
0.533725 0.271672 0.189656
0.611571 0.235407 0.160952
0.706069 0.194740 0.140496
0.812756 0.101085 0.138195
0.000000 0.415683 0.255196
0.000000 0.416680 0.256045
0.162810 0.422394 0.249375
0.312076 0.426050 0.239060
0.462017 0.418648 0.233731
0.554071 0.387014 0.212002
0.634704 0.346820 0.181435
0.721213 0.312956 0.156372
0.846850 0.230864 0.145409
0.000000 0.500840 0.250486
0.000000 0.500541 0.250533
0.194272 0.501162 0.242682
0.308613 0.504265 0.239348
0.438659 0.499074 0.239888
0.561777 0.489570 0.224086
0.660800 0.460777 0.192062
0.749374 0.417016 0.159103
0.887816 0.337467 0.157184
0.000000 0.592202 0.239550
0.000000 0.591273 0.234171
0.158781 0.590234 0.234353
0.278050 0.594537 0.233216
0.413916 0.593434 0.230390
0.546775 0.595023 0.212854
0.672514 0.585744 0.209391
0.783576 0.535101 0.163434
0.925033 0.457008 0.175714
0.000000 0.704517 0.226159
0.000000 0.707160 0.222192
0.000000 0.709178 0.218355
0.000000 0.710284 0.211463
0.313823 0.712621 0.200738
0.472331 0.713869 0.196894
0.634410 0.714699 0.186577
0.802253 0.709166 0.162100
0.956315 0.643092 0.209358
0.000000 0.897943 0.371375
0.000000 0.898003 0.371673
0.000000 0.899558 0.375857
0.000000 0.902999 0.376134
0.000000 0.909720 0.384048
0.000000 0.916443 0.396045
0.318494 0.927994 0.430687
0.643690 0.936281 0.458229
0.930083 0.945053 0.545411
0.000000 0.021982 0.223151
0.019956 0.027020 0.230104
0.175551 0.000000 0.237830
0.300532 0.000000 0.242942
0.394364 0.000000 0.240575
0.473292 0.000000 0.234691
0.564466 0.000000 0.212566
0.662329 0.000000 0.199886
0.780801 0.000000 0.179080
0.000000 0.073957 0.271088
0.000000 0.081926 0.276576
0.181668 0.084210 0.279135
0.311566 0.074436 0.286071
0.407778 0.049136 0.264275
0.483225 0.000000 0.247143
0.574470 0.000000 0.218299
0.671343 0.000000 0.204802
0.785381 0.000000 0.180478
0.000000 0.199644 0.326919
0.000000 0.204027 0.330632
0.169193 0.213267 0.339395
0.322667 0.221400 0.337493
0.432044 0.195572 0.306071
0.518737 0.156214 0.269525
0.607568 0.130745 0.239254
0.692024 0.000000 0.218957
0.799893 0.000000 0.185547
0.000000 0.318095 0.367796
0.000000 0.324147 0.369703
0.170263 0.337541 0.373151
0.321159 0.342834 0.364653
0.456287 0.309123 0.335337
0.539935 0.291771 0.305155
0.634004 0.246118 0.263979
0.715122 0.210480 0.238597
0.824444 0.097672 0.195183
0.000000 0.427235 0.369406
0.000000 0.427924 0.370297
0.145520 0.430745 0.371397
0.317477 0.436737 0.368490
0.448487 0.442326 0.358335
0.554226 0.412687 0.330234
0.643470 0.368006 0.290074
0.734444 0.325714 0.250537
0.856453 0.244914 0.208216
0.000000 0.512855 0.360363
0.000000 0.513754 0.361487
0.179465 0.515864 0.364463
0.306788 0.519637 0.366833
0.427712 0.520160 0.353243
0.558830 0.512885 0.342438
0.661491 0.485063 0.312508
0.757832 0.436006 0.263805
0.891283 0.353078 0.218445
0.000000 0.607920 0.360613
0.000000 0.608103 0.360849
0.123438 0.609122 0.362499
0.268930 0.612265 0.348237
0.397762 0.614202 0.337736
0.521893 0.612280 0.337889
0.681328 0.600624 0.323452
0.793455 0.564343 0.274486
0.928389 0.467612 0.233937
0.000000 0.717205 0.332588
0.000000 0.716788 0.329172
0.000000 0.719153 0.328718
0.068315 0.720611 0.328440
0.313635 0.725294 0.310237
0.466537 0.728643 0.296003
0.624787 0.727425 0.293225
0.806299 0.724345 0.269039
0.957406 0.648123 0.257432
0.000000 0.899292 0.404467
0.000000 0.900753 0.404756
0.000000 0.902302 0.405655
0.000000 0.906667 0.407838
0.000000 0.912141 0.416062
0.000000 0.918645 0.427816
0.320441 0.928397 0.444506
0.652686 0.936920 0.462030
0.934783 0.946240 0.550234
0.000000 0.041058 0.295217
0.000000 0.040761 0.297806
0.160333 0.027208 0.306055
0.278350 0.000000 0.319227
0.396295 0.000000 0.333495
0.488856 0.000000 0.320249
0.568687 0.000000 0.302023
0.660942 0.000000 0.283702
0.788145 0.000000 0.259239
0.000000 0.074530 0.328231
0.000000 0.077640 0.332442
0.151762 0.078409 0.336143
0.280930 0.077569 0.348311
0.407924 0.071194 0.359048
0.502525 0.000000 0.337519
0.579163 0.000000 0.317157
0.666240 0.000000 0.288730
0.789338 0.000000 0.259574
0.000000 0.181954 0.393770
0.000000 0.187073 0.396621
0.133693 0.199028 0.407946
0.283055 0.206047 0.406371
0.431120 0.205930 0.407817
0.515000 0.186729 0.385976
0.600073 0.150159 0.343517
0.696410 0.090404 0.306602
0.810854 0.000000 0.266120
0.000000 0.300770 0.436354
0.000000 0.303895 0.438199
0.121265 0.308767 0.445532
0.281635 0.325154 0.454454
0.437790 0.331088 0.451318
0.542792 0.304935 0.421734
0.632927 0.259173 0.377084
0.727939 0.226498 0.328629
0.833604 0.140121 0.277837
0.000000 0.422540 0.472652
0.000000 0.423193 0.473703
0.107130 0.428746 0.477798
0.279846 0.444751 0.480905
0.444784 0.450082 0.476917
0.559187 0.419731 0.448496
0.649268 0.393524 0.400127
0.746533 0.344007 0.354807
0.866350 0.267341 0.289970
0.000000 0.512425 0.478779
0.000000 0.516047 0.479129
0.063201 0.521196 0.478602
0.292436 0.523874 0.477444
0.437127 0.532064 0.479923
0.551141 0.534955 0.468364
0.661567 0.502475 0.427296
0.761034 0.457599 0.375832
0.900128 0.372231 0.297875
0.000000 0.613917 0.467340
0.000000 0.614466 0.468150
0.000000 0.618691 0.462579
0.248270 0.623903 0.462277
0.402279 0.628276 0.466262
0.519326 0.631863 0.450695
0.674280 0.626244 0.438068
0.790986 0.583779 0.392233
0.930115 0.490290 0.306496
0.000000 0.725948 0.446963
0.000000 0.726128 0.447234
0.000000 0.730106 0.444993
0.107364 0.732000 0.441536
0.314968 0.735263 0.434080
0.469495 0.742015 0.429167
0.628658 0.742817 0.418118
0.805873 0.735448 0.398716
0.961786 0.653835 0.319887
0.000000 0.900643 0.451100
0.000000 0.900643 0.451100
0.000000 0.903611 0.452212
0.000000 0.910495 0.454258
0.000000 0.915707 0.461358
0.000000 0.922236 0.470425
0.335207 0.930457 0.486449
0.653477 0.939596 0.496093
0.939782 0.946762 0.557767
0.000000 0.062385 0.371737
0.000000 0.062130 0.372017
0.139494 0.062630 0.379365
0.252450 0.039897 0.394625
0.381877 0.000000 0.404411
0.491209 0.000000 0.404843
0.585518 0.000000 0.395619
0.671220 0.000000 0.369385
0.781865 0.000000 0.342037
0.000000 0.085916 0.395004
0.000000 0.086700 0.398384
0.130462 0.091466 0.403393
0.256612 0.082667 0.416360
0.385017 0.073370 0.423141
0.500246 0.061831 0.423379
0.598155 0.000000 0.406511
0.676308 0.000000 0.376137
0.789440 0.000000 0.344709
0.000000 0.169195 0.454787
0.000000 0.175308 0.456971
0.094233 0.186431 0.464603
0.251060 0.191773 0.462566
0.387571 0.201207 0.473721
0.517417 0.195378 0.477966
0.614384 0.164211 0.444100
0.691218 0.128202 0.401085
0.810183 0.000000 0.354063
0.000000 0.276669 0.497831
0.000000 0.281553 0.499469
0.000000 0.294863 0.502818
0.235188 0.305730 0.512402
0.395742 0.311506 0.516375
0.538514 0.314483 0.517277
0.634585 0.290812 0.486059
0.718814 0.247440 0.432915
0.839060 0.154921 0.370362
0.000000 0.403206 0.531223
0.000000 0.406927 0.532171
0.000000 0.409509 0.536856
0.243736 0.415820 0.544600
0.397512 0.436446 0.552397
0.537305 0.439965 0.551368
0.653080 0.403269 0.515417
0.751523 0.347896 0.450477
0.876945 0.272638 0.389652
0.000000 0.509844 0.564475
0.000000 0.510368 0.565340
0.000000 0.515666 0.568649
0.247991 0.524569 0.573003
0.393486 0.537469 0.572755
0.552802 0.541954 0.571026
0.664045 0.509371 0.543440
0.770762 0.471690 0.476885
0.912679 0.379508 0.399562
0.000000 0.612951 0.568651
0.000000 0.616296 0.568452
0.000000 0.617932 0.571102
0.195177 0.626399 0.567053
0.383364 0.632339 0.565961
0.536141 0.643799 0.564910
0.672099 0.643795 0.555022
0.795658 0.600776 0.510764
0.941643 0.497041 0.394187
0.000000 0.727653 0.544252
0.000000 0.728024 0.544830
0.000000 0.732196 0.542931
0.000000 0.739566 0.544922
0.255175 0.747506 0.545625
0.448595 0.754447 0.550893
0.624709 0.756724 0.531023
0.804352 0.750622 0.517601
0.963365 0.670773 0.396945
0.000000 0.901896 0.518005
0.000000 0.901896 0.518005
0.000000 0.906171 0.515579
0.000000 0.911649 0.517740
0.000000 0.917929 0.521286
0.000000 0.927714 0.529764
0.349426 0.933963 0.546502
0.656225 0.941799 0.550585
0.946979 0.949344 0.576378
0.000000 0.089254 0.468566
0.000000 0.090067 0.477090
0.085987 0.091592 0.469609
0.225332 0.086345 0.480265
0.348636 0.077552 0.489495
0.461707 0.046461 0.498436
0.590585 0.000000 0.500018
0.691527 0.000000 0.475195
0.790900 0.000000 0.448399
0.000000 0.106310 0.484095
0.000000 0.108108 0.486900
0.067687 0.111735 0.488377
0.221350 0.109897 0.492845
0.351000 0.103390 0.498259
0.468714 0.078187 0.509274
0.599331 0.000000 0.511869
0.697254 0.000000 0.486524
0.795156 0.000000 0.452307
0.000000 0.166489 0.515598
0.000000 0.172561 0.517946
0.000000 0.178631 0.526218
0.210642 0.180899 0.533419
0.349262 0.178568 0.537454
0.486797 0.178867 0.539552
0.607833 0.184298 0.548487
0.709488 0.127961 0.515053
0.810624 0.000000 0.463853
0.000000 0.266301 0.567817
0.000000 0.268818 0.569357
0.000000 0.272681 0.569369
0.192074 0.286785 0.581777
0.336448 0.294221 0.583112
0.476707 0.297517 0.587030
0.629341 0.294193 0.590955
0.736144 0.262006 0.551126
0.838662 0.182917 0.487039
0.000000 0.370175 0.598338
0.000000 0.376576 0.599504
0.000000 0.381741 0.604208
0.178033 0.393333 0.614479
0.331891 0.404094 0.622043
0.493563 0.411207 0.619128
0.638401 0.412104 0.622746
0.754666 0.381786 0.585877
0.875606 0.295209 0.505352
0.000000 0.485425 0.631756
0.000000 0.485944 0.632636
0.000000 0.491035 0.635724
0.170056 0.499892 0.643927
0.344208 0.505484 0.647276
0.487117 0.527760 0.648038
0.656799 0.529344 0.653403
0.774658 0.486147 0.604284
0.916767 0.396064 0.515358
0.000000 0.612693 0.665457
0.000000 0.613254 0.666367
0.000000 0.617952 0.668313
0.144830 0.619997 0.672304
0.344195 0.636597 0.677794
0.485247 0.650193 0.674451
0.676857 0.654371 0.677403
0.796786 0.625044 0.632068
0.951083 0.510077 0.519505
0.000000 0.730793 0.669789
0.000000 0.733870 0.669612
0.000000 0.734733 0.671154
0.000000 0.742049 0.669835
0.234320 0.749928 0.663825
0.436182 0.762758 0.662087
0.610071 0.768871 0.659357
0.806859 0.767611 0.648035
0.972201 0.679398 0.512864
0.000000 0.903029 0.615976
0.000000 0.905773 0.615919
0.000000 0.907185 0.616361
0.000000 0.912592 0.614848
0.000000 0.919922 0.614503
0.000000 0.928493 0.611974
0.333344 0.940341 0.622736
0.667603 0.944751 0.619935
0.959731 0.952529 0.618237
0.000000 0.140702 0.583323
0.000000 0.143292 0.585620
0.000000 0.146622 0.594455
0.127052 0.147532 0.593311
0.275084 0.149001 0.597962
0.399235 0.147093 0.609145
0.544088 0.117383 0.616270
0.687874 0.044244 0.624405
0.814399 0.000000 0.578548
0.000000 0.149858 0.590576
0.000000 0.152654 0.591830
0.000000 0.153253 0.604112
0.126982 0.156571 0.600960
0.271219 0.159762 0.608761
0.405949 0.156696 0.613465
0.547935 0.129228 0.620378
0.692225 0.088093 0.628790
0.818474 0.000000 0.582337
0.000000 0.186531 0.611633
0.000000 0.186624 0.612979
0.000000 0.188146 0.621207
0.113168 0.196531 0.628563
0.277775 0.196342 0.629215
0.409646 0.196356 0.630410
0.547113 0.184172 0.634343
0.700617 0.154796 0.641696
0.834803 0.000000 0.598531
0.000000 0.246210 0.643511
0.000000 0.246364 0.644344
0.000000 0.255133 0.648849
0.112101 0.266232 0.657652
0.272354 0.271715 0.662611
0.416172 0.269319 0.669119
0.559838 0.269215 0.673089
0.717866 0.267989 0.674478
0.859547 0.193253 0.623980
0.000000 0.344466 0.678461
0.000000 0.347477 0.679215
0.000000 0.351859 0.683434
0.000000 0.365082 0.693138
0.255209 0.369276 0.700715
0.403717 0.391732 0.702961
0.567536 0.389090 0.702924
0.741466 0.378661 0.705925
0.884876 0.322782 0.651615
0.000000 0.450523 0.714020
0.000000 0.454208 0.714723
0.000000 0.455785 0.717552
0.000000 0.460831 0.724587
0.247256 0.472994 0.730591
0.401457 0.490858 0.736799
0.574861 0.495415 0.737333
0.748784 0.487376 0.739923
0.910980 0.432590 0.676385
0.000000 0.570888 0.746848
0.000000 0.571078 0.747111
0.000000 0.576124 0.749297
0.000000 0.578399 0.752961
0.226838 0.594564 0.756921
0.420890 0.607070 0.765413
0.587021 0.619176 0.769457
0.782396 0.631142 0.768067
0.944585 0.534476 0.683885
0.000000 0.717262 0.785035
0.000000 0.718062 0.780552
0.000000 0.722592 0.781965
0.000000 0.734326 0.781564
0.123446 0.749315 0.785201
0.404810 0.763007 0.791988
0.591806 0.775508 0.795228
0.797774 0.785981 0.801451
0.972928 0.703229 0.695590
0.000000 0.911491 0.771990
0.000000 0.911531 0.772219
0.000000 0.912858 0.772439
0.000000 0.917904 0.770664
0.000000 0.924783 0.769700
0.000000 0.934084 0.761576
0.305370 0.940672 0.761364
0.682067 0.952864 0.748350
0.968090 0.957742 0.724475
0.000000 0.282266 0.810161
0.000000 0.284644 0.810515
0.000000 0.289457 0.814347
0.000000 0.299238 0.818778
0.000000 0.316558 0.827683
0.206042 0.326608 0.835469
0.347054 0.338383 0.838435
0.508457 0.340524 0.841761
0.725818 0.339220 0.846414
0.000000 0.289075 0.812641
0.000000 0.291453 0.812774
0.000000 0.296448 0.816768
0.000000 0.306400 0.820716
0.000000 0.318991 0.830073
0.205982 0.334798 0.835363
0.344243 0.344411 0.840592
0.507341 0.347280 0.841962
0.725536 0.343133 0.846510
0.000000 0.314913 0.823789
0.000000 0.315056 0.824193
0.000000 0.318096 0.825710
0.000000 0.326261 0.827023
0.000000 0.339963 0.833772
0.193537 0.351092 0.840837
0.341744 0.359417 0.846801
0.508505 0.360161 0.846117
0.736293 0.360181 0.850549
0.000000 0.348649 0.834835
0.000000 0.348741 0.835024
0.000000 0.352019 0.836044
0.000000 0.360967 0.839350
0.000000 0.370353 0.843317
0.178176 0.379680 0.849784
0.337872 0.384146 0.858485
0.509146 0.386294 0.857753
0.757680 0.386585 0.859915
0.000000 0.391233 0.850497
0.000000 0.391470 0.850848
0.000000 0.394644 0.853099
0.000000 0.398366 0.856184
0.000000 0.408491 0.859464
0.184157 0.415753 0.863953
0.338828 0.428593 0.868644
0.518168 0.433287 0.870582
0.790871 0.434523 0.873861
0.000000 0.452906 0.871693
0.000000 0.452906 0.871693
0.000000 0.456497 0.872017
0.000000 0.460471 0.874780
0.000000 0.467900 0.877794
0.207020 0.475451 0.881459
0.345121 0.482205 0.886808
0.538831 0.493654 0.891234
0.836425 0.489083 0.890648
0.000000 0.519663 0.895639
0.000000 0.519943 0.895903
0.000000 0.520216 0.896165
0.000000 0.527772 0.896741
0.000000 0.535357 0.899077
0.199603 0.546340 0.901408
0.365110 0.550393 0.906103
0.553203 0.566555 0.910744
0.889557 0.563493 0.907108
0.000000 0.628345 0.921246
0.000000 0.628345 0.921246
0.000000 0.635428 0.921045
0.000000 0.639268 0.922418
0.000000 0.646888 0.922580
0.138616 0.661509 0.925025
0.349772 0.673370 0.927045
0.606515 0.702129 0.930766
0.941089 0.713557 0.929740
0.000000 0.888947 0.954203
0.000000 0.890550 0.954085
0.000000 0.893756 0.953974
0.000000 0.900966 0.955644
0.000000 0.910593 0.956595
0.000000 0.921284 0.959016
0.000000 0.935926 0.961778
0.587673 0.951576 0.966526
0.972681 0.978653 0.972736
