Fusion/LUTs/Alexandru-Don-LUTs-v2/Alexandru-Don-LUTs/Monitoring Luts/Monitoring Lut 8.cube
TITLE "Generated by Resolve"
LUT_3D_SIZE 9
0.0147555 0.0211948 0.0270237
0.0147555 0.0211948 0.0270237
0.0308843 0.0226749 0.0291752
0.238285 0.0493172 0.0449226
0.558434 0.101366 0.0661021
0.828061 0.156268 0.0902571
0.937942 0.16907 0.0950332
0.937942 0.16907 0.0950332
0.937942 0.16907 0.0950332
0.0147555 0.0211948 0.0270237
0.0147555 0.0211948 0.0270237
0.0202335 0.0216831 0.0277256
0.207187 0.0443885 0.0424964
0.541039 0.0982986 0.0648966
0.823682 0.155047 0.0897993
0.937881 0.16907 0.0950332
0.937942 0.16907 0.0950332
0.937942 0.16907 0.0950332
0.0300145 0.0631418 0.0457771
0.0277409 0.0574655 0.0428321
0.0250095 0.0505684 0.0393072
0.162112 0.0483864 0.0413214
0.499611 0.0921187 0.0619669
0.791196 0.147814 0.0867628
0.936248 0.168994 0.0950179
0.937942 0.16907 0.0950332
0.937942 0.16907 0.0950332
0.0923476 0.197024 0.125566
0.0895399 0.191623 0.122393
0.0870222 0.186786 0.119539
0.127642 0.168276 0.107942
0.414649 0.174624 0.0762341
0.714488 0.2094 0.0914778
0.922057 0.236332 0.103624
0.940139 0.225589 0.102022
0.939864 0.219638 0.101137
0.186084 0.375402 0.234943
0.184497 0.37258 0.233127
0.183032 0.369955 0.231464
0.187549 0.340703 0.213474
0.328176 0.3411 0.181079
0.630533 0.34551 0.13257
0.879896 0.366506 0.140703
0.946548 0.354986 0.140703
0.945891 0.343572 0.136584
0.288884 0.553033 0.347433
0.288273 0.55198 0.346761
0.285237 0.546777 0.343465
0.270253 0.514183 0.322896
0.368063 0.493095 0.308431
0.536263 0.508736 0.241001
0.823514 0.502663 0.191516
0.95555 0.494194 0.194705
0.954543 0.477806 0.187884
0.383032 0.716503 0.450675
0.381537 0.713848 0.449027
0.376196 0.704433 0.443168
0.357595 0.669596 0.421393
0.424125 0.63743 0.402243
0.536309 0.642222 0.386114
0.732387 0.654749 0.297108
0.951507 0.63827 0.257542
0.963119 0.619333 0.256016
0.450568 0.842298 0.524804
0.449897 0.840848 0.524086
0.447089 0.834287 0.521096
0.434043 0.807935 0.506889
0.478218 0.775708 0.487907
0.579293 0.769253 0.482826
0.69836 0.783886 0.447471
0.897063 0.790066 0.358282
0.955077 0.7691 0.350164
0.455055 0.854124 0.529458
0.455055 0.854124 0.529458
0.455055 0.854124 0.529458
0.455055 0.854124 0.529458
0.498116 0.857191 0.532647
0.611032 0.871977 0.547738
0.728161 0.888716 0.554559
0.854734 0.904021 0.504158
0.94641 0.898695 0.453956
0.0147555 0.0211948 0.0270237
0.0147555 0.0211948 0.0270237
0.0294194 0.0225376 0.0290074
0.233845 0.0486152 0.0445869
0.554696 0.100694 0.0658274
0.825315 0.155642 0.090013
0.937942 0.16907 0.0950332
0.937942 0.16907 0.0950332
0.937942 0.16907 0.0950332
0.0147555 0.0211948 0.0270237
0.0147555 0.0211948 0.0270237
0.0195315 0.021622 0.0276188
0.206104 0.0442359 0.0424048
0.541268 0.0983291 0.0648966
0.824857 0.155261 0.0898909
0.937865 0.16907 0.0950332
0.937942 0.16907 0.0950332
0.937942 0.16907 0.0950332
0.0302739 0.0638132 0.0461738
0.0280919 0.0583505 0.0433051
0.0255131 0.0518196 0.0399634
0.164874 0.0501564 0.0418402
0.502998 0.0933242 0.062211
0.79472 0.14876 0.0870985
0.936706 0.169009 0.0950179
0.937942 0.16907 0.0950332
0.937942 0.16907 0.0950332
0.0942855 0.200732 0.127779
0.0914168 0.195285 0.124605
0.0890059 0.190661 0.121874
0.131563 0.172442 0.11043
0.419989 0.178805 0.0776532
0.719676 0.213535 0.0927443
0.923873 0.239155 0.104204
0.940246 0.228107 0.102388
0.939971 0.221973 0.101472
0.188769 0.380133 0.237934
0.18732 0.377646 0.236332
0.185794 0.374853 0.234592
0.191775 0.345586 0.216587
0.333837 0.346227 0.183459
0.635431 0.350195 0.134173
0.88278 0.369665 0.141741
0.946715 0.357504 0.141634
0.946014 0.345815 0.137407
0.291432 0.557427 0.35021
0.290776 0.556313 0.349508
0.287526 0.550698 0.345953
0.273594 0.517754 0.325185
0.371633 0.496788 0.310658
0.540032 0.511955 0.242527
0.826688 0.505608 0.192721
0.955734 0.496773 0.195819
0.954711 0.480186 0.188891
0.384543 0.719188 0.452338
0.383078 0.716579 0.450721
0.377783 0.707225 0.444923
0.359167 0.672312 0.423087
0.426703 0.64007 0.403906
0.538903 0.644907 0.387594
0.735119 0.657572 0.298421
0.951949 0.640909 0.259892
0.963195 0.621866 0.257496
0.450813 0.842954 0.525063
0.450248 0.841688 0.524468
0.447913 0.835981 0.522011
0.435264 0.810056 0.508247
0.4804 0.777951 0.489311
0.581582 0.771557 0.484215
0.700862 0.786175 0.44831
0.898573 0.792233 0.360128
0.954818 0.771344 0.351766
0.455055 0.854124 0.529458
0.455055 0.854124 0.529458
0.455055 0.854124 0.529458
0.455055 0.854124 0.529458
0.498924 0.857252 0.532708
0.612528 0.87274 0.548257
0.730098 0.890288 0.555459
0.856565 0.905715 0.505623
0.946487 0.900526 0.455741
0.0154269 0.0227665 0.0657054
0.0151522 0.0223697 0.0592966
0.027451 0.0230869 0.0516823
0.226719 0.0475013 0.049836
0.548028 0.0994888 0.0653544
0.820386 0.154467 0.0895705
0.937942 0.16907 0.0950332
0.937942 0.16907 0.0950332
0.937942 0.16907 0.0950332
0.0150912 0.0221408 0.0521401
0.0149233 0.0218204 0.044831
0.0183566 0.0218051 0.0364538
0.20267 0.0437324 0.0448615
0.53901 0.0979324 0.0648814
0.824033 0.155047 0.0897993
0.937835 0.16907 0.0950332
0.937942 0.16907 0.0950332
0.937942 0.16907 0.0950332
0.0287633 0.0614786 0.0483711
0.0270237 0.0567788 0.0455634
0.0247654 0.0506294 0.0413825
0.163485 0.0493935 0.0420081
0.502541 0.0935378 0.0621805
0.794766 0.148928 0.087129
0.936919 0.169024 0.0950179
0.937942 0.16907 0.0950332
0.937942 0.16907 0.0950332
0.0932326 0.198688 0.126543
0.0909285 0.194293 0.123995
0.0886702 0.190005 0.121477
0.131533 0.172396 0.11046
0.420615 0.179492 0.0778973
0.720974 0.214755 0.0931106
0.924208 0.24007 0.104417
0.940291 0.229206 0.102602
0.940002 0.222827 0.101579
0.188357 0.3794 0.237476
0.187335 0.377661 0.236362
0.18584 0.374929 0.234638
0.192035 0.346105 0.216922
0.334691 0.346975 0.183902
0.636423 0.350744 0.13434
0.882811 0.370153 0.141909
0.946731 0.357748 0.141726
0.946029 0.346059 0.137499
0.2907 0.556176 0.349432
0.290257 0.555398 0.348928
0.286946 0.549706 0.345327
0.273381 0.516991 0.324712
0.371008 0.496208 0.310338
0.539513 0.511437 0.242374
0.826108 0.505364 0.192615
0.955703 0.496406 0.195666
0.954696 0.480003 0.188815
0.382986 0.716411 0.450614
0.381781 0.714214 0.449271
0.376623 0.705165 0.443641
0.357961 0.670634 0.422034
0.425467 0.638636 0.403006
0.537804 0.643793 0.386999
0.733852 0.656565 0.297795
0.9514 0.639841 0.259388
0.963165 0.620691 0.256825
0.450034 0.840986 0.524269
0.449485 0.839841 0.523659
0.447166 0.834195 0.521202
0.434333 0.808331 0.50721
0.478676 0.776135 0.488212
0.579919 0.769787 0.483207
0.699138 0.78436 0.447211
0.897231 0.790661 0.358923
0.954986 0.769741 0.350637
0.455055 0.854124 0.529458
0.455055 0.854124 0.529458
0.455055 0.854124 0.529458
0.455055 0.854124 0.529458
0.49807 0.85716 0.532631
0.610422 0.871366 0.547372
0.728237 0.88867 0.554757
0.854444 0.903929 0.504234
0.94638 0.898863 0.453956
0.0256657 0.0368963 0.204074
0.0245823 0.0354772 0.193515
0.0320439 0.034226 0.180301
0.197284 0.0533303 0.191775
0.527367 0.0968643 0.173541
0.8056 0.150118 0.156283
0.936645 0.168093 0.138201
0.93753 0.168399 0.12311
0.937667 0.168551 0.115709
0.0240787 0.0347753 0.187076
0.0229038 0.0331884 0.174685
0.0235752 0.0316014 0.160998
0.180346 0.0493629 0.175891
0.523476 0.0958572 0.171191
0.813657 0.151659 0.16286
0.936736 0.167819 0.147127
0.937407 0.168063 0.134234
0.93753 0.168185 0.128176
0.0266117 0.0638743 0.157671
0.025391 0.0591135 0.150423
0.0238956 0.0531624 0.142
0.145846 0.0505989 0.145708
0.488899 0.0914321 0.146181
0.785565 0.145892 0.143328
0.936339 0.168048 0.13547
0.937591 0.168307 0.12546
0.937667 0.168399 0.121126
0.0821241 0.196536 0.172396
0.0802472 0.192645 0.169177
0.0784619 0.188754 0.165499
0.125811 0.167178 0.146227
0.407401 0.17319 0.112444
0.711345 0.208148 0.112306
0.920409 0.235416 0.116503
0.939986 0.224384 0.10988
0.939712 0.218006 0.106462
0.183536 0.372595 0.253727
0.182803 0.371237 0.252277
0.181323 0.368612 0.249973
0.185412 0.338476 0.223743
0.326879 0.337942 0.184985
0.627283 0.342229 0.133013
0.876143 0.362783 0.139773
0.946349 0.351293 0.139406
0.945663 0.339437 0.135149
0.285679 0.547921 0.352926
0.28542 0.547372 0.350683
0.282032 0.541436 0.34548
0.267323 0.508171 0.320363
0.361608 0.486381 0.304463
0.529534 0.50164 0.237583
0.817243 0.496132 0.1888
0.954955 0.488899 0.192279
0.954208 0.472602 0.185748
0.377737 0.70721 0.448508
0.376471 0.704967 0.446067
0.371328 0.695964 0.439628
0.352117 0.661433 0.416342
0.416403 0.629297 0.397086
0.528481 0.63415 0.381735
0.724453 0.647395 0.293202
0.948211 0.6318 0.254047
0.962905 0.613123 0.252537
0.447593 0.83534 0.521645
0.44712 0.834226 0.521157
0.444556 0.828183 0.518425
0.42977 0.800092 0.502129
0.470603 0.767849 0.483116
0.571359 0.760937 0.478004
0.6907 0.775937 0.442924
0.891661 0.782666 0.352972
0.955779 0.762036 0.345296
0.455055 0.854124 0.529458
0.455055 0.854124 0.529458
0.455055 0.854124 0.529458
0.455055 0.854124 0.529458
0.494728 0.856779 0.532326
0.603159 0.866423 0.544167
0.72105 0.8822 0.550851
0.847196 0.897581 0.498909
0.94609 0.893019 0.44799
0.0468147 0.0654002 0.402701
0.0452735 0.0633249 0.389197
0.0488899 0.0607004 0.371145
0.180392 0.0724193 0.395377
0.48098 0.107668 0.391974
0.776486 0.153307 0.376761
0.928908 0.171695 0.350027
0.931823 0.170703 0.325978
0.932326 0.170184 0.313603
0.04448 0.0621805 0.381445
0.0428473 0.0599222 0.366659
0.0413062 0.057496 0.350332
0.169665 0.0694285 0.37879
0.484184 0.107515 0.396078
0.789075 0.15671 0.3897
0.929061 0.172625 0.367529
0.930831 0.171679 0.34815
0.931273 0.171221 0.338476
0.0426795 0.0809644 0.340841
0.0414435 0.0764172 0.332479
0.0400092 0.0707713 0.323278
0.140917 0.0679942 0.339178
0.451774 0.101488 0.367163
0.761852 0.149767 0.365988
0.929763 0.171679 0.351965
0.931746 0.170855 0.336172
0.932052 0.170535 0.329015
0.0697032 0.205432 0.334279
0.0684215 0.20145 0.330495
0.0672313 0.197833 0.326726
0.109911 0.174762 0.293355
0.368246 0.17377 0.30161
0.686473 0.203037 0.303471
0.910842 0.230549 0.29456
0.935546 0.218204 0.276478
0.9355 0.211139 0.26656
0.158297 0.378058 0.35642
0.157809 0.376715 0.354742
0.156664 0.373922 0.351873
0.160449 0.341711 0.32137
0.322606 0.326375 0.300175
0.598825 0.332174 0.263325
0.857557 0.354482 0.251545
0.944076 0.342611 0.227405
0.943572 0.33048 0.213626
0.273823 0.546395 0.436942
0.273548 0.545388 0.434943
0.27039 0.538842 0.428061
0.256168 0.503853 0.393851
0.365835 0.475059 0.375265
0.545632 0.481544 0.302708
0.80943 0.481346 0.24741
0.952789 0.478233 0.235492
0.952911 0.462028 0.220462
0.37026 0.701869 0.517128
0.369024 0.699306 0.513558
0.363973 0.689876 0.503853
0.344701 0.654017 0.468925
0.410727 0.618936 0.438087
0.520119 0.620783 0.418601
0.713817 0.633982 0.318273
0.943267 0.619486 0.266331
0.962295 0.601495 0.25716
0.445106 0.832807 0.579324
0.444526 0.83122 0.576715
0.441062 0.823621 0.568292
0.424582 0.792493 0.536965
0.461601 0.758556 0.504097
0.561654 0.74931 0.488609
0.679026 0.763836 0.448005
0.88246 0.770809 0.351278
0.956985 0.749889 0.339712
0.456199 0.857023 0.574487
0.456168 0.856886 0.572351
0.456046 0.856458 0.566354
0.455741 0.855558 0.55288
0.490867 0.85658 0.544213
0.593851 0.859403 0.545556
0.709453 0.872145 0.545617
0.83566 0.887999 0.488975
0.945678 0.883757 0.438819
0.0684977 0.0945144 0.588876
0.0675822 0.0933547 0.578882
0.0683146 0.0905776 0.560876
0.184222 0.0972 0.570077
0.445396 0.126574 0.574731
0.736996 0.166522 0.589593
0.910948 0.188327 0.574487
0.916594 0.186694 0.551049
0.917525 0.185611 0.538781
0.0658122 0.0910658 0.566934
0.0645762 0.0894789 0.555779
0.063035 0.0874495 0.542245
0.178317 0.0953384 0.560388
0.451408 0.128222 0.579599
0.754055 0.170993 0.606027
0.91194 0.190066 0.594507
0.914809 0.188769 0.575723
0.915434 0.188022 0.566567
0.0629282 0.104555 0.525719
0.0619516 0.100374 0.520088
0.0607614 0.0953689 0.513222
0.153719 0.0929732 0.522942
0.421515 0.121279 0.552544
0.727672 0.164279 0.582452
0.913115 0.188907 0.578683
0.915587 0.187869 0.56379
0.915953 0.187396 0.556954
0.0818189 0.216068 0.501869
0.0809491 0.212772 0.500603
0.0798962 0.209461 0.498207
0.120989 0.186343 0.469215
0.333852 0.185229 0.500237
0.653361 0.210956 0.519585
0.892973 0.238224 0.518807
0.923125 0.225116 0.500923
0.923491 0.217411 0.490623
0.13756 0.390402 0.506325
0.136828 0.388998 0.506188
0.135821 0.385901 0.504173
0.13817 0.353414 0.474174
0.289738 0.331243 0.453239
0.567773 0.331807 0.453147
0.833661 0.352758 0.444312
0.937545 0.339178 0.427665
0.93724 0.32639 0.412131
0.239597 0.556451 0.540093
0.238819 0.554894 0.538552
0.235416 0.547921 0.531701
0.221592 0.512276 0.49633
0.333913 0.478569 0.476493
0.512749 0.476631 0.449638
0.770809 0.47689 0.415824
0.947219 0.47126 0.388602
0.948669 0.454231 0.368307
0.351034 0.705119 0.60061
0.349828 0.702281 0.597528
0.344991 0.692531 0.587884
0.32668 0.655802 0.552117
0.409369 0.616632 0.521691
0.527428 0.609995 0.51809
0.74786 0.611978 0.424887
0.937819 0.607904 0.395361
0.960143 0.591791 0.368475
0.435843 0.834882 0.658152
0.434745 0.832532 0.655314
0.430732 0.823438 0.645777
0.415015 0.791379 0.613642
0.453605 0.755276 0.580194
0.575204 0.741695 0.577234
0.672908 0.749416 0.559609
0.898558 0.750988 0.439551
0.959197 0.738674 0.416037
0.453895 0.864149 0.654353
0.453971 0.863981 0.652689
0.454383 0.86331 0.646754
0.45507 0.861814 0.632471
0.487785 0.85977 0.619425
0.607141 0.859052 0.62414
0.709575 0.863478 0.616327
0.825986 0.878248 0.564828
0.946654 0.875654 0.489693
0.0724041 0.0992905 0.657267
0.0724041 0.0992905 0.657267
0.0734264 0.0992905 0.656825
0.186786 0.109773 0.689219
0.433494 0.139315 0.731609
0.690883 0.186297 0.732692
0.883635 0.205722 0.74931
0.896727 0.202808 0.734813
0.899321 0.201282 0.726223
0.0724041 0.0992905 0.657267
0.0724041 0.0992905 0.657267
0.0723888 0.0992752 0.656992
0.184573 0.10927 0.685878
0.444465 0.141146 0.737423
0.710353 0.191577 0.747723
0.883207 0.208637 0.764828
0.890639 0.206363 0.753857
0.892515 0.20531 0.747967
0.0737316 0.115068 0.650706
0.0733349 0.112245 0.648692
0.0728923 0.109133 0.646128
0.163821 0.109621 0.663157
0.41416 0.136278 0.719432
0.686641 0.185534 0.730877
0.887892 0.206256 0.754665
0.894072 0.204334 0.745403
0.895628 0.203449 0.741054
0.0954299 0.229343 0.647623
0.0946822 0.226337 0.646906
0.093904 0.223484 0.645167
0.135943 0.200275 0.629755
0.335409 0.198688 0.670237
0.616541 0.227939 0.679728
0.871168 0.249485 0.709651
0.909331 0.235538 0.69691
0.910018 0.227588 0.687755
0.143297 0.397986 0.660121
0.142809 0.396399 0.660563
0.141772 0.393317 0.658442
0.142962 0.360586 0.62887
0.280156 0.343587 0.587747
0.519417 0.341711 0.631815
0.806302 0.358328 0.634256
0.923598 0.345968 0.62681
0.923171 0.333379 0.611612
0.214954 0.568154 0.676738
0.214267 0.566537 0.675364
0.210758 0.559106 0.668498
0.197024 0.52311 0.63418
0.304326 0.48484 0.608103
0.4804 0.477913 0.601953
0.748241 0.475944 0.582788
0.94551 0.463935 0.573205
0.948913 0.44625 0.554833
0.314153 0.715328 0.702556
0.312917 0.712428 0.699626
0.308171 0.702449 0.689891
0.290501 0.665644 0.653407
0.358968 0.625055 0.620661
0.50634 0.612848 0.611688
0.696925 0.612421 0.5776
0.921675 0.604761 0.547463
0.958358 0.58349 0.519753
0.411765 0.841794 0.744045
0.410849 0.839567 0.741588
0.406607 0.829572 0.731136
0.391897 0.796918 0.697673
0.43064 0.759472 0.66154
0.57612 0.740719 0.655863
0.679744 0.741833 0.650568
0.888273 0.740673 0.572503
0.962066 0.728359 0.530465
0.440696 0.875822 0.739254
0.441047 0.875578 0.737682
0.44242 0.874571 0.731136
0.445502 0.87216 0.715297
0.476341 0.865324 0.698787
0.623758 0.859709 0.705547
0.730465 0.858335 0.708675
0.819181 0.865919 0.696834
0.949828 0.867933 0.582315
0.0724041 0.0992905 0.657267
0.0724041 0.0992905 0.657267
0.0728161 0.0993057 0.657359
0.180102 0.109316 0.692882
0.422446 0.139345 0.762295
0.680156 0.187625 0.784741
0.862928 0.216052 0.813306
0.873732 0.216144 0.81471
0.873762 0.216114 0.814542
0.0724041 0.0992905 0.657267
0.0724041 0.0992905 0.657267
0.0724041 0.0992905 0.657267
0.180835 0.109331 0.693431
0.436942 0.141314 0.763958
0.70277 0.192416 0.78822
0.869352 0.216129 0.814267
0.873686 0.216175 0.814908
0.873686 0.216175 0.814908
0.0739147 0.112352 0.660182
0.0737011 0.110964 0.659815
0.0734264 0.108614 0.659281
0.161486 0.109941 0.68542
0.407797 0.137316 0.760952
0.679774 0.187503 0.784878
0.870008 0.216129 0.814374
0.873686 0.216175 0.814923
0.873686 0.216175 0.814923
0.0965591 0.227771 0.690257
0.0958572 0.224903 0.689448
0.0951858 0.222141 0.68864
0.136187 0.200687 0.68867
0.335592 0.199985 0.754376
0.613199 0.229847 0.783429
0.839033 0.262181 0.81059
0.878492 0.249897 0.811109
0.878401 0.242237 0.807538
0.145922 0.398383 0.746807
0.145342 0.396658 0.746197
0.144228 0.393286 0.745007
0.145373 0.362875 0.734997
0.294911 0.343694 0.735805
0.49395 0.347906 0.78027
0.760052 0.37229 0.783459
0.901213 0.35581 0.792859
0.902281 0.34258 0.781826
0.209842 0.571374 0.794629
0.208942 0.569116 0.793851
0.205875 0.56173 0.789914
0.194217 0.526329 0.767391
0.299321 0.49189 0.735546
0.448859 0.487556 0.726146
0.701289 0.483391 0.755138
0.930953 0.467247 0.765057
0.936812 0.448447 0.749081
0.289677 0.724514 0.823041
0.288212 0.721691 0.820676
0.283452 0.711894 0.812619
0.265705 0.675456 0.780728
0.328817 0.634104 0.748455
0.477577 0.616648 0.74197
0.660609 0.61236 0.742977
0.906447 0.603021 0.71957
0.949294 0.580362 0.707958
0.376852 0.851637 0.842786
0.375799 0.849332 0.840375
0.370916 0.839063 0.830182
0.355566 0.80679 0.798383
0.389975 0.769665 0.762264
0.5196 0.747845 0.761151
0.669627 0.743023 0.737667
0.860502 0.740566 0.705913
0.959243 0.721111 0.679622
0.415274 0.890944 0.833661
0.415656 0.890715 0.832105
0.417716 0.88957 0.824796
0.42266 0.886625 0.80708
0.450385 0.875715 0.786938
0.58909 0.863462 0.781064
0.729793 0.85742 0.780148
0.823667 0.861723 0.777386
0.956191 0.859785 0.694057
0.0724041 0.0992905 0.657267
0.0724041 0.0992905 0.657267
0.0724041 0.0992905 0.657267
0.175692 0.108736 0.690898
0.414862 0.138277 0.761547
0.673426 0.186175 0.78381
0.860761 0.216022 0.813016
0.873686 0.216175 0.814923
0.873686 0.216175 0.814923
0.0724041 0.0992905 0.657267
0.0724041 0.0992905 0.657267
0.0724041 0.0992905 0.657267
0.179019 0.109102 0.692607
0.433204 0.140764 0.763592
0.699016 0.191623 0.787671
0.868742 0.216114 0.814176
0.873686 0.216175 0.814923
0.873686 0.216175 0.814923
0.0737926 0.111513 0.659953
0.073579 0.109957 0.659571
0.0733654 0.108064 0.659144
0.160021 0.109453 0.684794
0.405219 0.136843 0.760647
0.677012 0.186892 0.784497
0.869764 0.216144 0.814328
0.873686 0.216175 0.814923
0.873686 0.216175 0.814923
0.0960403 0.225696 0.689662
0.0953841 0.223011 0.688869
0.094789 0.220508 0.688167
0.134508 0.198856 0.688029
0.33225 0.197375 0.75375
0.609079 0.226734 0.784314
0.835264 0.259739 0.814176
0.876539 0.248081 0.818479
0.875837 0.240406 0.817594
0.144884 0.3953 0.745708
0.14432 0.393591 0.745098
0.143069 0.389792 0.74377
0.142504 0.358602 0.733577
0.293858 0.332158 0.74699
0.52607 0.335515 0.805768
0.768582 0.361395 0.81976
0.88838 0.357763 0.834379
0.8869 0.345861 0.832319
0.20763 0.566934 0.800732
0.206592 0.564385 0.799939
0.203326 0.556527 0.797589
0.191196 0.52105 0.787091
0.295384 0.481895 0.784527
0.474601 0.471656 0.815137
0.712581 0.474083 0.842741
0.902007 0.473014 0.861082
0.909255 0.456596 0.858442
0.283497 0.720684 0.847211
0.281834 0.717845 0.846326
0.276661 0.708354 0.843366
0.257801 0.672938 0.83241
0.316808 0.633478 0.824292
0.464759 0.61442 0.835981
0.647211 0.608286 0.870665
0.875288 0.606882 0.868238
0.929671 0.583841 0.864012
0.366537 0.852399 0.891554
0.364584 0.850172 0.890761
0.356405 0.840375 0.887266
0.336431 0.810346 0.875822
0.364034 0.77615 0.86154
0.498161 0.752697 0.857816
0.639643 0.745388 0.860914
0.830839 0.740093 0.86331
0.948699 0.718273 0.851194
0.412406 0.901427 0.907332
0.412406 0.901427 0.907332
0.412375 0.901427 0.907256
0.410773 0.900603 0.902434
0.422126 0.887251 0.88452
0.57116 0.870634 0.871351
0.706981 0.862547 0.86688
0.821118 0.861601 0.857527
0.958007 0.852598 0.831067
