Fusion/LUTs/Alexandru-Don-LUTs-v2/Alexandru-Don-LUTs/Monitoring Luts/Monitoring Lut 6.cube
TITLE "Generated by Resolve"
LUT_3D_SIZE 5
0.0147555 0.0211948 0.0270237
0.287053 0.0569162 0.0486915
0.929015 0.168688 0.0949416
0.937942 0.16907 0.0950332
0.937942 0.16907 0.0950332
0.0568704 0.12665 0.0827344
0.0990463 0.112902 0.0748913
0.844739 0.195743 0.0955978
0.938628 0.189807 0.0971237
0.938628 0.189807 0.0971237
0.325856 0.616892 0.388022
0.313634 0.595789 0.374533
0.562829 0.579461 0.295079
0.959854 0.556939 0.223255
0.959472 0.551019 0.22034
0.455055 0.854124 0.529458
0.455055 0.854124 0.529458
0.608896 0.871992 0.547417
0.931426 0.933867 0.502419
0.948913 0.929519 0.488945
0.455055 0.854124 0.529458
0.455055 0.854124 0.529458
0.592065 0.869184 0.544121
0.909789 0.945891 0.528496
0.9514 0.952209 0.516548
0.0270848 0.0387427 0.217594
0.233951 0.0623789 0.232151
0.915358 0.16672 0.188861
0.937057 0.167697 0.152911
0.936889 0.167666 0.159976
0.0457771 0.123354 0.125856
0.0921187 0.109255 0.111727
0.840375 0.191775 0.109392
0.938415 0.18616 0.102693
0.938415 0.185534 0.101991
0.322271 0.610697 0.38407
0.309468 0.588571 0.369955
0.554467 0.571542 0.291203
0.959396 0.549828 0.219821
0.958953 0.543267 0.216663
0.455055 0.854124 0.529458
0.455055 0.854124 0.529458
0.604013 0.870771 0.546258
0.926909 0.929061 0.498482
0.948379 0.923995 0.482399
0.455055 0.854124 0.529458
0.455055 0.854124 0.529458
0.585718 0.868025 0.542962
0.901839 0.944427 0.530968
0.9514 0.952209 0.516548
0.0724041 0.0992905 0.657252
0.211185 0.113115 0.705226
0.833219 0.210697 0.768566
0.890394 0.206561 0.754681
0.88893 0.207385 0.758938
0.0796826 0.16347 0.619272
0.118059 0.15082 0.613519
0.752575 0.20647 0.691356
0.907942 0.19971 0.691752
0.908232 0.200092 0.689738
0.259083 0.614588 0.618494
0.24686 0.589563 0.593774
0.52665 0.537789 0.541115
0.956893 0.51722 0.472786
0.95668 0.510307 0.464958
0.451087 0.867323 0.680522
0.452613 0.865827 0.668299
0.60061 0.86891 0.652155
0.903029 0.901213 0.598154
0.948043 0.899153 0.548226
0.451896 0.866545 0.674144
0.453605 0.864607 0.658244
0.571176 0.869169 0.632044
0.879591 0.939742 0.621729
0.9523 0.953063 0.589258
0.0724041 0.0992905 0.657267
0.195315 0.111238 0.69984
0.813748 0.214099 0.806638
0.873686 0.216175 0.814923
0.873686 0.216175 0.814923
0.0812085 0.158877 0.671763
0.115145 0.148226 0.675258
0.726116 0.208804 0.792981
0.873838 0.217853 0.815106
0.873793 0.217334 0.815045
0.23061 0.618158 0.816022
0.218814 0.592569 0.808362
0.495827 0.528527 0.825223
0.917067 0.517708 0.870832
0.916426 0.51075 0.869673
0.412406 0.901427 0.907332
0.412329 0.901396 0.907042
0.548501 0.889509 0.894621
0.888258 0.885588 0.888609
0.959426 0.877791 0.873854
0.41239 0.901427 0.907301
0.411826 0.901228 0.905348
0.51371 0.900893 0.878721
0.882811 0.940902 0.892256
0.958694 0.959106 0.877623
0.0724041 0.0992905 0.657267
0.195911 0.111315 0.700145
0.814771 0.214252 0.80679
0.873686 0.216175 0.814923
0.873686 0.216175 0.814923
0.0812543 0.159075 0.671794
0.11516 0.148257 0.675258
0.725368 0.208255 0.792828
0.873808 0.217578 0.815076
0.873777 0.217273 0.815045
0.230121 0.617136 0.815717
0.217868 0.590494 0.807752
0.493019 0.525765 0.824277
0.916823 0.515038 0.87039
0.916152 0.507927 0.869169
0.412406 0.901427 0.907332
0.412406 0.901427 0.907332
0.526482 0.888197 0.9066
0.879332 0.88275 0.93846
0.952193 0.875624 0.941451
0.412406 0.901427 0.907332
0.412406 0.901427 0.907332
0.515984 0.904967 0.910674
0.870771 0.946899 0.948745
0.95906 0.958846 0.95935
