Fusion/LUTs/Alexandru-Don-LUTs-v2/Alexandru-Don-LUTs/Monitoring Luts/Monitoring Lut 5.cube
TITLE "Generated by Resolve"
LUT_3D_SIZE 5
0.0147555 0.0211948 0.0270237
0.198337 0.0430762 0.0417639
0.834607 0.157748 0.0908522
0.937942 0.16907 0.0950332
0.937942 0.16907 0.0950332
0.041886 0.0922713 0.0621653
0.0722667 0.0816205 0.0564584
0.715297 0.147295 0.0811322
0.938125 0.175097 0.095613
0.938109 0.174472 0.095552
0.259495 0.502373 0.315297
0.254856 0.494392 0.310277
0.460945 0.479118 0.247379
0.950713 0.478462 0.185931
0.953368 0.460014 0.180606
0.452094 0.846387 0.526406
0.449012 0.839048 0.523125
0.536065 0.792889 0.499626
0.813794 0.820752 0.409659
0.951278 0.803708 0.375235
0.455055 0.854124 0.529458
0.455055 0.854124 0.529458
0.526085 0.85922 0.534554
0.780392 0.915404 0.560235
0.9514 0.952209 0.516548
0.0222477 0.0323796 0.167666
0.164126 0.0466621 0.169711
0.813748 0.15198 0.141695
0.937636 0.168582 0.11606
0.937652 0.168627 0.114611
0.0352941 0.0890211 0.0920119
0.0656596 0.0793927 0.0822003
0.712108 0.145327 0.0890516
0.938079 0.174594 0.0990158
0.938048 0.173693 0.0985275
0.25835 0.500389 0.314046
0.253315 0.491753 0.308598
0.45623 0.474968 0.245121
0.949401 0.474495 0.183963
0.953063 0.455436 0.178775
0.451209 0.844236 0.52546
0.448249 0.837278 0.522316
0.531899 0.788861 0.497124
0.809659 0.816342 0.407889
0.951843 0.798535 0.371405
0.455055 0.854124 0.529458
0.455055 0.854124 0.529458
0.522606 0.858885 0.534279
0.775723 0.914168 0.560571
0.9514 0.952209 0.516548
0.0705882 0.0970474 0.623789
0.164981 0.102922 0.622095
0.71519 0.177203 0.655634
0.912215 0.192508 0.642405
0.912322 0.192432 0.641978
0.0655833 0.126955 0.525673
0.0878004 0.117159 0.516991
0.629007 0.160189 0.580468
0.914214 0.191104 0.586557
0.914549 0.190158 0.580911
0.205432 0.503182 0.507561
0.200458 0.492714 0.497429
0.4309 0.445823 0.450111
0.930602 0.454307 0.403265
0.9467 0.430762 0.374945
0.442649 0.839551 0.636728
0.436881 0.826719 0.623255
0.522316 0.765225 0.570932
0.786801 0.784466 0.483604
0.9561 0.769131 0.413993
0.45568 0.860365 0.618296
0.456016 0.859419 0.607172
0.511528 0.860517 0.580056
0.760281 0.9093 0.589868
0.951553 0.952346 0.530388
0.0724041 0.0992905 0.657267
0.153399 0.105959 0.681773
0.676829 0.186892 0.784344
0.873686 0.216175 0.814923
0.873686 0.216175 0.814923
0.0766918 0.132769 0.664958
0.0950637 0.126024 0.667277
0.602533 0.175128 0.776013
0.873701 0.216403 0.814954
0.873686 0.216236 0.814923
0.186099 0.513268 0.784649
0.181582 0.50106 0.781018
0.396826 0.446632 0.78294
0.882307 0.460197 0.830365
0.914763 0.433051 0.821866
0.377295 0.858885 0.862058
0.369512 0.844572 0.84831
0.444953 0.775311 0.787961
0.766415 0.765896 0.770047
0.95845 0.745327 0.729427
0.41503 0.891081 0.834577
0.419089 0.888869 0.820462
0.478187 0.883955 0.781476
0.768719 0.911025 0.79379
0.95552 0.95613 0.7635
0.0724041 0.0992905 0.657267
0.149187 0.105516 0.680171
0.673213 0.186114 0.78381
0.873686 0.216175 0.814923
0.873686 0.216175 0.814923
0.076463 0.131441 0.664591
0.0941482 0.124865 0.666835
0.600732 0.174441 0.775876
0.873716 0.216464 0.814954
0.873686 0.216175 0.814923
0.184512 0.509102 0.783413
0.179217 0.494636 0.779065
0.398215 0.435142 0.788647
0.873411 0.452003 0.850492
0.902922 0.43064 0.851667
0.37026 0.855833 0.89279
0.35848 0.841581 0.8878
0.410544 0.775326 0.867475
0.742855 0.757916 0.905425
0.938659 0.7411 0.912718
0.412406 0.901427 0.907332
0.412406 0.901427 0.907332
0.453681 0.903044 0.908904
0.736217 0.927123 0.930755
0.95906 0.958846 0.95935
