Fusion/LUTs/Alexandru-Don-LUTs-v2/Alexandru-Don-LUTs/Monitoring Luts/Monitoring Lut 7.cube
TITLE "Generated by Resolve"
LUT_3D_SIZE 9
0 0 0
0.0114595 0 0
0.0656901 0 0
0.212879 0 0
0.494224 0 0
0.733425 0 0
0.912276 0 0
1 0 0
1 0 0
0 0.0191806 0
0.00662242 0.0165713 0
0.0593881 0.0100404 0
0.209094 0.000106813 0
0.491264 0 0
0.737469 0 0
0.932174 0 0
1 0 0
1 0 0
0 0.0562295 0
0.000350958 0.0551919 0
0.0383612 0.051194 0
0.199588 0.0239414 0
0.514397 0 0
0.78175 0 0
0.98967 0 0
1 0 0
1 0 0
0 0.136751 0
0 0.149783 0
0.000122072 0.161883 0
0.137057 0.153857 0
0.480049 0.108003 0
0.776898 0.0817578 0
0.991882 0.0776226 0
1 0.0839094 0
1 0.100984 0
0 0.331258 0
0 0.359869 0
0 0.388479 0
0.0259709 0.400854 0
0.374319 0.368872 0
0.681376 0.34844 0
0.913329 0.345617 0
1 0.34699 0
1 0.35404 0
0 0.582635 0
0 0.613962 0
0 0.642008 0
0.00350958 0.651652 0
0.304189 0.612451 0
0.598459 0.580285 0
0.818448 0.564614 0
0.990311 0.554467 0
1 0.549798 0
0 0.806592 0
0 0.829114 0
0 0.846906 0
0.00108339 0.842451 0
0.257939 0.793057 0
0.542763 0.753429 0
0.755749 0.731609 0
0.9393 0.716487 0
1 0.706523 0
0 0.981125 0
0 0.994018 0
0 0.998642 0
0 0.990539 0
0.214969 0.943282 0
0.494926 0.900099 0
0.704219 0.874922 0
0.884688 0.857359 0
0.99881 0.844923 0
0 1 0
0 1 0
0 1 0
0 1 0
0.181994 1 0
0.457755 0.998276 0
0.664134 0.990265 0
0.841901 0.980255 0
0.992264 0.967651 0
0 0 0.0179904
0.0106966 0 0.0144961
0.065095 0 0.00917067
0.212604 0 0.000198367
0.493202 0 0
0.732296 0 0
0.911421 0 0
1 0 0
1 0 0
0 0.0186007 0.0113832
0.00601205 0.0157931 0.00924697
0.0587778 0.0093843 0.00523384
0.208804 7.62951e-05 0
0.492653 0 0
0.740764 0 0
0.938231 0 0
1 0 0
1 0 0
0 0.0560922 0
0.000442512 0.055848 0
0.039826 0.0527504 0.000122072
0.205585 0.0255589 0
0.523491 0 0
0.791363 0 0
0.992676 0 0
1 0 0
1 0 0
0 0.141146 0
0 0.155505 0
4.57771e-05 0.168704 0
0.143725 0.161212 0
0.491524 0.11603 0
0.787289 0.0912642 0
0.996292 0.0881056 0
1 0.0946517 0
1 0.111986 0
0 0.341634 0
0 0.371298 0
0 0.400549 0
0.0314946 0.412726 0
0.38529 0.379446 0
0.68957 0.358953 0
0.920211 0.355657 0
1 0.355795 0
1 0.362142 0
0 0.594003 0
0 0.625116 0
0 0.652735 0
0.00509651 0.660868 0
0.313466 0.619654 0
0.604974 0.586816 0
0.823682 0.570443 0
0.991058 0.559762 0
1 0.554772 0
0 0.81532 0
0 0.836912 0
0 0.854093 0
0.00148013 0.847944 0
0.264652 0.797574 0
0.547799 0.757702 0
0.759731 0.735683 0
0.942794 0.720119 0
1 0.709941 0
0 0.985962 0
0 0.995865 0
0 0.999023 0
1.5259e-05 0.993088 0
0.22005 0.946319 0
0.498878 0.903105 0
0.707378 0.878157 0
0.887541 0.860121 0
0.998962 0.847715 0
0 1 0
0 1 0
0 1 0
0 1 0
0.186496 1 0
0.460822 0.99852 0
0.666606 0.991165 0
0.844038 0.981674 0
0.99295 0.969329 0
0 0 0.0700084
0.00918593 0 0.0663005
0.0632792 0 0.0589914
0.210178 0 0.0231479
0.490715 0 0
0.729946 0 0
0.910018 0 0
1 0 0
1 0 0
0 0.0167697 0.0624399
0.00479133 0.0139315 0.0593881
0.056733 0.0078584 0.0517586
0.206394 4.57771e-05 0.0193942
0.493233 0 0
0.74435 0 0
0.943984 0 0
1 0 0
1 0 0
0 0.0542458 0.0356909
0.000381476 0.0550088 0.0364538
0.040116 0.0531319 0.0347143
0.210025 0.0259861 0.00950637
0.531075 0 0
0.800336 0 0
0.994659 0 0
1 0 0
1 0 0
0 0.145327 7.62951e-05
0 0.160235 6.10361e-05
0.000137331 0.175784 3.0518e-05
0.151263 0.168994 0
0.502373 0.12462 0
0.79823 0.101335 0
0.997955 0.0995346 0
1 0.106889 0
1 0.124743 0
0 0.351003 0
0 0.381323 0
0 0.412482 0
0.0395972 0.423911 0
0.395377 0.38996 0
0.697276 0.369162 0
0.927245 0.364508 0
1 0.364172 0
1 0.370169 0
0 0.604181 0
0 0.634958 0
0 0.663249 0
0.00724804 0.668788 0
0.320775 0.625757 0
0.610071 0.59234 0
0.828 0.575143 0
0.991592 0.563912 0
1 0.558831 0
0 0.822538 0
0 0.84332 0
0 0.860716 0
0.00222782 0.852644 0
0.269261 0.800793 0
0.550881 0.760906 0
0.762478 0.738521 0
0.945159 0.722759 0
1 0.712291 0
0 0.989731 0
0 0.996841 0
0 0.999603 0
0.000137331 0.994598 0
0.223438 0.948211 0
0.501213 0.904982 0
0.709224 0.879896 0
0.889052 0.861692 0
0.999084 0.849134 0
0 1 0
0 1 0
0 1 0
0 1 0
0.189151 1 0
0.462455 0.998627 0
0.667796 0.991531 0
0.844633 0.982086 0
0.993439 0.969665 0
0 0 0.237858
0.00251774 0 0.230838
0.0518807 0 0.218402
0.194919 0 0.16437
0.473457 0 0.071809
0.715892 0 0.010605
0.89781 0 1.5259e-05
1 0 0
1 0 0
0 0.00721752 0.232547
0.00175479 0.00573739 0.22504
0.0465248 0.00251774 0.211276
0.191608 0 0.160204
0.479332 0 0.0734112
0.736477 0 0.0161135
0.939788 0 7.62951e-05
1 0 0.00015259
1 0 0
0 0.0440528 0.193469
0 0.0457313 0.197406
0.0321965 0.0450752 0.20119
0.201877 0.0200504 0.16846
0.525429 0 0.0958877
0.797665 0 0.0509957
0.994858 0 0.037705
1 0 0.0400397
1 0 0.0615244
0 0.141375 0.099794
0 0.157137 0.111315
3.0518e-05 0.173831 0.125322
0.151919 0.169879 0.121492
0.505348 0.127718 0.0807965
0.802411 0.105913 0.0590677
0.998428 0.104494 0.0564126
1 0.11136 0.0618753
1 0.127886 0.0764019
0 0.354925 0.00666819
0 0.385885 0.010605
0 0.417121 0.0193942
0.0450446 0.429068 0.024918
0.400717 0.395163 0.0116884
0.70222 0.373602 0.0065156
0.930129 0.367819 0.00469978
1 0.365438 0.00370794
1 0.369818 0.00318914
0 0.609766 9.15541e-05
0 0.639857 0.000427253
0 0.666392 0.00457771
0.00788891 0.670985 0.00515755
0.321935 0.626917 0.000335698
0.610681 0.592569 0
0.827466 0.575006 0
0.992706 0.563149 0
1 0.557168 0
0 0.823758 0
0 0.843046 6.10361e-05
0 0.858793 0.000488289
0.00213626 0.851362 0.000427253
0.267216 0.799756 0
0.549142 0.759136 0
0.760311 0.736385 0
0.942641 0.720333 0
1 0.709636 0
0 0.987839 0
0 0.997909 0
0 0.999908 0
0 0.990692 0
0.219837 0.946014 0
0.498207 0.902022 0
0.70605 0.876661 0
0.885634 0.858259 0
0.999374 0.845426 0
0 1 0
0 1 0
0 1 0
0 1 0
0.183703 1 0
0.4589 0.998978 0
0.663783 0.990662 0
0.840314 0.978378 0
0.989532 0.965148 0
0 0 0.580575
0 0 0.57261
0.025803 0 0.558053
0.162112 0 0.491966
0.438483 0 0.37615
0.686534 0 0.279484
0.872511 0 0.217319
0.999435 0 0.176837
1 0 0.158282
0 0 0.577493
0 0 0.568856
0.0227359 0 0.553216
0.160769 0 0.491218
0.449012 0 0.387945
0.712947 0 0.315099
0.919478 0 0.280781
1 0 0.266682
1 0 0.271092
0 0.0199435 0.533989
0 0.0223392 0.54229
0.0130617 0.0227665 0.552682
0.177539 0.00378424 0.519081
0.502586 0 0.443046
0.778851 0 0.39826
0.990555 0 0.387945
1 0 0.395453
1 0 0.423484
0 0.123156 0.430045
0 0.13933 0.454734
0 0.157168 0.479316
0.138216 0.156207 0.476799
0.492332 0.11606 0.432975
0.791043 0.0951095 0.412177
0.997726 0.0938125 0.413718
1 0.100343 0.423926
1 0.115618 0.44332
0 0.34551 0.291768
0 0.376043 0.322057
0 0.406363 0.352743
0.0363622 0.418982 0.365255
0.390982 0.385061 0.331472
0.691859 0.362783 0.308553
0.918746 0.355428 0.30106
1 0.351202 0.296818
1 0.353628 0.299077
0 0.601724 0.232914
0 0.629709 0.266407
0 0.654002 0.294881
0.00619516 0.657633 0.296376
0.307362 0.614054 0.247837
0.597147 0.578943 0.209827
0.813626 0.560861 0.1906
0.986572 0.548501 0.177676
1 0.541299 0.17055
0 0.810315 0.220203
0 0.827878 0.242603
0 0.841779 0.259571
0.0010071 0.834958 0.248264
0.250507 0.784985 0.191363
0.534203 0.744442 0.146273
0.745647 0.721706 0.120897
0.927962 0.705608 0.103273
1 0.694881 0.0914168
0 0.972595 0.19527
0 0.983017 0.210834
0 0.990707 0.221408
0 0.979828 0.203769
0.202014 0.93048 0.143191
0.482597 0.886961 0.094728
0.691295 0.861677 0.0698711
0.870909 0.843565 0.0545205
0.997818 0.83061 0.0441138
0 1 0.176684
0 1 0.190082
0 1 0.197818
0 1 0.172076
0.164996 1 0.106264
0.442588 0.996109 0.0595407
0.64831 0.981414 0.0404364
0.824933 0.964675 0.0283207
0.976303 0.949935 0.0198978
0 0 0.872786
0 0 0.866896
0.00775158 0 0.854459
0.133028 0 0.797147
0.403738 0 0.693248
0.655131 0 0.604334
0.84416 0 0.548302
0.995178 0 0.513619
1 0 0.499947
0 0 0.869688
0 0 0.86183
0.00624094 0 0.848829
0.134524 0 0.796902
0.421973 0 0.705638
0.690227 0 0.640269
0.900099 0 0.610101
1 0 0.599008
1 0 0.603876
0 0.00399786 0.832456
0 0.00636301 0.843336
0.00288396 0.00610361 0.85452
0.158312 0.000259403 0.825391
0.484413 0 0.755505
0.764462 0 0.715633
0.983551 0 0.707027
1 0 0.714443
1 0 0.740398
0 0.10724 0.747509
0 0.12517 0.769543
0 0.145205 0.792584
0.128328 0.146273 0.793698
0.483024 0.107286 0.753841
0.782879 0.0872969 0.734264
0.997086 0.0863203 0.735378
1 0.0925765 0.742901
1 0.106935 0.758724
0 0.336019 0.622263
0 0.367483 0.648157
0 0.398322 0.674525
0.0297093 0.410971 0.687984
0.381964 0.376562 0.656367
0.682445 0.35256 0.633814
0.907866 0.34374 0.62475
1 0.338323 0.618585
1 0.339574 0.618494
0 0.592752 0.56228
0 0.620142 0.590036
0 0.643381 0.613245
0.00489815 0.645823 0.615641
0.293843 0.601007 0.570886
0.582757 0.56492 0.534264
0.799039 0.545846 0.515038
0.976654 0.533165 0.502327
1 0.525032 0.49453
0 0.797345 0.540322
0 0.814588 0.558572
0 0.827573 0.571984
0.000335698 0.82005 0.563592
0.234287 0.770016 0.512169
0.518181 0.72874 0.469429
0.729366 0.70544 0.44564
0.911284 0.688914 0.428534
1 0.677684 0.416907
0 0.95874 0.51017
0 0.969299 0.522423
0 0.976761 0.530938
0 0.966217 0.517708
0.184543 0.914473 0.462974
0.465614 0.870161 0.416709
0.674052 0.844465 0.390036
0.853559 0.826139 0.370794
0.992111 0.812924 0.356924
0 1 0.486595
0 1 0.496773
0 1 0.502525
0 1 0.48307
0.146624 0.999985 0.424613
0.424826 0.988281 0.376272
0.63032 0.966796 0.34667
0.806775 0.947082 0.324056
0.959716 0.93135 0.307362
0 0 1
0 0 1
0.00222782 0 1
0.112932 0 0.994812
0.380179 0 0.917815
0.63473 0 0.832425
0.827008 0 0.781415
0.990295 0 0.752789
1 0 0.743328
0 0 1
0 0 1
0.00138857 0 1
0.117311 0 0.993469
0.406622 0 0.934539
0.678416 0 0.873152
0.891051 0 0.846494
1 0 0.83743
1 0 0.844236
0 0.000595102 0.999847
0 0.000961318 0.999954
0 0.000762951 0.999924
0.147921 0.000137331 0.997818
0.476844 0 0.975631
0.759503 0 0.950683
0.980606 0 0.944701
1 0 0.950317
1 0 0.970367
0 0.0994736 0.970764
0 0.118868 0.98555
0 0.140734 0.991806
0.125078 0.143008 0.99292
0.482002 0.105135 0.978607
0.78204 0.0861677 0.965713
0.997147 0.0853437 0.967712
1 0.0909743 0.974533
1 0.104448 0.980407
0 0.334432 0.860441
0 0.366461 0.885359
0 0.39762 0.911238
0.0286107 0.409796 0.924666
0.380133 0.374258 0.89276
0.678599 0.349233 0.869673
0.902861 0.338827 0.859358
1 0.332204 0.852323
1 0.332509 0.851087
0 0.591043 0.799939
0 0.617578 0.825452
0 0.639597 0.846845
0.0043946 0.640421 0.848142
0.287251 0.594949 0.80325
0.575982 0.557778 0.76704
0.791302 0.538048 0.747692
0.970703 0.524895 0.734737
1 0.516457 0.726375
0 0.791363 0.772366
0 0.807919 0.789029
0 0.820294 0.801266
9.15541e-05 0.812146 0.793072
0.22536 0.761852 0.742824
0.509361 0.720027 0.700847
0.720516 0.696376 0.677089
0.9019 0.679591 0.660319
1 0.668101 0.648722
0 0.951125 0.739193
0 0.961471 0.750317
0 0.968673 0.757977
0 0.95761 0.745663
0.174899 0.905257 0.692424
0.456168 0.860456 0.647257
0.663996 0.834699 0.621149
0.843534 0.816175 0.60206
0.987411 0.802594 0.58854
0 1 0.713008
0 1 0.722423
0 1 0.727749
0 1 0.70901
0.136233 0.999557 0.652842
0.414588 0.980865 0.605417
0.619608 0.957275 0.576699
0.795529 0.935943 0.554665
0.948852 0.920058 0.538552
0 0 1
0 0 1
0.000137331 0 1
0.0964828 0 1
0.361349 0 1
0.619058 0 0.994766
0.815076 0 0.969451
0.987015 0 0.950484
1 0 0.946288
0 0 1
0 0 1
6.10361e-05 0 1
0.104326 0 1
0.39678 0 1
0.671214 0 0.999756
0.886595 0 0.997772
1 0 0.997772
1 0 0.997894
0 0.000244144 1
0 0.000396735 1
0 0.00047303 1
0.142046 7.62951e-05 1
0.474571 0 1
0.759152 0 1
0.980575 0 1
1 0 1
1 0 1
0 0.0953078 1
0 0.116167 1
0 0.139879 1
0.125078 0.143053 1
0.484077 0.105776 1
0.783917 0.0876173 1
0.997803 0.0867475 1
1 0.0915084 1
1 0.104433 1
0 0.336355 0.999954
0 0.368582 1
0 0.400259 1
0.0296025 0.411566 1
0.380209 0.374792 1
0.677333 0.348135 0.999771
0.900145 0.336172 0.999313
1 0.328603 0.998611
1 0.327901 0.997681
0 0.591623 0.98883
0 0.617243 1
0 0.638117 1
0.0040589 0.6374 1
0.28365 0.590814 0.990295
0.571252 0.553033 0.963729
0.786328 0.533089 0.945251
0.966628 0.519478 0.931868
1 0.510521 0.923171
0 0.788052 0.968414
0 0.803891 0.978912
0 0.815534 0.985626
4.57771e-05 0.806928 0.984726
0.219684 0.756313 0.93814
0.503426 0.71397 0.896727
0.714183 0.690044 0.87303
0.895277 0.672984 0.856153
0.999954 0.66125 0.844541
0 0.946014 0.934234
0 0.956161 0.944213
0 0.96286 0.95082
0 0.95137 0.940063
0.167971 0.898939 0.887083
0.449287 0.853742 0.842115
0.657176 0.827634 0.815961
0.836118 0.808789 0.797116
0.9832 0.794995 0.783139
0 1 0.906935
0 1 0.915877
0 1 0.920638
0 1 0.90219
0.128328 0.998535 0.846738
0.407034 0.975006 0.799191
0.611627 0.949538 0.770397
0.787488 0.927855 0.748318
0.940551 0.911696 0.73225
0 0 1
0 0 1
0 0 1
0.0831464 0 1
0.346471 0 1
0.607569 0 1
0.807233 0 1
0.986114 0 1
1 0 1
0 0 1
0 0 1
0 0 1
0.0959945 0 1
0.390753 0 1
0.667643 0 1
0.885466 0 1
1 0 1
1 0 1
0 6.10361e-05 1
0 0.000213626 1
0 0.000381476 1
0.142245 4.57771e-05 1
0.477775 0 1
0.763485 0 1
0.983383 0 1
1 0 1
1 0 1
0 0.0940566 1
0 0.117082 1
0 0.143526 1
0.128542 0.146929 1
0.489708 0.10956 1
0.788876 0.0917678 1
0.997787 0.0907607 1
1 0.0947127 1
1 0.107286 1
0 0.340932 1
0 0.373358 1
0 0.405402 1
0.0321965 0.415351 1
0.382223 0.376806 1
0.677348 0.34876 1
0.898833 0.335958 1
0.999985 0.327123 1
1 0.326116 1
0 0.593973 1
0 0.618601 1
0 0.638987 1
0.0039826 0.636744 1
0.281849 0.588922 1
0.568658 0.550484 1
0.782925 0.529992 1
0.96405 0.515709 1
1 0.506416 1
0 0.786557 1
0 0.801938 1
0 0.813092 1
0 0.803876 1
0.216312 0.752728 1
0.499397 0.710018 1
0.709682 0.685802 0.999207
0.890761 0.668391 0.996689
0.999832 0.656489 0.995392
0 0.942718 1
0 0.953063 1
0 0.959487 1
0 0.947066 1
0.163439 0.894255 1
0.444526 0.84892 0.992889
0.652247 0.822705 0.97763
0.830793 0.80351 0.96231
0.979767 0.789319 0.949844
0 1 1
0 1 1
0 1 1
0 1 0.999939
0.12282 0.997421 0.993606
0.401282 0.970459 0.962966
0.605585 0.943725 0.937392
0.781338 0.921675 0.915892
0.934157 0.90544 0.899641
