Fusion/LUTs/Alexandru-Don-LUTs-v2/Alexandru-Don-LUTs/Monitoring Luts/Monitoring Lut 2.cube
TITLE "Generated by Resolve"
LUT_3D_SIZE 9
0 0 0
0.0844282 0 0
0.202152 0 0
0.380301 0 0
0.575021 0 0
0.750286 0 0
0.919692 0 0
1 0 0
1 0 0
0 0.0697337 0
0.0635996 0.0635996 0
0.181949 0.0490578 0
0.362814 0.019791 0
0.562814 0 0
0.746548 0 0
0.926909 0 0
1 0 0
1 0 0
0 0.155932 0
0.0234684 0.156374 0
0.151125 0.151125 0
0.342992 0.132876 0
0.553368 0.112139 0
0.745144 0.0983139 0
0.93164 0.0881819 0
1 0.079881 0
1 0.0725567 0
0 0.294911 0
0 0.304723 0
0.0968643 0.306996 0
0.29453 0.29453 0
0.509819 0.278721 0
0.70544 0.268727 0
0.894621 0.26128 0
1 0.254292 0
1 0.246525 0
0 0.464347 0
0 0.478614 0
0.0433814 0.484611 0
0.243168 0.474266 0
0.458976 0.458976 0
0.653986 0.448386 0
0.84094 0.438697 0
1 0.428122 0
1 0.416678 0
0 0.637247 0
0 0.651698 0
0.00944533 0.656275 0
0.2065 0.643198 0
0.41854 0.62414 0
0.610086 0.610086 0
0.794308 0.597665 0
0.97586 0.585473 0
1 0.573343 0
0 0.802121 0
0 0.813046 0
0 0.814343 0
0.165652 0.798993 0
0.376471 0.778714 0
0.5673 0.763943 0
0.750927 0.750927 0
0.931884 0.738125 0
1 0.725628 0
0 0.956542 0
0 0.966537 0
0 0.967178 0
0.123873 0.950973 0
0.334447 0.930449 0
0.524849 0.915251 0
0.708125 0.901884 0
0.888792 0.888792 0
1 0.876066 0
0 1 0
0 1 0
0 1 0
0.0814069 1 0
0.291737 1 0
0.481941 1 0
0.665049 1 0
0.845701 1 0
1 1 0
0 0 0.0877241
0.0825818 0 0.0825818
0.200031 0 0.0671397
0.378103 0 0.0350805
0.572992 0 0
0.748592 0 0
0.918746 0 0
1 0 0
1 0 0
0 0.0675822 0.0675822
0.0615702 0.0615702 0.0615702
0.180453 0.0475471 0.0475471
0.362203 0.0191806 0.0191806
0.563546 0 0
0.748363 0 0
0.929564 0 0
1 0 0
1 0 0
0 0.155489 0.0225986
0.0243381 0.157229 0.0243381
0.15346 0.15346 0.0205692
0.346014 0.135897 0.00299077
0.556909 0.115694 0
0.749203 0.102373 0
0.936202 0.0927291 0
1 0.0848554 0
1 0.0775006 0
0 0.298131 0
0 0.3084 0
0.101198 0.311315 0
0.299229 0.299229 0
0.514504 0.283406 0
0.710643 0.27393 0
0.899809 0.266468 0
1 0.259297 0
1 0.251225 0
0 0.469245 0
0 0.483711 0
0.0485695 0.489799 0
0.248341 0.479438 0
0.463767 0.463767 0
0.658518 0.452918 0
0.844999 0.442756 0
1 0.431815 0
1 0.420249 0
0 0.642237 0
0 0.65655 0
0.0139162 0.660746 0
0.210376 0.647089 0
0.422156 0.627771 0
0.613611 0.613611 0
0.797772 0.601144 0
0.979187 0.5888 0
1 0.576684 0
0 0.80592 0
0 0.816648 0
0 0.817853 0
0.168917 0.802258 0
0.379843 0.782086 0
0.570642 0.767269 0
0.754131 0.754131 0
0.935119 0.74136 0
1 0.728832 0
0 0.95996 0
0 0.969894 0
0 0.970474 0
0.127123 0.954223 0
0.337667 0.933684 0
0.528054 0.918456 0
0.71107 0.90483 0
0.891951 0.891951 0
1 0.879225 0
0 1 0
0 1 0
0 1 0
0.0845808 1 0
0.294881 1 0
0.485084 1 0
0.667964 1 0
0.848844 1 0
1 1 0
0 0 0.215824
0.077409 0 0.2103
0.194751 0 0.194751
0.372824 0 0.162707
0.567895 0 0.12668
0.743938 0 0.0971084
0.915007 0 0.0715343
1 0 0.0496223
1 0 0.0314641
0 0.0623941 0.1953
0.0566567 0.0566567 0.189548
0.176028 0.0431373 0.176028
0.358618 0.0155947 0.148486
0.561425 0 0.120195
0.74757 0 0.10074
0.929442 0 0.0859846
1 0 0.0736858
1 0 0.062974
0 0.152499 0.152499
0.0225376 0.155428 0.155428
0.152834 0.152834 0.152834
0.346105 0.135988 0.135988
0.557366 0.116152 0.116152
0.750393 0.103563 0.103563
0.937774 0.0943008 0.0943008
1 0.0865492 0.0865492
1 0.0795758 0.0795758
0 0.298161 0.0880446
0 0.309224 0.0990921
0.102586 0.312718 0.102586
0.300999 0.300999 0.0908675
0.516487 0.285389 0.0752575
0.712718 0.276005 0.0658885
0.901854 0.268513 0.0583963
1 0.260807 0.0506752
1 0.252644 0.0425116
0 0.470787 0.0295567
0 0.485771 0.0445563
0.0506447 0.491875 0.0506447
0.250294 0.481392 0.040177
0.465507 0.465507 0.0242924
0.659876 0.454276 0.0130465
0.845777 0.443534 0.00231937
1 0.432166 0
1 0.420676 0
0 0.643931 0
0 0.658091 0.0112612
0.0150759 0.661906 0.0150759
0.210864 0.647562 0.000732433
0.422629 0.628244 0
0.614008 0.614008 0
0.798093 0.60145 0
0.979446 0.589059 0
1 0.576898 0
0 0.806531 0
0 0.81709 0
0 0.818219 0
0.169116 0.802457 0
0.380072 0.782315 0
0.570825 0.767452 0
0.754208 0.754208 0
0.935241 0.741466 0
1 0.728908 0
0 0.96025 0
0 0.970108 0
0 0.970581 0
0.127245 0.95436 0
0.337758 0.933776 0
0.528115 0.918517 0
0.71107 0.904845 0
0.891981 0.891981 0
1 0.87924 0
0 1 0
0 1 0
0 1 0
0.0846113 1 0
0.294911 1 0
0.485008 1 0
0.667979 1 0
0.848875 1 0
1 1 0
0 0 0.415534
0.0665141 0 0.409522
0.183856 0 0.393973
0.362066 0 0.362066
0.557412 0 0.326314
0.733913 0 0.297215
0.905821 0 0.27248
1 0 0.252094
1 0 0.235126
0 0.0516823 0.39469
0.0463417 0.0463417 0.389364
0.166445 0.0335546 0.376577
0.349996 0.00697337 0.349996
0.553872 0 0.322774
0.741344 0 0.304646
0.923949 0 0.290608
1 0 0.278859
1 0 0.268696
0 0.144564 0.354681
0.0157321 0.148623 0.35874
0.146838 0.146838 0.356954
0.340719 0.130587 0.340719
0.552605 0.111376 0.321508
0.746197 0.0993668 0.309499
0.933944 0.090486 0.300603
1 0.0828717 0.292988
1 0.0760662 0.286198
0 0.292988 0.292988
0 0.304616 0.304616
0.0984665 0.308583 0.308583
0.297108 0.297108 0.297108
0.512963 0.281865 0.281865
0.709209 0.272511 0.272511
0.898253 0.264912 0.264912
1 0.256977 0.256977
1 0.248417 0.248417
0 0.467094 0.235996
0 0.482277 0.251179
0.0471504 0.488365 0.257267
0.246265 0.477363 0.246265
0.461479 0.461479 0.230381
0.655482 0.449866 0.218769
0.840757 0.438514 0.207416
1 0.42707 0.195972
1 0.415473 0.184375
0 0.640177 0.203479
0 0.65391 0.217212
0.0103914 0.657221 0.220523
0.205905 0.642603 0.205905
0.417517 0.623117 0.186419
0.608804 0.608804 0.172091
0.792538 0.595895 0.159197
0.974105 0.583719 0.147005
1 0.571511 0.134798
0 0.80145 0.168109
0 0.811917 0.178576
0 0.813001 0.17966
0.163821 0.797162 0.163821
0.374731 0.776974 0.143633
0.565408 0.762051 0.12871
0.748623 0.748623 0.115282
0.929747 0.735988 0.102647
1 0.7234 0.0900587
0 0.954925 0.127825
0 0.964736 0.137636
0 0.96495 0.13785
0.121798 0.948898 0.121798
0.332265 0.928283 0.101167
0.522576 0.912978 0.0858625
0.705531 0.89929 0.0721904
0.886427 0.886427 0.0593271
1 0.873686 0.0465858
0 1 0.0860914
0 1 0.0955062
0 1 0.0953841
0.0790723 1 0.0790723
0.289357 1 0.0582589
0.479393 1 0.0426795
0.662425 1 0.0290837
0.843336 1 0.0162356
1 1 0.00347906
0 0 0.634562
0.0541848 0 0.628305
0.17145 0 0.612665
0.349828 0 0.580926
0.545495 0 0.545495
0.722789 0 0.517189
0.895628 0 0.493385
1 0 0.474037
1 0 0.458488
0 0.0393835 0.613504
0.034638 0.034638 0.608759
0.155642 0.0227359 0.596857
0.340566 0 0.571649
0.54551 0 0.54551
0.733822 0 0.528206
0.917037 0 0.514794
1 0 0.503471
1 0 0.494087
0 0.135286 0.576501
0.00787366 0.14078 0.581994
0.139666 0.139666 0.58088
0.33402 0.123903 0.565118
0.546456 0.105241 0.546456
0.740551 0.0937209 0.534951
0.92871 0.0852369 0.526467
1 0.07776 0.51899
1 0.0710613 0.512276
0 0.28661 0.517708
0 0.298741 0.529839
0.0929732 0.30309 0.534188
0.291752 0.291752 0.522835
0.507958 0.27686 0.507958
0.704189 0.267491 0.498589
0.892912 0.259571 0.490669
1 0.251453 0.482551
1 0.242527 0.473625
0 0.461997 0.461997
0 0.477256 0.477256
0.0420844 0.483299 0.483299
0.241001 0.472099 0.472099
0.455802 0.455802 0.455802
0.649302 0.443702 0.443702
0.834226 0.431983 0.431983
1 0.420432 0.420432
1 0.408759 0.408759
0 0.634806 0.429206
0 0.648157 0.442557
0.00392157 0.650752 0.445136
0.199313 0.636027 0.430411
0.410834 0.616449 0.410834
0.60206 0.60206 0.396445
0.785733 0.589105 0.38349
0.967239 0.576852 0.371237
1 0.564584 0.358968
0 0.794842 0.392599
0 0.805219 0.402975
0 0.805936 0.403693
0.156985 0.790326 0.388083
0.367849 0.770092 0.367849
0.558267 0.75491 0.352667
0.741665 0.741665 0.339422
0.922744 0.728985 0.326741
1 0.716365 0.314122
0 0.948058 0.352056
0 0.957824 0.361822
0 0.958007 0.362005
0.114809 0.941909 0.345907
0.325261 0.921263 0.325261
0.515297 0.905699 0.309682
0.698482 0.892241 0.296239
0.879362 0.879362 0.28336
1 0.866621 0.270604
0 1 0.310185
0 1 0.31957
0 1 0.319448
0.0720073 1 0.303105
0.282292 1 0.282292
0.472221 1 0.266621
0.655375 1 0.253132
0.836286 1 0.240284
1 1 0.227359
0 0 0.829679
0.0436561 0 0.823377
0.160922 0 0.807752
0.339452 0 0.77615
0.535622 0 0.741238
0.713802 0 0.713802
0.887999 0 0.691356
1 0 0.67306
1 0 0.658381
0 0.0292515 0.808988
0.0249943 0.0249943 0.804715
0.146807 0.0139162 0.793637
0.333074 0 0.769787
0.539483 0 0.745083
0.728466 0 0.728466
0.912215 0 0.715587
1 0 0.704768
1 0 0.695872
0 0.128252 0.775082
0.00199893 0.13489 0.78172
0.134508 0.134508 0.781338
0.329274 0.119142 0.765972
0.542412 0.101198 0.748028
0.736873 0.0900435 0.736873
0.925017 0.0815595 0.728389
1 0.0746014 0.721431
1 0.0678721 0.714702
0 0.282185 0.718883
0 0.294896 0.731594
0.0894942 0.299611 0.736324
0.288472 0.288472 0.725185
0.504784 0.273686 0.710384
0.700984 0.264286 0.700984
0.889281 0.25594 0.692653
1 0.247623 0.684321
1 0.238209 0.674907
0 0.458808 0.664408
0 0.474083 0.679698
0.0386969 0.479927 0.685527
0.237476 0.468574 0.674189
0.451896 0.451896 0.657511
0.644846 0.439231 0.644846
0.829465 0.427222 0.632837
1 0.415595 0.621195
1 0.403861 0.609476
0 0.631083 0.631083
0 0.644053 0.644053
0 0.646128 0.646128
0.194537 0.631251 0.631251
0.405966 0.611582 0.611582
0.596979 0.596979 0.596979
0.780743 0.5841 0.5841
0.962203 0.571801 0.571801
1 0.559457 0.559457
0 0.790036 0.593393
0 0.80029 0.603662
0 0.800992 0.604349
0.151965 0.785306 0.588678
0.362783 0.765026 0.568383
0.553109 0.749737 0.553109
0.736522 0.736522 0.539879
0.917571 0.723812 0.527169
1 0.710979 0.514351
0 0.943038 0.552636
0 0.952544 0.562142
0 0.95288 0.562478
0.109651 0.936751 0.546349
0.320073 0.916075 0.525689
0.510094 0.900496 0.510094
0.693263 0.887022 0.49662
0.874144 0.874144 0.483742
1 0.861128 0.470726
0 1 0.510628
0 1 0.519722
0 1 0.519844
0.0667887 1 0.503502
0.276814 1 0.482429
0.467002 1 0.467002
0.650156 1 0.453513
0.831083 1 0.440696
1 1 0.427787
0 0 1
0.0337224 0 1
0.151141 0 0.994598
0.329931 0 0.963272
0.526604 0 0.928847
0.705608 0 0.902251
0.8813 0 0.8813
1 0 0.864302
1 0 0.850278
0 0.0199741 0.996323
0.0164187 0.0164187 0.992767
0.139208 0.00631724 0.982681
0.326635 0 0.959976
0.534234 0 0.936492
0.723949 0 0.920592
0.90811 0 0.90811
1 0 0.897978
1 0 0.889479
0 0.122454 0.965927
0 0.1299 0.973358
0.129976 0.129976 0.973434
0.325505 0.115373 0.958846
0.539208 0.0979782 0.941451
0.734035 0.0872053 0.930678
0.922393 0.0789349 0.922393
1 0.0720684 0.915526
1 0.0653239 0.908797
0 0.278553 0.911894
0 0.291737 0.925078
0.0864271 0.296544 0.929885
0.285939 0.285939 0.91928
0.502251 0.271153 0.904494
0.698344 0.261631 0.894972
0.886427 0.253086 0.886427
1 0.244373 0.877714
1 0.234394 0.867735
0 0.456291 0.858534
0 0.47155 0.873793
0.0357366 0.476967 0.87921
0.234424 0.465522 0.867765
0.448463 0.448463 0.850706
0.640696 0.435096 0.837339
0.825345 0.423102 0.825345
1 0.411383 0.813626
1 0.399573 0.801816
0 0.627878 0.824506
0 0.640345 0.836973
0 0.64213 0.838773
0.190387 0.6271 0.823728
0.40174 0.607355 0.803983
0.592538 0.592538 0.789181
0.776379 0.579736 0.776379
0.957794 0.567391 0.764019
1 0.55494 0.751568
0 0.78584 0.78584
0 0.795972 0.795972
0 0.796674 0.796674
0.147601 0.780941 0.780941
0.358328 0.760571 0.760571
0.548623 0.745266 0.745266
0.732006 0.732006 0.732006
0.913039 0.71928 0.71928
1 0.70634 0.70634
0 0.938643 0.744869
0 0.948028 0.754269
0 0.948394 0.754635
0.105135 0.932235 0.73846
0.315358 0.911376 0.717601
0.505531 0.895918 0.702159
0.688685 0.882445 0.688685
0.86949 0.86949 0.675731
1 0.85655 0.662776
0 1 0.702647
0 1 0.711803
0 1 0.71191
0.062211 1 0.695552
0.272221 1 0.674464
0.462425 1 0.659052
0.645594 1 0.645594
0.826322 1 0.632563
1 1 0.619898
0 0 1
0.0240177 0 1
0.141604 0 1
0.320775 0 1
0.518196 0 1
0.698161 0 1
0.874891 0 1
1 0 1
1 0 1
0 0.010956 1
0.00830091 0.00830091 1
0.132464 0 1
0.321004 0 1
0.529427 0 1
0.719738 0 1
0.904479 0 1
1 0 1
1 0 1
0 0.117327 1
0 0.125429 1
0.125978 0.125978 1
0.322072 0.11194 1
0.536248 0.0950332 1
0.731395 0.0845655 1
0.920058 0.076585 1
1 0.069749 1
1 0.0628977 1
0 0.27541 1
0 0.28896 1
0.0839246 0.294041 1
0.283619 0.283619 1
0.499931 0.268833 1
0.695537 0.258824 1
0.883589 0.250248 1
1 0.241154 1
1 0.23061 1
0 0.453971 1
0 0.469017 1
0.0331579 0.474388 1
0.231434 0.462531 1
0.444968 0.444968 1
0.636927 0.431312 1
0.821408 0.419165 1
1 0.407355 1
1 0.395209 0.991211
0 0.624826 1
0 0.636454 1
0 0.638239 1
0.186404 0.623117 1
0.397696 0.603311 0.993698
0.588434 0.588434 0.978836
0.772198 0.57557 0.965972
0.953552 0.563165 0.953552
1 0.5505 0.940902
0 0.781826 0.975586
0 0.79173 0.985489
0 0.792538 0.986297
0.143404 0.776745 0.970504
0.353841 0.756085 0.949844
0.54435 0.740978 0.934752
0.727687 0.727687 0.921462
0.90869 0.714931 0.90869
1 0.701991 0.89575
0 0.934417 0.934417
0 0.943786 0.943786
0 0.944106 0.944106
0.100816 0.927916 0.927916
0.310918 0.90692 0.90692
0.501167 0.891554 0.891554
0.684321 0.87808 0.87808
0.865064 0.865064 0.865064
1 0.852171 0.852171
0 1 0.892027
0 1 0.901213
0 1 0.901305
0.0577859 1 0.884886
0.267842 1 0.863859
0.458061 1 0.848447
0.64123 1 0.835004
0.821942 1 0.821942
1 1 0.809354
0 0 1
0.0144045 0 1
0.132067 0 1
0.311818 0 1
0.510124 0 1
0.691463 0 1
0.869261 0 1
1 0 1
1 0 1
0 0.00224308 1
0.000396735 0.000396735 1
0.125902 0 1
0.315892 0 1
0.524987 0 1
0.715831 0 1
0.901076 0 1
1 0 1
1 0 1
0 0.112352 1
0 0.121187 1
0.122286 0.122286 1
0.318944 0.108812 1
0.533486 0.0922713 1
0.728725 0.0818952 1
0.917784 0.0743267 1
1 0.0674601 1
1 0.0603494 1
0 0.272465 1
0 0.286305 1
0.0815595 0.291676 1
0.281346 0.281346 1
0.497627 0.266529 1
0.692973 0.256275 1
0.880644 0.247303 1
1 0.23772 1
1 0.226825 1
0 0.451698 1
0 0.466545 1
0.0305333 0.471763 1
0.228428 0.459525 1
0.441276 0.441276 1
0.633082 0.427482 1
0.817472 0.415229 1
0.999359 0.403357 1
1 0.39115 1
0 0.621592 1
0 0.632837 1
0 0.634363 1
0.182437 0.61915 1
0.393378 0.598993 1
0.584344 0.584344 1
0.768063 0.571435 1
0.949203 0.558801 1
1 0.546273 1
0 0.777661 1
0 0.787671 1
0 0.788418 1
0.139239 0.77258 1
0.34963 0.751873 1
0.540108 0.736751 1
0.72343 0.72343 1
0.904128 0.710369 1
1 0.697673 1
0 0.929976 1
0 0.939559 1
0 0.939849 1
0.0965286 0.923629 1
0.306615 0.902617 1
0.496849 0.887251 1
0.679988 0.873762 1
0.860594 0.860594 1
1 0.847852 1
0 1 1
0 1 1
0 1 1
0.053254 1 1
0.263523 1 1
0.453742 1 1
0.636927 1 1
0.817655 1 1
0.997665 0.997665 0.997665
