Fusion/LUTs/Alexandru-Don-LUTs-v2/Alexandru-Don-LUTs/Monitoring Luts/Monitoring Lut 3.cube
TITLE "Generated by Resolve"
LUT_3D_SIZE 17
0 0 0
0 0 0
0.0161593 0 0
0.0691081 0 0
0.128069 0 0
0.215717 0 0
0.325902 0 0
0.448463 0 0
0.57113 0 0
0.683391 0 0
0.792004 0 0
0.898787 0 0
1 0 0
1 0 0
1 0 0
1 0 0
1 0 0
0 0 0
0 0 0
0.0147097 0 0
0.0677043 0 0
0.126345 0 0
0.213001 0 0
0.32285 0 0
0.44538 0 0
0.567971 0 0
0.680537 0 0
0.789166 0 0
0.895979 0 0
0.99881 0 0
1 0 0
1 0 0
1 0 0
1 0 0
0 0.0118257 0
0 0.0114748 0
0.0113832 0.0104677 0
0.0630655 0.00814832 0
0.121202 0.00482185 0
0.206943 0 0
0.316487 0 0
0.439078 0 0
0.56199 0 0
0.675319 0 0
0.78436 0 0
0.891875 0 0
0.996201 0 0
1 0 0
1 0 0
1 0 0
1 0 0
0 0.0549935 0
0 0.0546578 0
0.00364691 0.053315 0
0.0490425 0.0489509 0
0.106722 0.0434119 0
0.191577 0.0306554 0
0.301564 0.0118105 0
0.42501 0 0
0.549966 0 0
0.66598 0 0
0.77847 0 0
0.890272 0 0
0.994293 0 0
1 0 0
1 0 0
1 0 0
1 0 0
0 0.0995193 0
0 0.0991379 0
0 0.0980392 0
0.0317235 0.0946212 0
0.0905928 0.0905928 0
0.176791 0.0801709 0
0.289387 0.0642405 0
0.416526 0.0461128 0
0.546029 0.0292058 0
0.667048 0.0160525 0
0.783902 0.00984207 0
0.899107 0.00610361 0
0.995254 0.00317388 0
1 0.000671397 0
1 0 0
1 0 0
1 0 0
0 0.158694 0
0 0.158129 0
0 0.157305 0
0.000274662 0.156695 0
0.0614481 0.156878 0
0.151171 0.151003 0
0.26836 0.139818 0
0.399329 0.125536 0
0.532464 0.111803 0
0.656703 0.101137 0
0.775952 0.0926833 0
0.893797 0.0854505 0
0.993606 0.078645 0
1 0.0728618 0
1 0.0670787 0
1 0.0642557 0
1 0.0634623 0
0 0.240177 0
0 0.23946 0
0 0.239231 0
0 0.243153 0
0.0240787 0.246723 0
0.116503 0.244343 0
0.235279 0.235279 0
0.368719 0.223514 0
0.503944 0.211337 0
0.630823 0.202487 0
0.751751 0.195636 0
0.871107 0.189624 0
0.985473 0.184222 0
1 0.178866 0
1 0.173739 0
1 0.170626 0
1 0.169772 0
0 0.338293 0
0 0.337469 0
0 0.337301 0
0 0.34345 0
0.0012665 0.34934 0
0.0769818 0.348974 0
0.19736 0.342153 0
0.33196 0.331731 0
0.46894 0.321279 0
0.597009 0.313191 0
0.718853 0.307103 0
0.83856 0.30132 0
0.957122 0.295766 0
1 0.290135 0
1 0.283909 0
1 0.280186 0
1 0.279316 0
0 0.444434 0
0 0.44358 0
0 0.443427 0
0 0.451331 0
0 0.458869 0
0.0413214 0.459968 0
0.16173 0.453971 0
0.296788 0.444343 0
0.433768 0.433768 0
0.562127 0.425681 0
0.683253 0.418601 0
0.802304 0.412146 0
0.919539 0.405295 0
1 0.398138 0
1 0.39057 0
1 0.38584 0
1 0.385031 0
0 0.552117 0
0 0.551278 0
0 0.550942 0
0 0.559747 0
0 0.567758 0
0.0193942 0.569223 0
0.134569 0.562951 0
0.268498 0.55256 0
0.40473 0.541207 0
0.531716 0.531518 0
0.651514 0.523308 0
0.76875 0.515068 0
0.884718 0.506996 0
0.997513 0.498848 0
1 0.490517 0
1 0.485512 0
1 0.484749 0
0 0.659007 0
0 0.658 0
0 0.657435 0
0 0.665568 0
0 0.672969 0
0.00384527 0.673411 0
0.109392 0.666148 0
0.241611 0.654337 0
0.376242 0.641276 0
0.502388 0.630472 0
0.621164 0.621164 0
0.738064 0.612558 0
0.853544 0.603998 0
0.968475 0.595438 0
1 0.586954 0
1 0.58143 0
1 0.580682 0
0 0.762051 0
0 0.761257 0
0 0.760494 0
0 0.767269 0
0 0.773068 0
0 0.772305 0
0.0812848 0.764004 0
0.212467 0.751461 0
0.346853 0.738018 0
0.472709 0.726421 0
0.591562 0.717113 0
0.708186 0.707988 0
0.823468 0.699413 0
0.938064 0.69073 0
1 0.682109 0
1 0.676326 0
1 0.675578 0
0 0.859739 0
0 0.858991 0
0 0.858244 0
0 0.863691 0
0 0.869047 0
0 0.867933 0
0.0526589 0.859586 0
0.183383 0.84686 0
0.317556 0.833066 0
0.443595 0.82153 0
0.562097 0.811749 0
0.678782 0.80267 0
0.793729 0.793729 0
0.908324 0.785061 0
1 0.77615 0
1 0.770047 0
1 0.769162 0
0 0.954894 0
0 0.954147 0
0 0.953399 0
0 0.958694 0
0 0.963714 0
0 0.96289 0
0.0236667 0.95433 0
0.153903 0.941482 0
0.28806 0.927535 0
0.414115 0.915724 0
0.532677 0.905882 0
0.649134 0.896315 0
0.764172 0.887434 0
0.878492 0.878492 0
0.986755 0.869673 0
1 0.863325 0
1 0.862593 0
0 1 0
0 1 0
0 1 0
0 1 0
0 1 0
0 1 0
0.000595102 1 0
0.123873 1 0
0.257939 1 0
0.384237 0.999115 0
0.502708 0.992584 0
0.619272 0.985763 0
0.734066 0.978683 0
0.848569 0.971618 0
0.962707 0.963073 0
1 0.956512 0
1 0.955779 0
0 1 0
0 1 0
0 1 0
0 1 0
0 1 0
0 1 0
0 1 0
0.102403 1 0
0.236347 1 0
0.362539 1 0
0.481041 1 0
0.597192 1 0
0.712077 1 0
0.826276 1 0
0.940658 1 0
1 1 0
1 1 0
0 1 0
0 1 0
0 1 0
0 1 0
0 1 0
0 1 0
0 1 0
0.0988632 1 0
0.232853 1 0
0.35938 1 0
0.477943 1 0
0.594171 1 0
0.709072 1 0
0.823285 1 0
0.937667 1 0
1 1 0
1 1 0
0 0 0
0 0 0
0.0159915 0 0
0.0689403 0 0
0.127871 0 0
0.215228 0 0
0.325551 0 0
0.448081 0 0
0.570764 0 0
0.683055 0 0
0.791669 0 0
0.898451 0 0
1 0 0
1 0 0
1 0 0
1 0 0
1 0 0
0 0 0
0 0 0
0.0145418 0 0
0.0675364 0 0
0.126146 0 0
0.212512 0 0
0.322499 0 0
0.4448 0 0
0.567605 0 0
0.680201 0 0
0.788846 0 0
0.895659 0 0
0.99852 0 0
1 0 0
1 0 0
1 0 0
1 0 0
0 0.0116121 0
0 0.0112612 0
0.0112612 0.0103456 0
0.0629435 0.0080415 0
0.12105 0.00476081 0
0.2065 0 0
0.316182 0 0
0.438544 0 0
0.561669 0 0
0.675029 0 0
0.784054 0 0
0.891569 0 0
0.995895 0 0
1 0 0
1 0 0
1 0 0
1 0 0
0 0.0548562 0
0 0.0545357 0
0.00361639 0.053193 0
0.0489204 0.0488289 0
0.106554 0.0433051 0
0.191135 0.0305943 0
0.301244 0.0117189 0
0.424445 0 0
0.549615 0 0
0.665644 0 0
0.778119 0 0
0.889906 0 0
0.994018 0 0
1 0 0
1 0 0
1 0 0
1 0 0
0 0.0993668 0
0 0.0989853 0
0 0.0979019 0
0.0316625 0.0943923 0
0.0904707 0.0903639 0
0.176501 0.0800336 0
0.289036 0.0640879 0
0.41593 0.0459754 0
0.545632 0.0290379 0
0.666682 0.0158389 0
0.78352 0.00967422 0
0.898726 0.0059968 0
0.995087 0.00311284 0
1 0.000656138 0
1 0 0
1 0 0
1 0 0
0 0.158465 0
0 0.157885 0
0 0.157076 0
0.000274662 0.156435 0
0.0613413 0.156619 0
0.150942 0.150774 0
0.268055 0.139605 0
0.398779 0.125322 0
0.532113 0.111559 0
0.656382 0.100877 0
0.775647 0.092256 0
0.893477 0.0850233 0
0.993454 0.0783551 0
1 0.0725719 0
1 0.0667735 0
1 0.0639506 0
1 0.0631418 0
0 0.239887 0
0 0.23917 0
0 0.238941 0
0 0.242847 0
0.0239567 0.246418 0
0.116289 0.244053 0
0.23505 0.234821 0
0.368231 0.223072 0
0.503639 0.211032 0
0.63035 0.202167 0
0.751476 0.1953 0
0.870832 0.189303 0
0.985183 0.183886 0
1 0.178531 0
1 0.173404 0
1 0.170275 0
1 0.169421 0
0 0.337957 0
0 0.336965 0
0 0.336797 0
0 0.343099 0
0.00128176 0.348989 0
0.0767834 0.348638 0
0.197086 0.341833 0
0.331426 0.331426 0
0.46862 0.320958 0
0.596536 0.312856 0
0.718578 0.306767 0
0.8383 0.300984 0
0.956847 0.29543 0
1 0.289616 0
1 0.283406 0
1 0.279835 0
1 0.278981 0
0 0.444099 0
0 0.443244 0
0 0.443061 0
0 0.450965 0
0 0.458503 0
0.0410773 0.459617 0
0.161425 0.453651 0
0.296239 0.444038 0
0.433494 0.433265 0
0.561685 0.425193 0
0.682979 0.41828 0
0.802045 0.411826 0
0.919295 0.404974 0
1 0.397833 0
1 0.390265 0
1 0.385519 0
1 0.38471 0
0 0.551781 0
0 0.550942 0
0 0.550576 0
0 0.559365 0
0 0.567224 0
0.0192569 0.568719 0
0.134249 0.562646 0
0.268147 0.552254 0
0.404395 0.540902 0
0.531228 0.531228 0
0.65124 0.523018 0
0.76849 0.514778 0
0.884443 0.506706 0
0.997192 0.498558 0
1 0.490227 0
1 0.485206 0
1 0.484276 0
0 0.658503 0
0 0.657679 0
0 0.657084 0
0 0.665217 0
0 0.672618 0
0.00384527 0.673106 0
0.109071 0.665873 0
0.241276 0.654078 0
0.375921 0.641001 0
0.501915 0.630213 0
0.62089 0.62089 0
0.737835 0.612131 0
0.853315 0.603571 0
0.9682 0.595163 0
1 0.586679 0
1 0.58114 0
1 0.580392 0
0 0.76173 0
0 0.760937 0
0 0.760143 0
0 0.766934 0
0 0.772747 0
0 0.772015 0
0.0810101 0.763592 0
0.212161 0.751049 0
0.346563 0.737591 0
0.472236 0.726177 0
0.591287 0.716838 0
0.707729 0.707729 0
0.823194 0.699138 0
0.937789 0.690455 0
1 0.681834 0
1 0.67602 0
1 0.675288 0
0 0.859449 0
0 0.858686 0
0 0.857786 0
0 0.863233 0
0 0.868727 0
0 0.867658 0
0.0523384 0.859312 0
0.183047 0.846601 0
0.317235 0.832807 0
0.443122 0.821286 0
0.561807 0.81149 0
0.678325 0.802411 0
0.793454 0.793454 0
0.908049 0.784787 0
1 0.775738 0
1 0.769604 0
1 0.768856 0
0 0.954604 0
0 0.953857 0
0 0.953109 0
0 0.958373 0
0 0.963409 0
0 0.962615 0
0.0235599 0.95407 0
0.153567 0.941238 0
0.287739 0.927275 0
0.413687 0.915328 0
0.532433 0.90547 0
0.648692 0.896071 0
0.763897 0.887175 0
0.878218 0.878218 0
0.986679 0.869398 0
1 0.86302 0
1 0.862287 0
0 1 0
0 1 0
0 1 0
0 1 0
0 1 0
0 1 0
0.000595102 1 0
0.123537 1 0
0.257603 1 0
0.383948 0.999115 0
0.502434 0.992523 0
0.618814 0.985656 0
0.733806 0.9785 0
0.84831 0.971374 0
0.962463 0.962798 0
1 0.956222 0
1 0.955489 0
0 1 0
0 1 0
0 1 0
0 1 0
0 1 0
0 1 0
0 1 0
0.101976 1 0
0.235935 1 0
0.362158 1 0
0.480674 1 0
0.596674 1 0
0.711711 1 0
0.825757 1 0
0.940307 1 0
1 1 0
1 1 0
0 1 0
0 1 0
0 1 0
0 1 0
0 1 0
0 1 0
0 1 0
0.0984512 1 0
0.232441 1 0
0.359014 1 0
0.477577 1 0
0.593637 1 0
0.708721 1 0
0.822751 1 0
0.937301 1 0
1 1 0
1 1 0
0 0 0.0175479
0 0 0.0171054
0.0155642 0 0.0158694
0.0682536 0 0.0132753
0.127291 0 0.00944533
0.214496 0 0.00117494
0.324804 0 0
0.447303 0 0
0.570031 0 0
0.682414 0 0
0.790875 0 0
0.897932 0 0
1 0 0
1 0 0
1 0 0
1 0 0
1 0 0
0 0 0.0160372
0 0 0.0155947
0.0141604 0 0.0144808
0.0668956 0 0.0120851
0.125597 0 0.00865187
0.211841 0 0.00115969
0.321798 0 0
0.444068 0 0
0.566918 0 0
0.679591 0 0
0.788235 0 0
0.895155 0 0
0.998062 0 0
1 0 0
1 0 0
1 0 0
1 0 0
0 0.0112764 0.0124971
0 0.0109407 0.0121767
0.0109712 0.0100404 0.0113069
0.0623941 0.00775158 0.00907912
0.120577 0.00453193 0.00598154
0.20589 0 0.000534066
0.315572 0 0
0.437888 0 0
0.561074 0 0
0.674495 0 0
0.783581 0 0
0.891157 0 0
0.995422 0 0
1 0 0
1 0 0
1 0 0
1 0 0
0 0.0543679 0.00445563
0 0.0540475 0.00436408
0.00341802 0.0527504 0.00375372
0.0484169 0.0484169 0.00166323
0.106081 0.0428779 0
0.190616 0.0301823 0
0.300664 0.011368 0
0.423941 0 0
0.549126 0 0
0.665263 0 0
0.777829 0 0
0.889601 0 0
0.993637 0 0
1 0 0
1 0 0
1 0 0
1 0 0
0 0.0989548 0
0 0.0985122 0
0 0.0974289 0
0.0312657 0.0940414 0
0.0901808 0.090074 0
0.175937 0.0798047 0
0.288716 0.0639658 0
0.415579 0.0458534 0
0.545388 0.0289921 0
0.666468 0.0157778 0
0.783337 0.00959792 0
0.898573 0.00596628 0
0.994873 0.00315862 0
1 0.000732433 0
1 0 0
1 0 0
1 0 0
0 0.158175 0
0 0.157595 0
0 0.156786 0
0.000320439 0.156237 0
0.0612955 0.15642 0
0.150744 0.150744 0
0.267872 0.139498 0
0.398657 0.125322 0
0.53196 0.111345 0
0.656321 0.10071 0
0.77554 0.092195 0
0.893385 0.0849622 0
0.993271 0.0783093 0
1 0.0724651 0
1 0.0666819 0
1 0.0637827 0
1 0.0629587 0
0 0.23975 0
0 0.239017 0
0 0.238758 0
0 0.242725 0
0.0241093 0.246159 0
0.116167 0.243793 0
0.234989 0.234775 0
0.368109 0.22298 0
0.503548 0.210956 0
0.630259 0.202045 0
0.7514 0.195193 0
0.87071 0.189136 0
0.984955 0.183719 0
1 0.178347 0
1 0.17319 0
1 0.170031 0
1 0.168978 0
0 0.337728 0
0 0.336889 0
0 0.33669 0
0 0.342947 0
0.00137331 0.348898 0
0.0766308 0.348547 0
0.197009 0.341726 0
0.331319 0.331319 0
0.468482 0.32079 0
0.596429 0.312688 0
0.71841 0.306538 0
0.838193 0.300572 0
0.95671 0.294987 0
1 0.289342 0
1 0.283116 0
1 0.2795 0
1 0.27863 0
0 0.443992 0
0 0.443122 0
0 0.442893 0
0 0.450797 0
0 0.458305 0
0.0408484 0.459449 0
0.161303 0.453285 0
0.296071 0.443656 0
0.433265 0.433051 0
0.561456 0.424918 0
0.68275 0.418006 0
0.801801 0.411521 0
0.919051 0.404669 0
1 0.397528 0
1 0.38999 0
1 0.385199 0
1 0.384405 0
0 0.551675 0
0 0.550805 0
0 0.55021 0
0 0.558953 0
0 0.566995 0
0.0190433 0.56846 0
0.133974 0.562402 0
0.267613 0.55201 0
0.404074 0.540627 0
0.530938 0.530938 0
0.65095 0.522728 0
0.768215 0.514488 0
0.884184 0.506416 0
0.996872 0.498268 0
1 0.489799 0
1 0.484749 0
1 0.48397 0
0 0.658289 0
0 0.657435 0
0 0.656794 0
0 0.664912 0
0 0.672312 0
0.00383001 0.672816 0
0.108751 0.665583 0
0.240726 0.653819 0
0.375601 0.640726 0
0.501671 0.629786 0
0.620661 0.620462 0
0.73756 0.611856 0
0.853056 0.603296 0
0.967926 0.594888 0
1 0.586404 0
1 0.580835 0
1 0.580087 0
0 0.761456 0
0 0.760632 0
0 0.759823 0
0 0.766598 0
0 0.772274 0
0 0.771572 0
0.0806897 0.763317 0
0.211627 0.750805 0
0.346242 0.737331 0
0.471946 0.725902 0
0.591012 0.716564 0
0.707454 0.707454 0
0.822934 0.698863 0
0.93753 0.690181 0
1 0.681559 0
1 0.675731 0
1 0.674846 0
0 0.858991 0
0 0.858244 0
0 0.857481 0
0 0.862898 0
0 0.868421 0
0 0.867384 0
0.0520333 0.859052 0
0.182513 0.846357 0
0.316915 0.832547 0
0.442832 0.821027 0
0.561532 0.811215 0
0.67805 0.802136 0
0.793225 0.793042 0
0.90782 0.784375 0
1 0.775479 0
1 0.769299 0
1 0.768566 0
0 0.954299 0
0 0.953552 0
0 0.952804 0
0 0.958053 0
0 0.963088 0
0 0.962325 0
0.0234531 0.953796 0
0.153063 0.940841 0
0.287465 0.926863 0
0.413397 0.915053 0
0.532158 0.905196 0
0.648417 0.895796 0
0.763638 0.8869 0
0.877958 0.877958 0
0.986618 0.869123 0
1 0.86273 0
1 0.861997 0
0 1 0
0 1 0
0 1 0
0 1 0
0 1 0
0 1 0
0.000595102 1 0
0.123003 1 0
0.257282 1 0
0.383474 0.99913 0
0.502144 0.992477 0
0.618555 0.985534 0
0.733532 0.978317 0
0.848035 0.97113 0
0.962203 0.962539 0
1 0.955779 0
1 0.955047 0
0 1 0
0 1 0
0 1 0
0 1 0
0 1 0
0 1 0
0 1 0
0.101366 1 0
0.235523 1 0
0.361608 1 0
0.480308 1 0
0.596307 1 0
0.71136 1 0
0.825391 1 0
0.939956 1 0
1 1 0
1 1 0
0 1 0
0 1 0
0 1 0
0 1 0
0 1 0
0 1 0
0 1 0
0.0978256 1 0
0.232029 1 0
0.35845 1 0
0.477226 1 0
0.593286 1 0
0.70837 1 0
0.8224 1 0
0.93695 1 0
1 1 0
1 1 0
0 0 0.0725109
0 0 0.0720836
0.0146487 0 0.070573
0.0670481 0 0.0671397
0.125795 0 0.0614481
0.212924 0 0.047837
0.323049 0 0.0277714
0.445609 0 0.00593576
0.5682 0 0.000122072
0.680964 0 0
0.789609 0 0
0.896895 0 0
1 0 0
1 0 0
1 0 0
1 0 0
1 0 0
0 0 0.071046
0 0 0.0706188
0.0133059 0 0.0691997
0.0656901 0 0.0657816
0.124102 0 0.0601816
0.210269 0 0.0468605
0.320043 0 0.0268711
0.442359 0 0.00491341
0.565072 0 0.000122072
0.678126 0 0
0.786801 0 0
0.894087 0 0
0.997742 0 0
1 0 0
1 0 0
1 0 0
