Fusion/LUTs/Alexandru-Don-LUTs-v2/Alexandru-Don-LUTs/Monitoring Luts/Monitoring Lut 7.cube
TITLE "Generated by Resolve"
LUT_3D_SIZE 17
0 0 0
0 0 0
0.0114595 0 0
0.0353246 0 0
0.0656901 0 0
0.118654 0 0
0.212879 0 0
0.346029 0 0
0.494224 0 0
0.625376 0 0
0.733425 0 0
0.827329 0 0
0.912276 0 0
0.984237 0 0
1 0 0
1 0 0
1 0 0
0 0.00308232 0
0 0.00282292 0
0.00952163 0.00234989 0
0.033402 0.00189212 0
0.0649424 0.000946059 0
0.119127 0 0
0.212482 0 0
0.344778 0 0
0.491951 0 0
0.623087 0 0
0.730953 0 0
0.826551 0 0
0.913481 0 0
0.985946 0 0
1 0 0
1 0 0
1 0 0
0 0.0191806 0
0 0.0185245 0
0.00662242 0.0165713 0
0.0276188 0.0140993 0
0.0593881 0.0100404 0
0.114855 0.00334173 0
0.209094 0.000106813 0
0.342412 0 0
0.491264 0 0
0.625711 0 0
0.737469 0 0
0.837903 0 0
0.932174 0 0
0.997314 0 0
1 0 0
1 0 0
1 0 0
0 0.036408 0
0 0.0352483 0
0.00341802 0.0333562 0
0.019913 0.0307469 0
0.0523537 0.0260471 0
0.108995 0.0155947 0
0.206958 0.00276188 0
0.349264 0 0
0.506508 0 0
0.646693 0 0
0.764858 0 0
0.870893 0 0
0.967971 0 0
1 0 0
1 0 0
1 0 0
1 0 0
0 0.0562295 0
0 0.0557259 0
0.000350958 0.0551919 0
0.00544747 0.0544137 0
0.0383612 0.051194 0
0.0977188 0.0426184 0
0.199588 0.0239414 0
0.349889 0.00317388 0
0.514397 0 0
0.659113 0 0
0.78175 0 0
0.892851 0 0
0.98967 0 0
1 0 0
1 0 0
1 0 0
1 0 0
0 0.0864576 0
0 0.0888075 0
0 0.0915236 0
0.000228885 0.0949874 0
0.0161135 0.0951095 0
0.074403 0.0895857 0
0.176394 0.0745556 0
0.332158 0.0472114 0
0.503456 0.0214084 0
0.65687 0.0100404 0
0.786328 0.00608835 0
0.904082 0.00451667 0
0.994171 0.00303655 0
1 0.00120546 0
1 0.00280766 0
1 0.00613413 0
1 0.00981155 0
0 0.136751 0
0 0.14313 0
0 0.149783 0
0 0.157321 0
0.000122072 0.161883 0
0.0343786 0.161822 0
0.137057 0.153857 0
0.300069 0.132372 0
0.480049 0.108003 0
0.642069 0.0904097 0
0.776898 0.0817578 0
0.898054 0.0782483 0
0.991882 0.0776226 0
1 0.0800641 0
1 0.0839094 0
1 0.0905165 0
1 0.100984 0
0 0.219577 0
0 0.230274 0
0 0.241138 0
0 0.253834 0
0 0.263935 0
0.00500496 0.269856 0
0.0801709 0.268544 0
0.245762 0.251637 0
0.430274 0.23122 0
0.597772 0.216373 0
0.734707 0.210407 0
0.857252 0.209079 0
0.9673 0.210468 0
0.999466 0.213443 0
1 0.217533 0
1 0.222278 0
1 0.23154 0
0 0.331258 0
0 0.346044 0
0 0.359869 0
0 0.37583 0
0 0.388479 0
0 0.398047 0
0.0259709 0.400854 0
0.188907 0.387533 0
0.374319 0.368872 0
0.544259 0.354452 0
0.681376 0.34844 0
0.802365 0.345968 0
0.913329 0.345617 0
0.989075 0.346044 0
1 0.34699 0
1 0.348638 0
1 0.35404 0
0 0.457511 0
0 0.473869 0
0 0.489357 0
0 0.505669 0
0 0.518959 0
0 0.529641 0
0.00363165 0.533639 0
0.147219 0.520699 0
0.33051 0.501167 0
0.499016 0.484474 0
0.633265 0.475898 0
0.751659 0.470054 0
0.85893 0.465919 0
0.956054 0.462821 0
0.999985 0.45977 0
1 0.457771 0
1 0.459464 0
0 0.582635 0
0 0.598917 0
0 0.613962 0
0 0.629435 0
0 0.642008 0
0 0.650828 0
0.00350958 0.651652 0
0.124987 0.635447 0
0.304189 0.612451 0
0.467811 0.59263 0
0.598459 0.580285 0
0.713375 0.571557 0
0.818448 0.564614 0
0.91545 0.559228 0
0.990311 0.554467 0
1 0.55108 0
1 0.549798 0
0 0.701015 0
0 0.715465 0
0 0.728603 0
0 0.741787 0
0 0.751965 0
0 0.75761 0
0.00280766 0.753964 0
0.104997 0.734356 0
0.280171 0.708278 0
0.44036 0.686091 0
0.568612 0.671656 0
0.68159 0.660685 0
0.784619 0.652201 0
0.880156 0.645304 0
0.968048 0.639139 0
0.999893 0.634638 0
1 0.631296 0
0 0.806592 0
0 0.818677 0
0 0.829114 0
0 0.839658 0
0 0.846906 0
0 0.849027 0
0.00108339 0.842451 0
0.0844739 0.820417 0
0.257939 0.793057 0
0.415854 0.769253 0
0.542763 0.753429 0
0.654078 0.74136 0
0.755749 0.731609 0
0.85008 0.723522 0
0.9393 0.716487 0
0.996048 0.710719 0
1 0.706523 0
0 0.899275 0
0 0.909087 0
0 0.917144 0
0 0.925628 0
0 0.931609 0
0 0.931456 0
0 0.92282 0
0.0669718 0.899336 0
0.236286 0.870497 0
0.392447 0.845747 0
0.51841 0.828641 0
0.628687 0.81593 0
0.729335 0.805432 0
0.822766 0.796445 0
0.911177 0.788708 0
0.984878 0.782162 0
1 0.777234 0
0 0.981125 0
0 0.988342 0
0 0.994018 0
0 0.996201 0
0 0.998642 0
0 0.998566 0
0 0.990539 0
0.0508583 0.97174 0
0.214969 0.943282 0
0.369711 0.917678 0
0.494926 0.900099 0
0.604212 0.886183 0
0.704219 0.874922 0
0.797147 0.86569 0
0.884688 0.857359 0
0.964477 0.850416 0
0.99881 0.844923 0
0 0.999802 0
0 1 0
0 1 0
0 1 0
0 1 0
0 1 0
0 1 0
0.0364996 0.999207 0
0.196292 0.994324 0
0.350515 0.982895 0
0.474784 0.966628 0
0.583261 0.952514 0
0.682643 0.940703 0
0.774823 0.930571 0
0.861784 0.921752 0
0.942412 0.914672 0
0.996582 0.908675 0
0 1 0
0 1 0
0 1 0
0 1 0
0 1 0
0 1 0
0 1 0
0.0256504 1 0
0.181994 1 0
0.333944 0.999939 0
0.457755 0.998276 0
0.565652 0.994736 0
0.664134 0.990265 0
0.755627 0.985321 0
0.841901 0.980255 0
0.92195 0.974197 0
0.992264 0.967651 0
0 0 0.00131228
0 0 0.0010071
0.0111849 0 0.000640879
0.0350805 0 0.000396735
0.065568 0 9.15541e-05
0.118578 0 0
0.212863 0 0
0.345861 0 0
0.493858 0 0
0.625116 0 0
0.732982 0 0
0.826871 0 0
0.911971 0 0
0.983932 0 0
1 0 0
1 0 0
1 0 0
0 0.0030518 0.000762951
0 0.00280766 0.000564584
0.0093843 0.00233463 0.000259403
0.0333562 0.0018616 0.000167849
0.0647898 0.000869764 1.5259e-05
0.118898 0 0
0.212238 0 0
0.344518 0 0
0.491722 0 0
0.622599 0 0
0.731044 0 0
0.827054 0 0
0.91429 0 0
0.986786 0 0
1 0 0
1 0 0
1 0 0
0 0.0191196 0.00030518
0 0.0183413 7.62951e-05
0.00640879 0.0162966 0
0.0273747 0.0138552 0
0.0592203 0.00979629 0
0.114549 0.00323491 0
0.209079 9.15541e-05 0
0.342657 0 0
0.491707 0 0
0.626978 0 0
0.739071 0 0
0.840467 0 0
0.935271 0 0
0.997787 0 0
1 0 0
1 0 0
1 0 0
0 0.0361028 0
0 0.0350042 0
0.00328069 0.0332036 0
0.0197452 0.0306096 0
0.0523995 0.0260777 0
0.109438 0.0156863 0
0.207813 0.0028687 0
0.351675 0 0
0.509438 0 0
0.650278 0 0
0.768917 0 0
0.874998 0 0
0.972107 0 0
1 0 0
1 0 0
1 0 0
1 0 0
0 0.0562142 0
0 0.0558328 0
0.000396735 0.0555581 0
0.00550851 0.0549477 0
0.0390631 0.052018 0
0.0994125 0.0436713 0
0.202686 0.0248417 0
0.354177 0.00341802 0
0.519081 0 0
0.663966 0 0
0.786435 0 0
0.897856 0 0
0.991455 0 0
1 0 0
1 0 0
1 0 0
1 0 0
0 0.0872053 0
0 0.0899062 0
0 0.0928359 0
0.000289921 0.0966354 0
0.0168917 0.0970626 0
0.076112 0.0914931 0
0.179995 0.0763256 0
0.337224 0.0489662 0
0.509606 0.022858 0
0.662593 0.0116579 0
0.792325 0.0074464 0
0.910338 0.00535592 0
0.995346 0.00343328 0
1 0.00239567 0
1 0.00479133 0
1 0.00799573 0
1 0.0117647 0
0 0.139086 0
0 0.145876 0
0 0.152712 0
0 0.160449 0
7.62951e-05 0.16556 0
0.0355535 0.165576 0
0.140368 0.157382 0
0.304906 0.136004 0
0.48574 0.111818 0
0.647135 0.0946975 0
0.781842 0.0863203 0
0.90312 0.0830549 0
0.994675 0.0829328 0
1 0.0852369 0
1 0.0893721 0
1 0.0961776 0
1 0.106828 0
0 0.223301 0
0 0.23444 0
0 0.245472 0
0 0.258289 0
0 0.269062 0
0.00567636 0.275273 0
0.0839551 0.27364 0
0.250675 0.257053 0
0.435798 0.2365 0
0.602823 0.221973 0
0.739651 0.21648 0
0.861692 0.215122 0
0.971588 0.216327 0
0.999649 0.219257 0
1 0.222629 0
1 0.227466 0
1 0.236789 0
0 0.336599 0
0 0.351522 0
0 0.365698 0
0 0.381369 0
0 0.394736 0
1.5259e-05 0.40444 0
0.0281682 0.406821 0
0.193622 0.39321 0
0.380011 0.37406 0
0.548836 0.359854 0
0.685496 0.353765 0
0.806363 0.351446 0
0.916915 0.351003 0
0.990143 0.35111 0
1 0.351705 0
1 0.353094 0
1 0.358282 0
0 0.463233 0
0 0.479759 0
0 0.495247 0
0 0.511528 0
0 0.525185 0
0 0.536278 0
0.00466926 0.539239 0
0.152651 0.525856 0
0.336156 0.505806 0
0.503014 0.48925 0
0.637049 0.480323 0
0.754879 0.474174 0
0.861845 0.469505 0
0.958434 0.466575 0
0.999969 0.46334 0
1 0.461219 0
1 0.462654 0
0 0.588388 0
0 0.604593 0
0 0.619501 0
0 0.634653 0
0 0.647272 0
0 0.65597 0
0.00437934 0.656443 0
0.12987 0.639551 0
0.308766 0.616297 0
0.471611 0.596384 0
0.601999 0.583856 0
0.716533 0.574914 0
0.821195 0.567666 0
0.917739 0.562081 0
0.990723 0.557153 0
1 0.55346 0
1 0.552361 0
0 0.706569 0
0 0.720836 0
0 0.733516 0
0 0.746395 0
0 0.756786 0
0 0.761776 0
0.00334173 0.757305 0
0.108583 0.737392 0
0.284184 0.711025 0
0.443626 0.688701 0
0.571572 0.674144 0
0.684306 0.663325 0
0.787152 0.654871 0
0.882307 0.647791 0
0.970245 0.64155 0
0.999924 0.636698 0
1 0.633433 0
0 0.811048 0
0 0.822873 0
0 0.832944 0
0 0.843214 0
0 0.850813 0
0 0.852659 0
0.00120546 0.845472 0
0.0875868 0.823133 0
0.261082 0.795239 0
0.418219 0.771527 0
0.545083 0.755657 0
0.656229 0.743496 0
0.757824 0.73373 0
0.852033 0.725628 0
0.941054 0.718318 0
0.996612 0.712749 0
1 0.708431 0
0 0.902876 0
0 0.912428 0
0 0.920058 0
0 0.928603 0
0 0.934386 0
0 0.934264 0
1.5259e-05 0.925261 0
0.0695964 0.901503 0
0.23949 0.872404 0
0.395087 0.847745 0
0.520653 0.83064 0
0.630686 0.817823 0
0.731044 0.807111 0
0.824369 0.798077 0
0.912795 0.790387 0
0.985946 0.783856 0
0.999985 0.778927 0
0 0.983673 0
0 0.990723 0
0 0.995132 0
0 0.99649 0
0 0.99884 0
0 0.999176 0
0 0.991745 0
0.0528267 0.97319 0
0.217746 0.944656 0
0.372015 0.919371 0
0.497063 0.901793 0
0.606165 0.887968 0
0.705959 0.87657 0
0.798581 0.867155 0
0.886076 0.858701 0
0.965469 0.85185 0
0.998901 0.846357 0
0 0.999878 0
0 1 0
0 1 0
0 1 0
0 1 0
0 1 0
0 1 0
0.0379187 0.999252 0
0.198688 0.99472 0
0.352483 0.984237 0
0.476509 0.968078 0
0.585031 0.953811 0
0.68426 0.942168 0
0.776303 0.932006 0
0.863218 0.92311 0
0.943511 0.915923 0
0.996902 0.909712 0
0 1 0
0 1 0
0 1 0
0 1 0
0 1 0
0 1 0
0 1 0
0.026688 1 0
0.184482 1 0
0.335744 0.999939 0
0.459342 0.998383 0
0.567056 0.99501 0
0.665476 0.990707 0
0.756878 0.985977 0
0.843091 0.981048 0
0.923049 0.975036 0
0.992599 0.968688 0
0 0 0.0179904
0 0 0.0168307
0.0106966 0 0.0144961
0.0345006 0 0.0124666
0.065095 0 0.00917067
0.118379 0 0.00360113
0.212604 0 0.000198367
0.345434 0 0
0.493202 0 0
0.624445 0 0
0.732296 0 0
0.8262 0 0
0.911421 0 0
0.983673 0 0
1 0 0
1 0 0
1 0 0
0 0.00292973 0.0152132
0 0.00273136 0.0143893
0.00903334 0.00224308 0.0127413
0.0328985 0.00172427 0.0112459
0.064332 0.000762951 0.00833143
0.118441 0 0.00267033
0.211505 0 3.0518e-05
0.343694 0 0
0.49102 0 0
0.622339 0 0
0.730892 0 0
0.827024 0 0
0.914992 0 0
0.987518 0 0
1 0 0
1 0 0
1 0 0
0 0.0186007 0.0113832
0 0.017792 0.0106355
0.00601205 0.0157931 0.00924697
0.0268254 0.0133516 0.00770581
0.0587778 0.0093843 0.00523384
0.114443 0.00306706 0.000885023
0.208804 7.62951e-05 0
0.342489 0 0
0.492653 0 0
0.627955 0 0
0.740764 0 0
0.843214 0 0
0.938231 0 0
0.998215 0 0
1 0 0
1 0 0
1 0 0
0 0.0354009 0.00675975
0 0.0343938 0.00622568
0.00311284 0.0327001 0.00534066
0.0193179 0.0302281 0.00433356
0.0523079 0.0259251 0.0027924
0.109743 0.0157626 0.000320439
0.209155 0.00297551 0
0.354192 0 0
0.51252 0 0
0.653635 0 0
0.772351 0 0
0.879011 0 0
0.975631 0 0
1 0 0
1 0 0
1 0 0
1 0 0
0 0.0560922 0
0 0.0558785 0
0.000442512 0.055848 0
0.00553903 0.055436 0.000167849
0.039826 0.0527504 0.000122072
0.100832 0.0446479 0
0.205585 0.0255589 0
0.358434 0.00360113 0
0.523491 0 0
0.668315 0 0
0.791363 0 0
0.903136 0 0
0.992676 0 0
1 0 0
1 0 0
1 0 0
1 0 0
0 0.0881514 0
0 0.0911727 0
0 0.0942092 0
0.00030518 0.0982834 0
0.0177768 0.0988632 0
0.0778515 0.0936294 0
0.183642 0.0783246 0
0.342428 0.0508125 0
0.514839 0.0247196 0
0.668101 0.0133211 0
0.798062 0.00872816 0
0.916335 0.00616464 0
0.996292 0.0039826 0
1 0.00430304 0
1 0.00674449 0
1 0.00979629 0
1 0.0137484 0
0 0.141146 0
0 0.148516 0
0 0.155505 0
0 0.163409 0
4.57771e-05 0.168704 0
0.036759 0.169268 0
0.143725 0.161212 0
0.31017 0.139803 0
0.491524 0.11603 0
0.652522 0.0993362 0
0.787289 0.0912642 0
0.908537 0.0880903 0
0.996292 0.0881056 0
1 0.090486 0
1 0.0946517 0
1 0.101854 0
1 0.111986 0
0 0.227329 0
0 0.238483 0
0 0.250065 0
0 0.263142 0
0 0.274144 0
0.00619516 0.280583 0
0.0874189 0.278645 0
0.255528 0.262013 0
0.441123 0.241443 0
0.607446 0.227146 0
0.743999 0.22182 0
0.866011 0.220554 0
0.975708 0.221592 0
0.999878 0.224552 0
1 0.228031 0
1 0.232654 0
1 0.241901 0
0 0.341634 0
0 0.356649 0
0 0.371298 0
0 0.387091 0
0 0.400549 0
4.57771e-05 0.410819 0
0.0314946 0.412726 0
0.198871 0.398733 0
0.38529 0.379446 0
0.553414 0.36524 0
0.68957 0.358953 0
0.810025 0.356451 0
0.920211 0.355657 0
0.991302 0.355459 0
1 0.355795 0
1 0.356786 0
1 0.362142 0
0 0.469062 0
0 0.485481 0
0 0.501015 0
0 0.517235 0
0 0.53109 0
0 0.541985 0
0.00549325 0.544305 0
0.157565 0.530358 0
0.341314 0.510338 0
0.507424 0.493797 0
0.64097 0.48481 0
0.758312 0.478309 0
0.865125 0.473625 0
0.960754 0.469932 0
0.999954 0.466407 0
1 0.464149 0
1 0.4654 0
0 0.594003 0
0 0.610407 0
0 0.625116 0
0 0.640131 0
0 0.652735 0
0 0.66128 0
0.00509651 0.660868 0
0.134249 0.643259 0
0.313466 0.619654 0
0.475059 0.599435 0
0.604974 0.586816 0
0.719326 0.577829 0
0.823682 0.570443 0
0.920409 0.564843 0
0.991058 0.559762 0
1 0.556115 0
1 0.554772 0
0 0.711452 0
0 0.725521 0
0 0.737865 0
0 0.750576 0
0 0.761212 0
0 0.765805 0
0.00387579 0.760922 0
0.112352 0.740291 0
0.287877 0.713695 0
0.446616 0.691524 0
0.574136 0.676768 0
0.686549 0.665919 0
0.789258 0.656901 0
0.884367 0.649775 0
0.971557 0.643702 0
0.999954 0.638758 0
1 0.635706 0
0 0.81532 0
0 0.826841 0
0 0.836912 0
0 0.846937 0
0 0.854093 0
0 0.855619 0
0.00148013 0.847944 0
0.090547 0.825269 0
0.264652 0.797574 0
0.421286 0.773709 0
0.547799 0.757702 0
0.658396 0.74548 0
0.759731 0.735683 0
0.853697 0.727413 0
0.942794 0.720119 0
0.997101 0.714488 0
1 0.709941 0
0 0.906294 0
0 0.915663 0
0 0.923384 0
0 0.931609 0
0 0.937423 0
0 0.936919 0
0.000198367 0.927337 0
0.0723125 0.903243 0
0.242023 0.87422 0
0.397147 0.849348 0
0.522545 0.832441 0
0.632517 0.819532 0
0.732952 0.808759 0
0.826215 0.799695 0
0.914229 0.791943 0
0.98677 0.785412 0
0.999985 0.780377 0
0 0.985962 0
0 0.992752 0
0 0.995865 0
0 0.99678 0
0 0.999023 0
0 0.999893 0
1.5259e-05 0.993088 0
0.0545968 0.974563 0
0.22005 0.946319 0
0.373907 0.921019 0
0.498878 0.903105 0
0.607721 0.889387 0
0.707378 0.878157 0
0.800061 0.868528 0
0.887541 0.860121 0
0.96643 0.853162 0
0.998962 0.847715 0
0 0.999939 0
0 1 0
0 1 0
0 1 0
0 1 0
0 1 0
0 1 0
0.0392767 0.999313 0
0.201205 0.995071 0
0.354253 0.985763 0
0.47837 0.969284 0
0.586542 0.955184 0
0.685466 0.943313 0
0.7776 0.933196 0
0.864454 0.924315 0
0.944518 0.917006 0
0.997223 0.910796 0
0 1 0
0 1 0
0 1 0
0 1 0
0 1 0
0 1 0
0 1 0
0.0276799 1 0
0.186496 1 0
0.337591 0.999939 0
0.460822 0.99852 0
0.568612 0.995285 0
0.666606 0.991165 0
0.758099 0.986511 0
0.844038 0.981674 0
0.923644 0.975723 0
0.99295 0.969329 0
0 0 0.0405585
0 0 0.0393835
0.0102846 0 0.0369726
0.033875 0 0.0344701
0.0644236 0 0.0298314
0.117754 0 0.0180667
0.211933 0 0.00320439
0.345159 0 0
0.492714 0 0
0.623941 0 0
0.731716 0 0
0.825696 0 0
0.911147 0 0
0.98352 0 0
1 0 0
1 0 0
1 0 0
0 0.00283818 0.0376593
0 0.00263981 0.0369573
0.0087892 0.00213626 0.0350805
0.0322881 0.0016022 0.0328222
0.0637064 0.000656138 0.0281987
0.117723 0 0.0165713
0.210788 0 0.00242618
0.343236 0 0
0.490654 0 0
0.622156 0 0
0.731136 0 0
0.827482 0 0
0.916243 0 0
0.988632 0 0
1 0 0
1 0 0
