Fusion/LUTs/Alexandru-Don-LUTs-v2/Alexandru-Don-LUTs/Monitoring Luts/Monitoring Lut 8.cube
TITLE "Generated by Resolve"
LUT_3D_SIZE 17
0.0147555 0.0211948 0.0270237
0.0147555 0.0211948 0.0270237
0.0147555 0.0211948 0.0270237
0.0147555 0.0211948 0.0270237
0.0308843 0.0226749 0.0291752
0.105943 0.0301366 0.0352789
0.238285 0.0493172 0.0449226
0.403311 0.0750896 0.0561685
0.558434 0.101366 0.0661021
0.702525 0.128923 0.0783703
0.828061 0.156268 0.0902571
0.907866 0.167819 0.0946975
0.937942 0.16907 0.0950332
0.937942 0.16907 0.0950332
0.937942 0.16907 0.0950332
0.937942 0.16907 0.0950332
0.937942 0.16907 0.0950332
0.0147555 0.0211948 0.0270237
0.0147555 0.0211948 0.0270237
0.0147555 0.0211948 0.0270237
0.0147555 0.0211948 0.0270237
0.0244907 0.0220951 0.0283818
0.0915694 0.0285801 0.0344549
0.218906 0.0462348 0.0434272
0.388022 0.0726635 0.0552682
0.544549 0.0988937 0.0651255
0.689448 0.126375 0.0771801
0.818998 0.154131 0.0894484
0.903746 0.167559 0.0946059
0.937942 0.16907 0.0950332
0.937942 0.16907 0.0950332
0.937942 0.16907 0.0950332
0.937942 0.16907 0.0950332
0.937942 0.16907 0.0950332
0.0147555 0.0211948 0.0270237
0.0147555 0.0211948 0.0270237
0.0147555 0.0211948 0.0270237
0.0147555 0.0211948 0.0270237
0.0202335 0.0216831 0.0277256
0.0810101 0.0275578 0.0337987
0.207187 0.0443885 0.0424964
0.37879 0.0711986 0.0547646
0.541039 0.0982986 0.0648966
0.690745 0.126665 0.0773022
0.823682 0.155047 0.0897993
0.908354 0.167712 0.094667
0.937881 0.16907 0.0950332
0.937942 0.16907 0.0950332
0.937942 0.16907 0.0950332
0.937942 0.16907 0.0950332
0.937942 0.16907 0.0950332
0.0164645 0.0267491 0.0289311
0.0159609 0.0250706 0.0283513
0.0155184 0.0236362 0.027863
0.0151675 0.0224918 0.0274815
0.0157626 0.0213474 0.0271611
0.0667277 0.0260471 0.0325322
0.189563 0.0417487 0.0410925
0.362905 0.0686961 0.0539101
0.527337 0.0958267 0.0638437
0.679149 0.124331 0.0762493
0.814633 0.152926 0.0888991
0.905089 0.167636 0.0946517
0.937407 0.169039 0.0950332
0.937942 0.16907 0.0950332
0.937942 0.16907 0.0950332
0.937942 0.16907 0.0950332
0.937942 0.16907 0.0950332
0.0300145 0.0631418 0.0457771
0.0284886 0.0593118 0.0437629
0.0277409 0.0574655 0.0428321
0.0270695 0.0557565 0.0419623
0.0250095 0.0505684 0.0393072
0.0521553 0.0449836 0.0384375
0.162112 0.0483864 0.0413214
0.330831 0.067628 0.0520943
0.499611 0.0921187 0.0619669
0.652186 0.119356 0.0739147
0.791196 0.147814 0.0867628
0.893217 0.167224 0.0944991
0.936248 0.168994 0.0950179
0.937942 0.16907 0.0950332
0.937942 0.16907 0.0950332
0.937942 0.16907 0.0950332
0.937942 0.16907 0.0950332
0.05449 0.121431 0.0796063
0.0518044 0.115633 0.0760204
0.0517586 0.115465 0.0759594
0.0518349 0.115389 0.0759594
0.0491035 0.109239 0.0722515
0.0577401 0.0996109 0.0673075
0.134417 0.100099 0.0608377
0.28983 0.106844 0.0565805
0.459953 0.120516 0.0628824
0.613977 0.139681 0.0733654
0.756069 0.162753 0.085771
0.872419 0.181964 0.0952926
0.935103 0.182528 0.096376
0.938277 0.17969 0.0960861
0.938201 0.177279 0.0958267
0.93817 0.176135 0.0957198
0.93814 0.175021 0.095613
0.0923476 0.197024 0.125566
0.0890669 0.190677 0.121767
0.0895399 0.191623 0.122393
0.0901198 0.192813 0.123156
0.0870222 0.186786 0.119539
0.0827039 0.174792 0.112322
0.127642 0.168276 0.107942
0.243046 0.170382 0.0830701
0.414649 0.174624 0.0762341
0.570428 0.189166 0.0828717
0.714488 0.2094 0.0914778
0.842512 0.231601 0.10103
0.922057 0.236332 0.103624
0.940368 0.231037 0.102907
0.940139 0.225589 0.102022
0.940002 0.222629 0.101579
0.939864 0.219638 0.101137
0.136584 0.283162 0.177142
0.133059 0.276326 0.17293
0.13431 0.278767 0.174456
0.135576 0.281193 0.175967
0.132601 0.275364 0.172442
0.126085 0.262242 0.164508
0.152224 0.248951 0.157565
0.220325 0.248936 0.145129
0.363622 0.253544 0.110094
0.527184 0.257343 0.103319
0.670451 0.271595 0.109148
0.804852 0.289998 0.11632
0.904265 0.300481 0.120043
0.943267 0.295674 0.12015
0.943008 0.288426 0.117861
0.942794 0.28397 0.116426
0.942611 0.279927 0.115114
0.186084 0.375402 0.234943
0.182879 0.369619 0.231281
0.184497 0.37258 0.233127
0.185946 0.375158 0.23476
0.183032 0.369955 0.231464
0.175738 0.356588 0.223011
0.187549 0.340703 0.213474
0.242481 0.333379 0.20798
0.328176 0.3411 0.181079
0.479133 0.343099 0.14081
0.630533 0.34551 0.13257
0.766094 0.355688 0.136294
0.879896 0.366506 0.140703
0.94313 0.36376 0.142733
0.946548 0.354986 0.140703
0.946181 0.348638 0.138415
0.945891 0.343572 0.136584
0.238056 0.465507 0.292042
0.235309 0.460792 0.289036
0.237324 0.464256 0.291234
0.238682 0.466575 0.292714
0.23537 0.460899 0.289113
0.227405 0.447242 0.280446
0.22768 0.430289 0.269902
0.27686 0.41738 0.262684
0.340398 0.419471 0.254185
0.433478 0.429389 0.212879
0.584619 0.428107 0.17319
0.731579 0.427482 0.161822
0.852644 0.433509 0.163561
0.932937 0.432532 0.164858
0.950957 0.423941 0.166567
0.950408 0.415564 0.163378
0.950011 0.409537 0.161074
0.288884 0.553033 0.347433
0.286549 0.54902 0.344884
0.288273 0.55198 0.346761
0.289113 0.553429 0.347692
0.285237 0.546777 0.343465
0.276799 0.532189 0.334234
0.270253 0.514183 0.322896
0.311589 0.497902 0.313481
0.368063 0.493095 0.308431
0.434043 0.500481 0.290043
0.536263 0.508736 0.241001
0.687068 0.504631 0.204974
0.823514 0.502663 0.191516
0.921019 0.502358 0.190112
0.95555 0.494194 0.194705
0.955001 0.484352 0.190616
0.954543 0.477806 0.187884
0.337667 0.637385 0.400992
0.335637 0.63389 0.398764
0.336812 0.635904 0.400061
0.336934 0.636103 0.400198
0.332464 0.628367 0.39527
0.323354 0.612589 0.385229
0.315435 0.593713 0.373297
0.34461 0.575418 0.362356
0.396109 0.565484 0.356634
0.453483 0.568246 0.350057
0.522377 0.577523 0.322545
0.633585 0.583886 0.267948
0.782269 0.577981 0.23595
0.901686 0.572686 0.219516
0.95874 0.565759 0.22591
0.959716 0.555093 0.222431
0.959243 0.547906 0.218982
0.383032 0.716503 0.450675
0.38088 0.712749 0.448341
0.381537 0.713848 0.449027
0.380835 0.712627 0.448264
0.376196 0.704433 0.443168
0.367208 0.688731 0.433371
0.357595 0.669596 0.421393
0.377447 0.650462 0.40972
0.424125 0.63743 0.402243
0.478309 0.63592 0.399084
0.536309 0.642222 0.386114
0.612558 0.651698 0.347402
0.732387 0.654749 0.297108
0.866041 0.648371 0.267353
0.951507 0.63827 0.257542
0.963348 0.627085 0.260533
0.963119 0.619333 0.256016
0.42269 0.787411 0.494408
0.420859 0.784115 0.492363
0.421149 0.784634 0.492683
0.420035 0.78265 0.491463
0.415824 0.775082 0.486809
0.407279 0.759731 0.477363
0.397131 0.74136 0.466056
0.409522 0.722896 0.454978
0.451987 0.708125 0.446372
0.503166 0.703395 0.443854
0.557397 0.706462 0.438346
0.617533 0.714305 0.419104
0.700938 0.723857 0.369253
0.821118 0.724498 0.325567
0.931838 0.715862 0.305318
0.96141 0.702876 0.306523
0.962219 0.693721 0.300786
0.450568 0.842298 0.524804
0.44976 0.840497 0.523949
0.449897 0.840848 0.524086
0.449287 0.839353 0.523445
0.447089 0.834287 0.521096
0.44242 0.823819 0.516106
0.434043 0.807935 0.506889
0.438819 0.790692 0.496605
0.478218 0.775708 0.487907
0.526375 0.768887 0.484855
0.579293 0.769253 0.482826
0.633967 0.775174 0.473091
0.69836 0.783886 0.447471
0.789136 0.791852 0.392187
0.897063 0.790066 0.358282
0.953719 0.778653 0.356847
0.955077 0.7691 0.350164
0.455055 0.854124 0.529458
0.455055 0.854124 0.529458
0.455055 0.854124 0.529458
0.455055 0.854124 0.529458
0.455039 0.854078 0.529442
0.454353 0.852293 0.52874
0.452659 0.847883 0.526986
0.458808 0.841764 0.52462
0.498421 0.834241 0.52224
0.5458 0.828443 0.520684
0.59913 0.828244 0.521706
0.653956 0.832166 0.519127
0.709468 0.839246 0.504479
0.778256 0.847852 0.469108
0.868147 0.852903 0.418021
0.940063 0.847669 0.409094
0.94757 0.838437 0.401785
0.455055 0.854124 0.529458
0.455055 0.854124 0.529458
0.455055 0.854124 0.529458
0.455055 0.854124 0.529458
0.455055 0.854124 0.529458
0.455055 0.854124 0.529458
0.455055 0.854124 0.529458
0.460105 0.85449 0.529839
0.498116 0.857191 0.532647
0.548531 0.861814 0.536736
0.611032 0.871977 0.547738
0.672465 0.879774 0.555871
0.728161 0.888716 0.554559
0.786618 0.896666 0.540825
0.854734 0.904021 0.504158
0.929641 0.905592 0.467277
0.94641 0.898695 0.453956
0.0147555 0.0211948 0.0270237
0.0147555 0.0211948 0.0270237
0.0147555 0.0211948 0.0270237
0.0147555 0.0211948 0.0270237
0.0301976 0.0226139 0.029099
0.104463 0.0299535 0.0351873
0.236011 0.0489509 0.0447547
0.401358 0.0747845 0.0560464
0.555734 0.100877 0.0659037
0.700023 0.12842 0.0781415
0.826047 0.15581 0.090074
0.906935 0.167773 0.0946822
0.937942 0.16907 0.0950332
0.937942 0.16907 0.0950332
0.937942 0.16907 0.0950332
0.937942 0.16907 0.0950332
0.937942 0.16907 0.0950332
0.0147555 0.0211948 0.0270237
0.0147555 0.0211948 0.0270237
0.0147555 0.0211948 0.0270237
0.0147555 0.0211948 0.0270237
0.0240787 0.0220493 0.0283207
0.0907301 0.0285039 0.0343938
0.217243 0.0459754 0.0433051
0.386069 0.0723583 0.0551614
0.543069 0.0986343 0.0650187
0.688167 0.126116 0.0770581
0.817792 0.153826 0.0893263
0.903151 0.167498 0.0945907
0.937942 0.16907 0.0950332
0.937942 0.16907 0.0950332
0.937942 0.16907 0.0950332
0.937942 0.16907 0.0950332
0.937942 0.16907 0.0950332
0.0147555 0.0211948 0.0270237
0.0147555 0.0211948 0.0270237
0.0147555 0.0211948 0.0270237
0.0147555 0.0211948 0.0270237
0.0199435 0.0216526 0.0276799
0.0804456 0.0274968 0.0337377
0.206226 0.0442512 0.0424048
0.378347 0.0711376 0.0547494
0.540169 0.0981308 0.0648203
0.690639 0.126635 0.0773022
0.823636 0.155001 0.0897841
0.908446 0.167727 0.094667
0.937835 0.16907 0.0950332
0.937942 0.16907 0.0950332
0.937942 0.16907 0.0950332
0.937942 0.16907 0.0950332
0.937942 0.16907 0.0950332
0.0163424 0.0263218 0.0287938
0.0158541 0.0247196 0.0282292
0.0154726 0.0235294 0.0278172
0.0151522 0.0224918 0.0274662
0.0157015 0.0213626 0.0271611
0.0670176 0.0260471 0.0325475
0.190127 0.0418402 0.0411383
0.36318 0.0687419 0.0539406
0.52781 0.0959182 0.0638895
0.679683 0.124437 0.0763104
0.814908 0.152972 0.0889296
0.905501 0.167681 0.094667
0.937346 0.169039 0.0950332
0.937942 0.16907 0.0950332
0.937942 0.16907 0.0950332
0.937942 0.16907 0.0950332
0.937942 0.16907 0.0950332
0.0301366 0.0634775 0.0459754
0.0286107 0.0596628 0.0439765
0.0279088 0.0578622 0.0430457
0.0272679 0.05626 0.0422217
0.0252232 0.0510719 0.0395666
0.0527352 0.0456855 0.0387427
0.163119 0.049012 0.0415351
0.332036 0.0681163 0.0522164
0.500587 0.0925612 0.0620432
0.653284 0.119722 0.0740368
0.792325 0.148135 0.0868696
0.893797 0.167239 0.0945144
0.936492 0.169009 0.0950179
0.937942 0.16907 0.0950332
0.937942 0.16907 0.0950332
0.937942 0.16907 0.0950332
0.937942 0.16907 0.0950332
0.0550088 0.122637 0.0803235
0.0522316 0.116655 0.0766461
0.0522164 0.116426 0.0765545
0.0523995 0.116609 0.0767071
0.0496376 0.110399 0.0729686
0.0585641 0.100832 0.06804
0.135973 0.101564 0.0614328
0.291386 0.108034 0.0568551
0.461662 0.121782 0.0632181
0.615763 0.140871 0.0736248
0.757626 0.163851 0.0859998
0.873533 0.183139 0.0954604
0.935454 0.183261 0.096437
0.938293 0.180148 0.0961318
0.938216 0.177737 0.0958724
0.93817 0.176516 0.0957504
0.93814 0.175357 0.0956436
0.0932479 0.198749 0.126589
0.0898909 0.192279 0.122744
0.090486 0.193454 0.123507
0.0910353 0.194553 0.124193
0.0879072 0.18851 0.120592
0.0838178 0.176822 0.113558
0.129305 0.170047 0.109026
0.24535 0.172305 0.0838026
0.417014 0.176425 0.0768597
0.572686 0.19086 0.0834058
0.71664 0.211307 0.0920577
0.844266 0.233188 0.101411
0.922789 0.237385 0.103853
0.940414 0.232227 0.103166
0.940169 0.226551 0.102144
0.940032 0.223438 0.101686
0.93991 0.220554 0.101259
0.137743 0.285435 0.178531
0.134188 0.278569 0.174258
0.135485 0.281041 0.175845
0.136767 0.283528 0.177386
0.133761 0.277623 0.173816
0.127489 0.264668 0.165988
0.154299 0.251301 0.158984
0.222461 0.251499 0.146471
0.36614 0.255863 0.110979
0.529931 0.259617 0.104051
0.673243 0.273686 0.109804
0.806851 0.291768 0.116869
0.90547 0.301839 0.1205
0.94342 0.296971 0.120577
0.943053 0.289555 0.118227
0.94284 0.285069 0.116793
0.942641 0.280812 0.115434
0.187518 0.377935 0.236545
0.184237 0.372061 0.232807
0.185992 0.375265 0.234821
0.187488 0.377905 0.236515
0.184329 0.372259 0.232929
0.177096 0.358953 0.224506
0.18967 0.343297 0.215122
0.244724 0.33576 0.209445
0.330953 0.343572 0.182254
0.48127 0.345724 0.142092
0.632807 0.347784 0.133349
0.768566 0.357687 0.13698
0.881315 0.367926 0.141161
0.942992 0.364828 0.143069
0.946624 0.356069 0.1411
0.946242 0.349599 0.13875
0.945937 0.344457 0.136904
0.23946 0.467933 0.293584
0.236728 0.463249 0.290593
0.238743 0.466697 0.292775
0.24007 0.468956 0.294224
0.236698 0.463188 0.290578
0.228656 0.449378 0.281804
0.229389 0.432609 0.271382
0.278904 0.419501 0.264027
0.34255 0.421607 0.255436
0.43534 0.431571 0.213931
0.58674 0.429938 0.17377
0.733806 0.429038 0.16231
0.853925 0.435126 0.164141
0.933532 0.433783 0.165408
0.951049 0.424979 0.166949
0.950484 0.41677 0.163836
0.950088 0.410681 0.161517
0.290257 0.555413 0.348943
0.287892 0.551324 0.346334
0.289525 0.554147 0.348135
0.290379 0.555611 0.349065
0.286397 0.54876 0.344717
0.277836 0.533989 0.335363
0.271992 0.515969 0.324041
0.313146 0.499565 0.314534
0.369879 0.495003 0.309575
0.43563 0.502327 0.29099
0.538262 0.510277 0.241672
0.688746 0.506325 0.205737
0.825177 0.504097 0.192096
0.921752 0.503731 0.190753
0.955627 0.495277 0.195178
0.955077 0.48574 0.191211
0.954635 0.478935 0.188357
0.338994 0.639704 0.402457
0.336751 0.635813 0.399985
0.337896 0.637766 0.401251
0.337957 0.637873 0.401328
0.333379 0.629953 0.396277
0.324346 0.614313 0.386328
0.316625 0.595331 0.374319
0.346014 0.576806 0.363241
0.397681 0.567193 0.357717
0.454948 0.569894 0.350973
0.524056 0.57908 0.323171
0.635035 0.585657 0.268605
0.783642 0.579293 0.2365
0.902815 0.57406 0.220081
0.958709 0.566995 0.226322
0.959792 0.556207 0.22295
0.959335 0.549142 0.219562
0.383871 0.717998 0.451606
0.381872 0.714488 0.449409
0.382406 0.715404 0.449989
0.381628 0.714015 0.449134
0.377142 0.706081 0.44419
0.367971 0.690074 0.434211
0.358465 0.671077 0.422324
0.378973 0.652049 0.410727
0.425467 0.638788 0.403098
0.479759 0.637278 0.399893
0.537652 0.643626 0.386892
0.614038 0.652979 0.348028
0.733776 0.656214 0.297795
0.86717 0.649866 0.268116
0.951629 0.639643 0.258778
0.963378 0.628458 0.261326
0.963149 0.620508 0.256703
0.423529 0.788922 0.495338
0.421668 0.785565 0.493248
0.42182 0.78584 0.493416
0.420706 0.783871 0.49221
0.41651 0.776318 0.487572
0.408026 0.76109 0.478187
0.39794 0.742702 0.466896
0.410681 0.724224 0.455817
0.453285 0.709331 0.44715
0.504509 0.704845 0.44477
0.558663 0.707866 0.439139
0.619058 0.715755 0.419699
0.702235 0.725307 0.370214
0.822538 0.725765 0.326253
0.932204 0.717144 0.306416
0.961257 0.70428 0.307424
0.962081 0.694972 0.301595
0.450767 0.842817 0.525002
0.449943 0.84097 0.524132
0.450141 0.841443 0.524361
0.449683 0.840238 0.523873
0.447562 0.835264 0.521614
0.442985 0.824933 0.516732
0.434699 0.809079 0.507622
0.43978 0.792004 0.497398
0.479393 0.776959 0.488701
0.527703 0.77026 0.485695
0.580591 0.770535 0.483604
0.635325 0.77644 0.473716
0.699626 0.785183 0.448051
0.790433 0.793057 0.392813
0.897734 0.791348 0.359396
0.953277 0.779904 0.357656
0.954925 0.770291 0.351019
0.455055 0.854124 0.529458
0.455055 0.854124 0.529458
0.455055 0.854124 0.529458
0.455055 0.854124 0.529458
0.455055 0.854109 0.529458
0.454459 0.852552 0.528847
0.452811 0.848264 0.527138
0.459556 0.842512 0.524956
0.499352 0.835172 0.522774
0.546944 0.829572 0.521401
0.600366 0.829328 0.522423
0.655283 0.833356 0.51989
0.710872 0.84033 0.505135
0.779644 0.849042 0.469886
0.869261 0.853925 0.418967
0.940093 0.848646 0.409949
0.947463 0.839628 0.402747
0.455055 0.854124 0.529458
0.455055 0.854124 0.529458
0.455055 0.854124 0.529458
0.455055 0.854124 0.529458
0.455055 0.854124 0.529458
0.455055 0.854124 0.529458
0.455055 0.854124 0.529458
0.460304 0.854505 0.529854
0.498589 0.857221 0.532692
0.549233 0.861891 0.536797
0.611841 0.872541 0.548089
0.673625 0.880934 0.556497
0.729427 0.889799 0.555276
0.787976 0.897765 0.541833
0.855787 0.904906 0.504845
0.930129 0.906584 0.468177
0.946441 0.899702 0.454887
0.0147555 0.0211948 0.0270237
0.0147555 0.0211948 0.0270237
0.0147555 0.0211948 0.0270237
0.0147555 0.0211948 0.0270237
0.0294194 0.0225376 0.0290074
0.102815 0.0297551 0.0350958
0.233845 0.0486152 0.0445869
0.399695 0.0745251 0.0559548
0.554696 0.100694 0.0658274
0.698894 0.128206 0.0780346
0.825315 0.155642 0.090013
0.9066 0.167758 0.0946822
0.937942 0.16907 0.0950332
0.937942 0.16907 0.0950332
0.937942 0.16907 0.0950332
0.937942 0.16907 0.0950332
0.937942 0.16907 0.0950332
0.0147555 0.0211948 0.0270237
0.0147555 0.0211948 0.0270237
0.0147555 0.0211948 0.0270237
0.0147555 0.0211948 0.0270237
0.023682 0.0220188 0.0282597
0.0894636 0.0283818 0.0343328
0.216342 0.0458228 0.0432288
0.385443 0.0722515 0.0551156
0.542885 0.0986038 0.0650034
0.688197 0.126131 0.0770581
0.818173 0.153918 0.0893568
0.903624 0.167498 0.0945907
0.937942 0.16907 0.0950332
0.937942 0.16907 0.0950332
0.937942 0.16907 0.0950332
0.937942 0.16907 0.0950332
0.937942 0.16907 0.0950332
0.0147555 0.0211948 0.0270237
0.0147555 0.0211948 0.0270237
0.0147555 0.0211948 0.0270237
0.0147555 0.0211948 0.0270237
0.0195315 0.021622 0.0276188
0.0799268 0.0274357 0.0336919
0.206104 0.0442359 0.0424048
0.378866 0.0712139 0.0547799
0.541268 0.0983291 0.0648966
0.691722 0.126848 0.0773938
0.824857 0.155261 0.0898909
0.909331 0.167773 0.0946822
0.937865 0.16907 0.0950332
0.937942 0.16907 0.0950332
0.937942 0.16907 0.0950332
0.937942 0.16907 0.0950332
0.937942 0.16907 0.0950332
0.0161746 0.0257877 0.0285954
0.0157015 0.0242618 0.0280766
0.0154116 0.0232853 0.0277409
0.0151217 0.022385 0.0274357
0.0156405 0.0213474 0.0271611
0.0672007 0.0260624 0.0325475
0.191028 0.0419776 0.0412146
0.364553 0.0689555 0.0540169
0.529397 0.0961929 0.0639963
0.681422 0.124788 0.076463
0.816709 0.153368 0.0890822
0.906523 0.167742 0.0946822
0.937392 0.169039 0.0950332
0.937942 0.16907 0.0950332
0.937942 0.16907 0.0950332
0.937942 0.16907 0.0950332
0.937942 0.16907 0.0950332
0.0302739 0.0638132 0.0461738
0.0287327 0.0599527 0.0441444
0.0280919 0.0583505 0.0433051
0.0274815 0.0567941 0.0425116
0.0255131 0.0518196 0.0399634
0.0536965 0.0465553 0.0391546
0.164874 0.0501564 0.0418402
0.334005 0.0689097 0.0523842
0.502998 0.0933242 0.062211
0.655634 0.120348 0.0742504
0.79472 0.14876 0.0870985
0.894987 0.167285 0.0945296
0.936706 0.169009 0.0950179
0.937942 0.16907 0.0950332
0.937942 0.16907 0.0950332
0.937942 0.16907 0.0950332
0.937942 0.16907 0.0950332
0.0555276 0.123827 0.0810254
0.052781 0.117876 0.0773785
0.0529183 0.117952 0.0774701
0.0529946 0.117922 0.0775006
0.0503853 0.112016 0.0739452
0.0597848 0.102464 0.0690471
0.138079 0.103395 0.0621195
0.293797 0.109911 0.0572976
0.464134 0.123537 0.0636301
0.61857 0.142779 0.0740368
0.760586 0.165728 0.0864424
0.875364 0.184863 0.0957351
0.935744 0.184131 0.0965286
0.938338 0.181048 0.0962234
0.938247 0.178515 0.0959487
0.938201 0.177218 0.0958114
0.938155 0.175998 0.0957046
0.0942855 0.200732 0.127779
0.0908064 0.194049 0.123796
0.0914168 0.195285 0.124605
0.092134 0.196674 0.125444
0.0890059 0.190661 0.121874
0.0851301 0.17879 0.114763
0.131563 0.172442 0.11043
0.247822 0.17467 0.0847944
0.419989 0.178805 0.0776532
0.57583 0.193286 0.0841993
0.719676 0.213535 0.0927443
0.846494 0.235309 0.101915
0.923873 0.239155 0.104204
0.94049 0.233692 0.103471
0.940246 0.228107 0.102388
0.940108 0.225071 0.10193
0.939971 0.221973 0.101472
0.138827 0.287541 0.179797
0.135317 0.280781 0.175616
0.13669 0.283406 0.177279
0.138003 0.285969 0.178866
0.135027 0.28011 0.175326
0.128847 0.266972 0.167391
0.156497 0.25362 0.160388
0.224903 0.254322 0.147936
0.369238 0.258656 0.111971
0.532845 0.262348 0.104921
0.676081 0.276188 0.110582
0.809323 0.294118 0.117601
0.906645 0.303639 0.121065
0.943496 0.298573 0.121111
0.94313 0.291173 0.11873
0.942916 0.286442 0.11722
0.942702 0.282231 0.115892
0.188769 0.380133 0.237934
0.185641 0.374578 0.234409
0.18732 0.377646 0.236332
0.188861 0.380316 0.238041
0.185794 0.374853 0.234592
0.178515 0.36144 0.226093
0.191775 0.345586 0.216587
0.247303 0.338476 0.211124
0.333837 0.346227 0.183459
0.483894 0.348058 0.14316
0.635431 0.350195 0.134173
0.770886 0.359869 0.137728
0.88278 0.369665 0.141741
0.94316 0.366339 0.143633
0.946715 0.357504 0.141634
0.946319 0.350942 0.139254
0.946014 0.345815 0.137407
0.240848 0.470329 0.295079
0.238163 0.46569 0.292134
0.240131 0.469078 0.294286
0.241535 0.471458 0.295811
0.238041 0.465476 0.292027
0.229953 0.451591 0.283207
0.23154 0.434867 0.272831
0.281025 0.421668 0.2654
0.344549 0.42385 0.25687
0.437583 0.433524 0.214664
0.588724 0.431952 0.174533
0.735866 0.430808 0.162905
0.855543 0.436835 0.164752
0.934188 0.435157 0.166003
0.951125 0.426291 0.167452
0.950591 0.418158 0.164355
0.950179 0.411963 0.162005
0.291432 0.557427 0.35021
0.289097 0.553414 0.347662
0.290776 0.556313 0.349508
0.291569 0.557702 0.350393
0.287526 0.550698 0.345953
0.278874 0.535775 0.336507
0.273594 0.517754 0.325185
0.314794 0.501244 0.315602
0.371633 0.496788 0.310658
0.437308 0.504021 0.291814
0.540032 0.511955 0.242527
0.690471 0.508049 0.2065
0.826688 0.505608 0.192721
0.922805 0.505058 0.191363
0.955734 0.496773 0.195819
0.955169 0.487022 0.191745
0.954711 0.480186 0.188891
0.339879 0.64123 0.403418
0.337774 0.637568 0.401099
0.338842 0.639429 0.402304
0.338888 0.63949 0.40235
0.334249 0.631464 0.397238
0.325124 0.615671 0.387182
0.317662 0.596719 0.375204
0.347387 0.578256 0.364172
0.399069 0.568551 0.358572
0.456413 0.571405 0.351781
0.525704 0.580682 0.323888
0.63624 0.587106 0.269184
0.785122 0.580697 0.237079
0.903944 0.575387 0.22063
0.958679 0.568124 0.226688
0.959884 0.557443 0.223545
0.959411 0.550439 0.220172
0.384543 0.719188 0.452338
0.382559 0.715648 0.450141
0.383078 0.716579 0.450721
0.382361 0.715297 0.449928
0.377783 0.707225 0.444923
0.368643 0.691249 0.434943
0.359167 0.672312 0.423087
0.380102 0.653254 0.41149
0.426703 0.64007 0.403906
0.481071 0.638651 0.400763
0.538903 0.644907 0.387594
0.615717 0.654337 0.348623
0.735119 0.657572 0.298421
0.868147 0.651087 0.268742
0.951949 0.640909 0.259892
0.963424 0.62974 0.262089
0.963195 0.621866 0.257496
0.423941 0.789639 0.495781
0.422126 0.786389 0.493751
0.422339 0.786801 0.493996
0.421241 0.784817 0.49279
0.417044 0.777249 0.488151
0.408591 0.762097 0.478798
0.398505 0.743664 0.467475
0.411704 0.725307 0.456489
0.454353 0.710384 0.447807
0.505714 0.705913 0.445441
0.559945 0.709087 0.43978
0.620325 0.71696 0.420218
0.703593 0.726421 0.370581
0.823621 0.726925 0.326894
0.932647 0.718273 0.307271
0.961151 0.705318 0.30811
0.961975 0.696132 0.302342
0.450813 0.842954 0.525063
0.450065 0.841276 0.524254
0.450248 0.841688 0.524468
0.449821 0.840543 0.524025
0.447913 0.835981 0.522011
0.443336 0.825589 0.517113
0.435264 0.810056 0.508247
0.440558 0.792813 0.497902
0.4804 0.777951 0.489311
0.528618 0.771176 0.48629
0.581582 0.771557 0.484215
0.636286 0.777539 0.474342
0.700862 0.786175 0.44831
0.791485 0.794049 0.393301
0.898573 0.792233 0.360128
0.953033 0.78085 0.358297
0.954818 0.771344 0.351766
0.455055 0.854124 0.529458
0.455055 0.854124 0.529458
0.455055 0.854124 0.529458
0.455055 0.854124 0.529458
0.455055 0.854124 0.529458
0.45452 0.85272 0.528908
0.452918 0.848508 0.527245
0.460151 0.843 0.525185
0.500145 0.83595 0.523171
0.547738 0.830289 0.521828
0.601328 0.830167 0.522988
0.656229 0.83418 0.520394
0.711971 0.841337 0.505776
0.780621 0.84979 0.470344
0.870298 0.854704 0.419623
0.940276 0.849378 0.410605
0.947433 0.840482 0.403433
0.455055 0.854124 0.529458
0.455055 0.854124 0.529458
0.455055 0.854124 0.529458
0.455055 0.854124 0.529458
0.455055 0.854124 0.529458
0.455055 0.854124 0.529458
0.455055 0.854124 0.529458
0.46041 0.854505 0.52987
0.498924 0.857252 0.532708
0.549584 0.861952 0.536858
0.612528 0.87274 0.548257
0.674434 0.881621 0.556878
0.730098 0.890288 0.555459
0.7888 0.898451 0.542367
0.856565 0.905715 0.505623
0.930495 0.907134 0.46865
0.946487 0.900526 0.455741
0.0147097 0.0212863 0.0311437
0.0147097 0.0212863 0.0310674
0.014725 0.0212406 0.029572
0.0147402 0.0212253 0.0283513
0.0285496 0.0224613 0.0291142
0.100938 0.0295262 0.0349889
0.231495 0.048249 0.0443885
0.397421 0.0741588 0.0558175
