Fusion/LUTs/Alexandru-Don-LUTs-v2/Alexandru-Don-LUTs/Monitoring Luts/Monitoring Lut 7.cube
TITLE "Generated by Resolve"
LUT_3D_SIZE 5
0 0 0
0.0656901 0 0
0.494224 0 0
0.912276 0 0
1 0 0
0 0.0562295 0
0.0383612 0.051194 0
0.514397 0 0
0.98967 0 0
1 0 0
0 0.331258 0
0 0.388479 0
0.374319 0.368872 0
0.913329 0.345617 0
1 0.35404 0
0 0.806592 0
0 0.846906 0
0.257939 0.793057 0
0.755749 0.731609 0
1 0.706523 0
0 1 0
0 1 0
0.181994 1 0
0.664134 0.990265 0
0.992264 0.967651 0
0 0 0.0700084
0.0632792 0 0.0589914
0.490715 0 0
0.910018 0 0
1 0 0
0 0.0542458 0.0356909
0.040116 0.0531319 0.0347143
0.531075 0 0
0.994659 0 0
1 0 0
0 0.351003 0
0 0.412482 0
0.395377 0.38996 0
0.927245 0.364508 0
1 0.370169 0
0 0.822538 0
0 0.860716 0
0.269261 0.800793 0
0.762478 0.738521 0
1 0.712291 0
0 1 0
0 1 0
0.189151 1 0
0.667796 0.991531 0
0.993439 0.969665 0
0 0 0.580575
0.025803 0 0.558053
0.438483 0 0.37615
0.872511 0 0.217319
1 0 0.158282
0 0.0199435 0.533989
0.0130617 0.0227665 0.552682
0.502586 0 0.443046
0.990555 0 0.387945
1 0 0.423484
0 0.34551 0.291768
0 0.406363 0.352743
0.390982 0.385061 0.331472
0.918746 0.355428 0.30106
1 0.353628 0.299077
0 0.810315 0.220203
0 0.841779 0.259571
0.250507 0.784985 0.191363
0.745647 0.721706 0.120897
1 0.694881 0.0914168
0 1 0.176684
0 1 0.197818
0.164996 1 0.106264
0.64831 0.981414 0.0404364
0.976303 0.949935 0.0198978
0 0 1
0.00222782 0 1
0.380179 0 0.917815
0.827008 0 0.781415
1 0 0.743328
0 0.000595102 0.999847
0 0.000762951 0.999924
0.476844 0 0.975631
0.980606 0 0.944701
1 0 0.970367
0 0.334432 0.860441
0 0.39762 0.911238
0.380133 0.374258 0.89276
0.902861 0.338827 0.859358
1 0.332509 0.851087
0 0.791363 0.772366
0 0.820294 0.801266
0.22536 0.761852 0.742824
0.720516 0.696376 0.677089
1 0.668101 0.648722
0 1 0.713008
0 1 0.727749
0.136233 0.999557 0.652842
0.619608 0.957275 0.576699
0.948852 0.920058 0.538552
0 0 1
0 0 1
0.346471 0 1
0.807233 0 1
1 0 1
0 6.10361e-05 1
0 0.000381476 1
0.477775 0 1
0.983383 0 1
1 0 1
0 0.340932 1
0 0.405402 1
0.382223 0.376806 1
0.898833 0.335958 1
1 0.326116 1
0 0.786557 1
0 0.813092 1
0.216312 0.752728 1
0.709682 0.685802 0.999207
0.999832 0.656489 0.995392
0 1 1
0 1 1
0.12282 0.997421 0.993606
0.605585 0.943725 0.937392
0.934157 0.90544 0.899641
