Fusion/LUTs/Alexandru-Don-LUTs-v2/Alexandru-Don-LUTs/Monitoring Luts/Monitoring Lut 8.cube
TITLE "Generated by Resolve"
LUT_3D_SIZE 5
0.0147555 0.0211948 0.0270237
0.0308843 0.0226749 0.0291752
0.558434 0.101366 0.0661021
0.937942 0.16907 0.0950332
0.937942 0.16907 0.0950332
0.0300145 0.0631418 0.0457771
0.0250095 0.0505684 0.0393072
0.499611 0.0921187 0.0619669
0.936248 0.168994 0.0950179
0.937942 0.16907 0.0950332
0.186084 0.375402 0.234943
0.183032 0.369955 0.231464
0.328176 0.3411 0.181079
0.879896 0.366506 0.140703
0.945891 0.343572 0.136584
0.383032 0.716503 0.450675
0.376196 0.704433 0.443168
0.424125 0.63743 0.402243
0.732387 0.654749 0.297108
0.963119 0.619333 0.256016
0.455055 0.854124 0.529458
0.455055 0.854124 0.529458
0.498116 0.857191 0.532647
0.728161 0.888716 0.554559
0.94641 0.898695 0.453956
0.0154269 0.0227665 0.0657054
0.027451 0.0230869 0.0516823
0.548028 0.0994888 0.0653544
0.937942 0.16907 0.0950332
0.937942 0.16907 0.0950332
0.0287633 0.0614786 0.0483711
0.0247654 0.0506294 0.0413825
0.502541 0.0935378 0.0621805
0.936919 0.169024 0.0950179
0.937942 0.16907 0.0950332
0.188357 0.3794 0.237476
0.18584 0.374929 0.234638
0.334691 0.346975 0.183902
0.882811 0.370153 0.141909
0.946029 0.346059 0.137499
0.382986 0.716411 0.450614
0.376623 0.705165 0.443641
0.425467 0.638636 0.403006
0.733852 0.656565 0.297795
0.963165 0.620691 0.256825
0.455055 0.854124 0.529458
0.455055 0.854124 0.529458
0.49807 0.85716 0.532631
0.728237 0.88867 0.554757
0.94638 0.898863 0.453956
0.0468147 0.0654002 0.402701
0.0488899 0.0607004 0.371145
0.48098 0.107668 0.391974
0.928908 0.171695 0.350027
0.932326 0.170184 0.313603
0.0426795 0.0809644 0.340841
0.0400092 0.0707713 0.323278
0.451774 0.101488 0.367163
0.929763 0.171679 0.351965
0.932052 0.170535 0.329015
0.158297 0.378058 0.35642
0.156664 0.373922 0.351873
0.322606 0.326375 0.300175
0.857557 0.354482 0.251545
0.943572 0.33048 0.213626
0.37026 0.701869 0.517128
0.363973 0.689876 0.503853
0.410727 0.618936 0.438087
0.713817 0.633982 0.318273
0.962295 0.601495 0.25716
0.456199 0.857023 0.574487
0.456046 0.856458 0.566354
0.490867 0.85658 0.544213
0.709453 0.872145 0.545617
0.945678 0.883757 0.438819
0.0724041 0.0992905 0.657267
0.0734264 0.0992905 0.656825
0.433494 0.139315 0.731609
0.883635 0.205722 0.74931
0.899321 0.201282 0.726223
0.0737316 0.115068 0.650706
0.0728923 0.109133 0.646128
0.41416 0.136278 0.719432
0.887892 0.206256 0.754665
0.895628 0.203449 0.741054
0.143297 0.397986 0.660121
0.141772 0.393317 0.658442
0.280156 0.343587 0.587747
0.806302 0.358328 0.634256
0.923171 0.333379 0.611612
0.314153 0.715328 0.702556
0.308171 0.702449 0.689891
0.358968 0.625055 0.620661
0.696925 0.612421 0.5776
0.958358 0.58349 0.519753
0.440696 0.875822 0.739254
0.44242 0.874571 0.731136
0.476341 0.865324 0.698787
0.730465 0.858335 0.708675
0.949828 0.867933 0.582315
0.0724041 0.0992905 0.657267
0.0724041 0.0992905 0.657267
0.414862 0.138277 0.761547
0.860761 0.216022 0.813016
0.873686 0.216175 0.814923
0.0737926 0.111513 0.659953
0.0733654 0.108064 0.659144
0.405219 0.136843 0.760647
0.869764 0.216144 0.814328
0.873686 0.216175 0.814923
0.144884 0.3953 0.745708
0.143069 0.389792 0.74377
0.293858 0.332158 0.74699
0.768582 0.361395 0.81976
0.8869 0.345861 0.832319
0.283497 0.720684 0.847211
0.276661 0.708354 0.843366
0.316808 0.633478 0.824292
0.647211 0.608286 0.870665
0.929671 0.583841 0.864012
0.412406 0.901427 0.907332
0.412375 0.901427 0.907256
0.422126 0.887251 0.88452
0.706981 0.862547 0.86688
0.958007 0.852598 0.831067
