Fusion/LUTs/Alexandru-Don-LUTs-v2/Alexandru-Don-LUTs/Monitoring Luts/Monitoring Lut 2.cube
TITLE "Generated by Resolve"
LUT_3D_SIZE 5
0 0 0
0.202152 0 0
0.575021 0 0
0.919692 0 0
1 0 0
0 0.155932 0
0.151125 0.151125 0
0.553368 0.112139 0
0.93164 0.0881819 0
1 0.0725567 0
0 0.464347 0
0.0433814 0.484611 0
0.458976 0.458976 0
0.84094 0.438697 0
1 0.416678 0
0 0.802121 0
0 0.814343 0
0.376471 0.778714 0
0.750927 0.750927 0
1 0.725628 0
0 1 0
0 1 0
0.291737 1 0
0.665049 1 0
1 1 0
0 0 0.215824
0.194751 0 0.194751
0.567895 0 0.12668
0.915007 0 0.0715343
1 0 0.0314641
0 0.152499 0.152499
0.152834 0.152834 0.152834
0.557366 0.116152 0.116152
0.937774 0.0943008 0.0943008
1 0.0795758 0.0795758
0 0.470787 0.0295567
0.0506447 0.491875 0.0506447
0.465507 0.465507 0.0242924
0.845777 0.443534 0.00231937
1 0.420676 0
0 0.806531 0
0 0.818219 0
0.380072 0.782315 0
0.754208 0.754208 0
1 0.728908 0
0 1 0
0 1 0
0.294911 1 0
0.667979 1 0
1 1 0
0 0 0.634562
0.17145 0 0.612665
0.545495 0 0.545495
0.895628 0 0.493385
1 0 0.458488
0 0.135286 0.576501
0.139666 0.139666 0.58088
0.546456 0.105241 0.546456
0.92871 0.0852369 0.526467
1 0.0710613 0.512276
0 0.461997 0.461997
0.0420844 0.483299 0.483299
0.455802 0.455802 0.455802
0.834226 0.431983 0.431983
1 0.408759 0.408759
0 0.794842 0.392599
0 0.805936 0.403693
0.367849 0.770092 0.367849
0.741665 0.741665 0.339422
1 0.716365 0.314122
0 1 0.310185
0 1 0.319448
0.282292 1 0.282292
0.655375 1 0.253132
1 1 0.227359
0 0 1
0.151141 0 0.994598
0.526604 0 0.928847
0.8813 0 0.8813
1 0 0.850278
0 0.122454 0.965927
0.129976 0.129976 0.973434
0.539208 0.0979782 0.941451
0.922393 0.0789349 0.922393
1 0.0653239 0.908797
0 0.456291 0.858534
0.0357366 0.476967 0.87921
0.448463 0.448463 0.850706
0.825345 0.423102 0.825345
1 0.399573 0.801816
0 0.78584 0.78584
0 0.796674 0.796674
0.358328 0.760571 0.760571
0.732006 0.732006 0.732006
1 0.70634 0.70634
0 1 0.702647
0 1 0.71191
0.272221 1 0.674464
0.645594 1 0.645594
1 1 0.619898
0 0 1
0.132067 0 1
0.510124 0 1
0.869261 0 1
1 0 1
0 0.112352 1
0.122286 0.122286 1
0.533486 0.0922713 1
0.917784 0.0743267 1
1 0.0603494 1
0 0.451698 1
0.0305333 0.471763 1
0.441276 0.441276 1
0.817472 0.415229 1
1 0.39115 1
0 0.777661 1
0 0.788418 1
0.34963 0.751873 1
0.72343 0.72343 1
1 0.697673 1
0 1 1
0 1 1
0.263523 1 1
0.636927 1 1
0.997665 0.997665 0.997665
