Fusion/LUTs/Alexandru-Don-LUTs-v2/Alexandru-Don-LUTs/Monitoring Luts/Monitoring Lut 5.cube
TITLE "Generated by Resolve"
LUT_3D_SIZE 9
0.0147555 0.0211948 0.0270237
0.0185855 0.0215305 0.0274968
0.198337 0.0430762 0.0417639
0.544671 0.0988174 0.0649882
0.834607 0.157748 0.0908522
0.937942 0.16907 0.0950332
0.937942 0.16907 0.0950332
0.937942 0.16907 0.0950332
0.937942 0.16907 0.0950332
0.0147555 0.0211948 0.0270237
0.0147555 0.0211948 0.0270237
0.132403 0.0336309 0.0370184
0.485115 0.0884565 0.0610056
0.801862 0.150195 0.0877852
0.937697 0.169055 0.0950332
0.937942 0.16907 0.0950332
0.937942 0.16907 0.0950332
0.937942 0.16907 0.0950332
0.041886 0.0922713 0.0621653
0.0421607 0.0928511 0.0625467
0.0722667 0.0816205 0.0564584
0.384466 0.102342 0.0577707
0.715297 0.147295 0.0811322
0.926146 0.177218 0.0957809
0.938125 0.175097 0.095613
0.938109 0.174365 0.095552
0.938109 0.174472 0.095552
0.136385 0.282719 0.176898
0.140429 0.290593 0.18172
0.134081 0.273838 0.171572
0.248508 0.268177 0.149676
0.586877 0.281376 0.111254
0.86659 0.317647 0.125185
0.944183 0.312322 0.125704
0.943771 0.304433 0.123003
0.943679 0.302876 0.122484
0.259495 0.502373 0.315297
0.264286 0.510643 0.320546
0.254856 0.494392 0.310277
0.306523 0.463951 0.292134
0.460945 0.479118 0.247379
0.770748 0.478874 0.182498
0.950713 0.478462 0.185931
0.953597 0.463661 0.182086
0.953368 0.460014 0.180606
0.375067 0.702571 0.441978
0.376761 0.705516 0.443824
0.365942 0.686564 0.431998
0.377356 0.648493 0.408499
0.488228 0.637583 0.399069
0.646418 0.658045 0.333349
0.913771 0.652018 0.263294
0.963561 0.632822 0.263798
0.96347 0.627787 0.260746
0.452094 0.846387 0.526406
0.452049 0.846387 0.526329
0.449012 0.839048 0.523125
0.442557 0.812589 0.509255
0.536065 0.792889 0.499626
0.651804 0.801297 0.49044
0.813794 0.820752 0.409659
0.950668 0.809476 0.379568
0.951278 0.803708 0.375235
0.455055 0.854124 0.529458
0.455055 0.854124 0.529458
0.455055 0.854124 0.529458
0.455344 0.854139 0.529473
0.534661 0.860136 0.535332
0.667079 0.884733 0.558267
0.79559 0.919249 0.558953
0.938811 0.942138 0.509224
0.94992 0.939635 0.50103
0.455055 0.854124 0.529458
0.455055 0.854124 0.529458
0.455055 0.854124 0.529458
0.455161 0.854139 0.529473
0.526085 0.85922 0.534554
0.65481 0.881834 0.556588
0.780392 0.915404 0.560235
0.925063 0.948516 0.523674
0.9514 0.952209 0.516548
0.0147097 0.0213016 0.0315404
0.0175326 0.0214847 0.0292515
0.191302 0.0420081 0.0411994
0.537942 0.0975967 0.0644846
0.83006 0.15671 0.0904555
0.937942 0.16907 0.0950332
0.937942 0.16907 0.0950332
0.937942 0.16907 0.0950332
0.937942 0.16907 0.0950332
0.0147555 0.0211948 0.0270237
0.0147555 0.0211948 0.0270237
0.129412 0.0332189 0.03682
0.483726 0.0882124 0.060914
0.802441 0.150332 0.0878462
0.937758 0.16907 0.0950332
0.937942 0.16907 0.0950332
0.937942 0.16907 0.0950332
0.937942 0.16907 0.0950332
0.0420539 0.092668 0.0624247
0.0425116 0.0936294 0.0630045
0.0738384 0.0832532 0.0573739
0.387381 0.104433 0.0581369
0.719295 0.149432 0.0816663
0.927306 0.178485 0.0959182
0.938155 0.175769 0.0956893
0.938125 0.174914 0.0955978
0.938125 0.174975 0.095613
0.137942 0.285801 0.178744
0.142245 0.294118 0.183886
0.136248 0.277409 0.173785
0.252369 0.272236 0.151659
0.591592 0.285161 0.112474
0.869551 0.320302 0.126024
0.944259 0.314 0.126284
0.943832 0.305852 0.123507
0.943725 0.303685 0.122759
0.261509 0.505821 0.317479
0.266163 0.513848 0.322591
0.256474 0.4972 0.312047
0.308492 0.46627 0.293599
0.462303 0.481209 0.248096
0.772534 0.480415 0.183108
0.95108 0.479561 0.186542
0.953674 0.464698 0.182513
0.953414 0.460655 0.18088
0.375967 0.704158 0.442969
0.377508 0.706813 0.444633
0.36669 0.687861 0.432807
0.378317 0.649897 0.409369
0.489357 0.638819 0.399863
0.647715 0.659037 0.333989
0.913954 0.652857 0.264088
0.963561 0.633616 0.264302
0.963439 0.628107 0.261006
0.452125 0.84651 0.526406
0.452186 0.846662 0.526467
0.449332 0.839857 0.523461
0.443015 0.813458 0.509758
0.536706 0.793667 0.500114
0.652354 0.801862 0.49073
0.814542 0.821164 0.410163
0.950561 0.81001 0.380041
0.951278 0.80383 0.375296
0.455055 0.854124 0.529458
0.455055 0.854124 0.529458
0.455055 0.854124 0.529458
0.455406 0.854154 0.529488
0.53463 0.860121 0.535332
0.667079 0.884733 0.558251
0.795727 0.919142 0.558785
0.939071 0.942321 0.509331
0.94992 0.939681 0.501091
0.455055 0.854124 0.529458
0.455055 0.854124 0.529458
0.455055 0.854124 0.529458
0.45507 0.854124 0.529458
0.525628 0.85919 0.534539
0.654169 0.881712 0.556466
0.779629 0.915221 0.560296
0.924376 0.948409 0.523888
0.9514 0.952209 0.516548
0.0222477 0.0323796 0.167666
0.0226902 0.0314488 0.159228
0.164126 0.0466621 0.169711
0.515129 0.0942092 0.156405
0.813748 0.15198 0.141695
0.93724 0.168353 0.126925
0.937636 0.168582 0.11606
0.937713 0.168658 0.111757
0.937652 0.168627 0.114611
0.0190127 0.0278172 0.127199
0.0183871 0.0269627 0.118135
0.113222 0.0364233 0.122988
0.46952 0.0858778 0.125444
0.792325 0.14728 0.125841
0.93698 0.168475 0.120531
0.937667 0.168643 0.113893
0.937697 0.168643 0.112703
0.937667 0.168627 0.113863
0.0352941 0.0890211 0.0920119
0.0360113 0.0911269 0.0943313
0.0656596 0.0793927 0.0822003
0.377798 0.0995804 0.0759136
0.712108 0.145327 0.0890516
0.925414 0.176745 0.100984
0.938079 0.174594 0.0990158
0.938048 0.173724 0.0984817
0.938048 0.173693 0.0985275
0.134722 0.279622 0.176547
0.139116 0.288212 0.182498
0.132967 0.271977 0.171328
0.246494 0.266423 0.149218
0.585718 0.279606 0.110704
0.865278 0.315435 0.124514
0.94403 0.309529 0.124758
0.943572 0.300938 0.121828
0.94345 0.29865 0.12105
0.25835 0.500389 0.314046
0.262898 0.508217 0.31902
0.253315 0.491753 0.308598
0.302785 0.460563 0.289967
0.45623 0.474968 0.245121
0.766567 0.474327 0.18056
0.949401 0.474495 0.183963
0.953353 0.459739 0.180514
0.953063 0.455436 0.178775
0.372351 0.697795 0.439002
0.373907 0.70045 0.440681
0.363394 0.682109 0.429206
0.373175 0.644587 0.405982
0.48394 0.633219 0.396536
0.642039 0.653498 0.331289
0.910277 0.647639 0.261189
0.963439 0.628626 0.261341
0.963302 0.622873 0.257969
0.451209 0.844236 0.52546
0.451316 0.844572 0.525567
0.448249 0.837278 0.522316
0.439841 0.809506 0.507485
0.531899 0.788861 0.497124
0.647456 0.796887 0.487953
0.809659 0.816342 0.407889
0.951095 0.805203 0.37641
0.951843 0.798535 0.371405
0.455055 0.854124 0.529458
0.455055 0.854124 0.529458
0.455055 0.854124 0.529458
0.455299 0.854139 0.529473
0.532082 0.859815 0.535088
0.664286 0.884077 0.5579
0.792462 0.917632 0.558556
0.936202 0.939498 0.507042
0.949599 0.936736 0.497444
0.455055 0.854124 0.529458
0.455055 0.854124 0.529458
0.455055 0.854124 0.529458
0.455055 0.854124 0.529458
0.522606 0.858885 0.534279
0.650248 0.880842 0.555795
0.775723 0.914168 0.560571
0.920226 0.947707 0.525093
0.9514 0.952209 0.516548
0.0479133 0.0668803 0.412238
0.0464942 0.0648356 0.399023
0.152987 0.0726177 0.41355
0.450828 0.109178 0.422446
0.775296 0.156741 0.420066
0.92723 0.174258 0.39527
0.929427 0.173098 0.375998
0.929854 0.17261 0.369055
0.929381 0.173068 0.376761
0.0419623 0.0587015 0.358724
0.0407721 0.0570382 0.347433
0.114076 0.0616312 0.354757
0.413397 0.100633 0.389944
0.759854 0.151995 0.399558
0.927626 0.173571 0.385275
0.929625 0.1729 0.372885
0.929763 0.172732 0.370474
0.929519 0.172946 0.374701
0.0420691 0.100847 0.296666
0.0427558 0.103609 0.299474
0.066743 0.0905928 0.283604
0.327703 0.103456 0.316991
0.683528 0.142184 0.326848
0.915251 0.175586 0.320958
0.932937 0.173098 0.307698
0.932982 0.172076 0.303746
0.932967 0.171969 0.303944
0.108827 0.281865 0.285954
0.112718 0.291295 0.295232
0.107301 0.274571 0.278798
0.236789 0.254261 0.258274
0.547494 0.268421 0.238895
0.842084 0.30515 0.234195
0.941558 0.298512 0.213626
0.941344 0.289509 0.20325
0.941268 0.286992 0.200381
0.248035 0.492348 0.374151
0.252338 0.500008 0.380758
0.243198 0.482841 0.363912
0.298085 0.446586 0.335454
0.446921 0.455817 0.29192
0.752987 0.45658 0.213336
0.944228 0.460258 0.204501
0.952193 0.446052 0.194278
0.951919 0.441688 0.190631
0.364202 0.685573 0.470451
0.365667 0.688045 0.471824
0.355383 0.669612 0.453696
0.359854 0.630762 0.416556
0.469261 0.616861 0.396658
0.625437 0.637095 0.327337
0.898985 0.631937 0.254429
0.962982 0.613779 0.253651
0.962753 0.608011 0.250263
0.448844 0.838941 0.536629
0.449027 0.839139 0.535882
0.444205 0.828595 0.524758
0.431495 0.797879 0.50219
0.517784 0.774701 0.488777
0.632853 0.782071 0.479866
0.795041 0.802106 0.40119
0.95259 0.791318 0.36614
0.953323 0.784253 0.360998
0.4551 0.8542 0.530877
0.4551 0.8542 0.530709
0.45507 0.85417 0.530129
0.45507 0.854124 0.529503
0.525765 0.859174 0.534524
0.656565 0.882002 0.556664
0.782986 0.911849 0.556924
0.928466 0.931731 0.500603
0.948791 0.928481 0.487449
0.455085 0.854185 0.530541
0.455085 0.85417 0.530297
0.45507 0.854139 0.529793
0.455055 0.854124 0.529458
0.515846 0.85832 0.533776
0.641398 0.878874 0.554223
0.76701 0.911788 0.561166
0.910613 0.945998 0.528206
0.9514 0.952209 0.516548
0.0705882 0.0970474 0.623789
0.0700084 0.0963455 0.614206
0.164981 0.102922 0.622095
0.425437 0.131167 0.651728
0.71519 0.177203 0.655634
0.908309 0.193454 0.66038
0.912215 0.192508 0.642405
0.912535 0.192126 0.635584
0.912322 0.192432 0.641978
0.0680858 0.0940261 0.587961
0.0674754 0.0932631 0.581033
0.135103 0.0964828 0.583551
0.393256 0.124315 0.630152
0.703182 0.173816 0.644984
0.908461 0.193378 0.658961
0.912001 0.192737 0.646891
0.912139 0.192584 0.643793
0.912001 0.192752 0.647089
0.0655833 0.126955 0.525673
0.0664988 0.130175 0.530083
0.0878004 0.117159 0.516991
0.310384 0.121157 0.565072
0.629007 0.160189 0.580468
0.891859 0.193545 0.600351
0.914214 0.191104 0.586557
0.914397 0.18996 0.581582
0.914549 0.190158 0.580911
0.102892 0.292546 0.495598
0.106371 0.302129 0.505974
0.101457 0.285496 0.490532
0.211765 0.265141 0.450721
0.50219 0.272953 0.484459
0.815549 0.303319 0.490059
0.930648 0.297841 0.478737
0.930785 0.287953 0.465843
0.930861 0.285176 0.461906
0.205432 0.503182 0.507561
0.209049 0.51043 0.514885
0.200458 0.492714 0.497429
0.250706 0.452888 0.465797
0.4309 0.445823 0.450111
0.703502 0.448692 0.420829
0.930602 0.454307 0.403265
0.94696 0.435157 0.380072
0.9467 0.430762 0.374945
0.344121 0.685344 0.573709
0.345373 0.687572 0.575631
0.335912 0.668742 0.557244
0.339147 0.627863 0.518105
0.48127 0.6056 0.508751
0.626307 0.615412 0.47126
0.89929 0.610147 0.386709
0.960845 0.600076 0.365591
0.960449 0.594263 0.359731
0.442649 0.839551 0.636728
0.442771 0.839719 0.636713
0.436881 0.826719 0.623255
0.421958 0.792554 0.589227
0.522316 0.765225 0.570932
0.631205 0.766369 0.562173
0.786801 0.784466 0.483604
0.955047 0.776822 0.422583
0.9561 0.769131 0.413993
0.455543 0.860777 0.622385
0.455543 0.860716 0.62179
0.455817 0.859998 0.61416
0.45623 0.858717 0.59794
0.522332 0.861738 0.589593
0.652873 0.880217 0.60177
0.774945 0.903578 0.594751
0.919219 0.922194 0.525032
0.948135 0.918456 0.503075
0.45568 0.860365 0.618296
0.455756 0.860182 0.615793
0.456016 0.859419 0.607172
0.456352 0.858183 0.590555
0.511528 0.860517 0.580056
0.635477 0.877882 0.588449
0.760281 0.9093 0.589868
0.900175 0.944152 0.550805
0.951553 0.952346 0.530388
0.0724041 0.0992905 0.657267
0.0724041 0.0992905 0.657267
0.159899 0.106722 0.684413
0.408759 0.137362 0.760952
0.686809 0.188952 0.783749
0.869841 0.215366 0.80856
0.875624 0.214939 0.806043
0.876036 0.214679 0.804257
0.875761 0.214847 0.805432
0.0724041 0.0992905 0.657267
0.0724041 0.0992905 0.657267
0.136141 0.104097 0.675242
0.381247 0.133684 0.757855
0.678935 0.187213 0.781735
0.870008 0.215396 0.808881
0.875364 0.215091 0.807202
0.875456 0.215045 0.80676
0.875288 0.215137 0.807431
0.0772106 0.13669 0.663539
0.0778058 0.139742 0.665537
0.0977493 0.129229 0.664668
0.302113 0.13521 0.73521
0.608499 0.176974 0.75697
0.850645 0.215534 0.786618
0.881468 0.211826 0.783627
0.882368 0.211414 0.780606
0.882551 0.211398 0.780087
0.11577 0.304112 0.674098
0.118563 0.312932 0.682994
0.114336 0.297566 0.670298
0.225452 0.282429 0.639628
0.462348 0.286061 0.703029
0.764981 0.317418 0.710185
0.913344 0.307515 0.719173
0.913878 0.297368 0.707042
0.914061 0.294591 0.703349
0.187198 0.515267 0.688243
0.190188 0.52195 0.694759
0.182147 0.503685 0.677852
0.22739 0.462882 0.641001
0.39559 0.451316 0.617487
0.666911 0.449195 0.640604
0.919753 0.450431 0.629938
0.941054 0.429618 0.619394
0.940459 0.425437 0.614069
0.299413 0.697261 0.701839
0.300404 0.699214 0.703685
0.291218 0.680323 0.685176
0.291096 0.639078 0.644678
0.43006 0.611215 0.638972
0.605661 0.611261 0.615702
0.855177 0.609751 0.578943
0.957443 0.58938 0.556481
0.957412 0.583215 0.549645
0.417319 0.847181 0.741421
0.417441 0.847501 0.74168
0.411536 0.833249 0.726772
0.396521 0.796963 0.689769
0.505257 0.765362 0.666224
0.642649 0.759136 0.665431
0.781933 0.76965 0.629313
0.959869 0.762844 0.558724
0.960922 0.755154 0.547402
0.44358 0.873671 0.725231
0.443671 0.87361 0.724712
0.445304 0.872297 0.716091
0.448478 0.869673 0.697871
0.514168 0.870283 0.687129
0.659983 0.881605 0.700389
0.785016 0.89575 0.712444
0.91014 0.909911 0.669245
0.949523 0.91017 0.609445
0.444541 0.872908 0.720241
0.445045 0.872511 0.717601
0.446799 0.871092 0.707881
0.449805 0.868467 0.689067
0.503624 0.868757 0.676265
0.635081 0.881178 0.683177
0.764141 0.908248 0.694697
0.894011 0.943023 0.669505
0.953079 0.953704 0.641779
0.0724041 0.0992905 0.657267
0.0724041 0.0992905 0.657267
0.153399 0.105959 0.681773
0.397269 0.135821 0.759716
0.676829 0.186892 0.784344
0.866835 0.216098 0.813916
0.873686 0.216175 0.814923
0.873686 0.216175 0.814923
0.873686 0.216175 0.814923
0.0724041 0.0992905 0.657267
0.0724041 0.0992905 0.657267
0.132509 0.103731 0.674022
0.37438 0.132769 0.757061
0.672358 0.185931 0.783719
0.867582 0.216114 0.814008
0.873686 0.216175 0.814923
0.873686 0.216175 0.814923
0.873686 0.216175 0.814923
0.0766918 0.132769 0.664958
0.0772564 0.136172 0.665843
0.0950637 0.126024 0.667277
0.296574 0.132891 0.743725
0.602533 0.175128 0.776013
0.841917 0.217197 0.810651
0.873701 0.216403 0.814954
0.873701 0.216373 0.814939
0.873686 0.216236 0.814923
0.115755 0.300084 0.712978
0.11809 0.3084 0.715785
0.114137 0.293568 0.710857
0.228382 0.267689 0.719402
0.483055 0.279011 0.789609
0.751446 0.316014 0.810086
0.88365 0.318135 0.827939
0.882719 0.308843 0.826383
0.88249 0.30631 0.825803
0.186099 0.513268 0.784649
0.188251 0.519005 0.786358
0.181582 0.50106 0.781018
0.226535 0.461112 0.771603
0.396826 0.446632 0.78294
0.631464 0.452094 0.823209
0.882307 0.460197 0.830365
0.915053 0.43714 0.825757
0.914763 0.433051 0.821866
0.275273 0.704128 0.836606
0.276127 0.705837 0.837613
0.266957 0.687892 0.827543
0.263935 0.647837 0.801328
0.396582 0.617197 0.785931
0.562005 0.614069 0.783429
0.82475 0.607874 0.793652
0.944823 0.586252 0.785565
0.94493 0.579934 0.779339
0.377295 0.858885 0.862058
0.377066 0.858915 0.862135
0.369512 0.844572 0.84831
0.352819 0.808377 0.813352
0.444953 0.775311 0.787961
0.605692 0.764248 0.787854
0.766415 0.765896 0.770047
0.955917 0.753918 0.739055
0.95845 0.745327 0.729427
0.413367 0.891966 0.840482
0.413504 0.891905 0.839948
0.416327 0.890394 0.830106
0.422141 0.887144 0.809445
0.486305 0.885512 0.79411
0.651408 0.887343 0.797024
0.791363 0.892775 0.806271
0.907179 0.902922 0.784833
0.954498 0.902022 0.735363
0.41503 0.891081 0.834577
0.415915 0.890593 0.831571
0.419089 0.888869 0.820462
0.425223 0.88539 0.798566
0.478187 0.883955 0.781476
0.622675 0.891051 0.780102
0.768719 0.911025 0.79379
0.892531 0.943008 0.791989
0.95552 0.95613 0.7635
0.0724041 0.0992905 0.657267
0.0724041 0.0992905 0.657267
0.148913 0.10547 0.680049
0.390387 0.13489 0.758923
0.671809 0.185809 0.783627
0.865995 0.216083 0.813794
0.873686 0.216175 0.814923
0.873686 0.216175 0.814923
0.873686 0.216175 0.814923
0.0724041 0.0992905 0.657267
0.0724041 0.0992905 0.657267
0.130938 0.103593 0.673503
0.371801 0.132418 0.756756
0.670314 0.185489 0.783429
0.867231 0.216098 0.813947
0.873686 0.216175 0.814923
0.873686 0.216175 0.814923
0.873686 0.216175 0.814923
0.0764172 0.131197 0.66453
0.0770581 0.134966 0.665522
0.0941939 0.124941 0.666896
0.29514 0.13196 0.743297
0.600717 0.174426 0.77583
0.840635 0.216724 0.810437
0.873701 0.216419 0.814954
0.873686 0.216236 0.814923
0.873686 0.216175 0.814923
0.115251 0.298314 0.712383
0.117586 0.306676 0.715221
0.113497 0.291539 0.710185
0.225772 0.264912 0.718318
0.478447 0.275456 0.788495
0.746441 0.31191 0.808865
0.883207 0.314702 0.827482
0.882246 0.304982 0.826032
0.881971 0.302388 0.825635
0.184665 0.509468 0.78352
0.186618 0.514733 0.785092
0.179767 0.496117 0.779507
0.221546 0.455268 0.770016
0.400153 0.436988 0.789456
0.649149 0.439918 0.835019
0.875135 0.453483 0.851148
0.904479 0.436042 0.853376
0.903349 0.43212 0.852125
0.271427 0.698421 0.840299
0.272221 0.699947 0.840772
0.262638 0.681956 0.835233
0.255879 0.642039 0.823804
0.38703 0.610407 0.826047
0.571847 0.601556 0.861067
0.815015 0.600244 0.878172
0.923674 0.58822 0.883345
0.923079 0.581979 0.882216
0.371405 0.856992 0.893202
0.371374 0.857038 0.893217
0.359701 0.843137 0.88835
0.335882 0.808667 0.876143
0.413169 0.777661 0.868269
0.558724 0.765789 0.879194
0.745586 0.761105 0.905119
0.935561 0.752682 0.909987
0.940932 0.743557 0.906935
0.412406 0.901427 0.907332
0.412406 0.901427 0.907332
0.412406 0.901427 0.907332
0.41236 0.901411 0.907179
0.464424 0.901457 0.904952
0.621958 0.897337 0.901778
0.766049 0.897368 0.904021
0.902815 0.899153 0.902251
0.95935 0.89337 0.890303
0.412406 0.901427 0.907332
0.412406 0.901427 0.907332
0.412406 0.901427 0.907332
0.412177 0.90135 0.906538
0.45127 0.90164 0.896452
0.589944 0.907073 0.889632
0.750393 0.922469 0.892531
0.896819 0.944778 0.904555
0.959121 0.959487 0.892561
0.0724041 0.0992905 0.657267
0.0724041 0.0992905 0.657267
0.149187 0.105516 0.680171
0.391669 0.135058 0.759075
0.673213 0.186114 0.78381
0.866346 0.216083 0.813855
0.873686 0.216175 0.814923
0.873686 0.216175 0.814923
0.873686 0.216175 0.814923
0.0724041 0.0992905 0.657267
0.0724041 0.0992905 0.657267
0.131075 0.103593 0.673533
0.372503 0.132525 0.756832
0.671061 0.185641 0.783536
0.867338 0.216098 0.813962
0.873686 0.216175 0.814923
0.873686 0.216175 0.814923
0.873686 0.216175 0.814923
0.076463 0.131441 0.664591
0.0770733 0.135012 0.665553
0.0941482 0.124865 0.666835
0.29543 0.131762 0.743389
0.600732 0.174441 0.775876
0.840436 0.216678 0.810391
0.873716 0.216464 0.814954
0.873686 0.216205 0.814923
0.873686 0.216175 0.814923
0.115389 0.298756 0.712535
0.117601 0.306722 0.715236
0.113359 0.291234 0.710079
0.225284 0.264393 0.71812
0.477134 0.27451 0.788205
0.744747 0.310674 0.808469
0.883101 0.313771 0.827344
0.882139 0.304021 0.825879
0.881849 0.301305 0.825483
0.184512 0.509102 0.783413
0.186221 0.513619 0.784772
0.179217 0.494636 0.779065
0.220279 0.453712 0.769467
0.398215 0.435142 0.788647
0.646906 0.437949 0.834516
0.873411 0.452003 0.850492
0.904036 0.434516 0.852888
0.902922 0.43064 0.851667
0.270787 0.69723 0.839933
0.271336 0.69836 0.840284
0.261707 0.680186 0.834684
0.254246 0.640116 0.823194
0.384787 0.608133 0.825269
0.569375 0.599145 0.860044
0.812696 0.597818 0.877684
0.923461 0.585855 0.882918
0.922866 0.579705 0.881804
0.37026 0.855833 0.89279
0.370214 0.855619 0.892729
0.35848 0.841581 0.8878
0.334691 0.80679 0.875502
0.410544 0.775326 0.867475
0.555566 0.763104 0.87834
0.742855 0.757916 0.905425
0.933272 0.749844 0.913741
0.938659 0.7411 0.912718
0.412406 0.901427 0.907332
0.412406 0.901427 0.907332
0.412406 0.901427 0.907332
0.412406 0.901427 0.907332
0.463874 0.90132 0.908629
0.596887 0.896254 0.912169
0.737057 0.896422 0.92343
0.894972 0.897108 0.942458
0.953811 0.891508 0.945068
0.412406 0.901427 0.907332
0.412406 0.901427 0.907332
0.412406 0.901427 0.907332
0.412406 0.901427 0.907332
0.453681 0.903044 0.908904
0.587045 0.909941 0.915022
0.736217 0.927123 0.930755
0.88748 0.949523 0.95111
0.95906 0.958846 0.95935
