Fusion/LUTs/Alexandru-Don-LUTs-v2/Alexandru-Don-LUTs/Monitoring Luts/Monitoring Lut 6.cube
TITLE "Generated by Resolve"
LUT_3D_SIZE 9
0.0147555 0.0211948 0.0270237
0.0218662 0.0218357 0.0279545
0.287053 0.0569162 0.0486915
0.68278 0.125063 0.0766003
0.929015 0.168688 0.0949416
0.937942 0.16907 0.0950332
0.937942 0.16907 0.0950332
0.937942 0.16907 0.0950332
0.937942 0.16907 0.0950332
0.0147555 0.0211948 0.0270237
0.0147555 0.0211948 0.0270237
0.190784 0.0418555 0.0412146
0.610239 0.111025 0.0702678
0.908721 0.167742 0.0946822
0.937942 0.16907 0.0950332
0.937942 0.16907 0.0950332
0.937942 0.16907 0.0950332
0.937942 0.16907 0.0950332
0.0568704 0.12665 0.0827344
0.0569924 0.12697 0.0829175
0.0990463 0.112902 0.0748913
0.489204 0.138201 0.0668498
0.844739 0.195743 0.0955978
0.938766 0.194095 0.0975814
0.938628 0.189807 0.0971237
0.938628 0.189807 0.0971237
0.938628 0.189807 0.0971237
0.182239 0.368505 0.230579
0.186511 0.376181 0.235401
0.176043 0.353658 0.221225
0.336553 0.351247 0.18674
0.70811 0.36376 0.138628
0.942855 0.378363 0.147692
0.947127 0.364172 0.144106
0.946914 0.360586 0.142794
0.946914 0.360586 0.142794
0.325856 0.616892 0.388022
0.328496 0.621485 0.390951
0.313634 0.595789 0.374533
0.388006 0.559976 0.353079
0.562829 0.579461 0.295079
0.896147 0.574487 0.220661
0.959854 0.556939 0.223255
0.959472 0.551019 0.22034
0.959472 0.551019 0.22034
0.440513 0.821103 0.513909
0.440284 0.820615 0.513664
0.429099 0.799191 0.501427
0.458747 0.759289 0.477791
0.587182 0.754376 0.470527
0.768994 0.77789 0.389441
0.95555 0.763638 0.34641
0.95639 0.755779 0.341039
0.95639 0.755779 0.341039
0.455055 0.854124 0.529458
0.455055 0.854124 0.529458
0.455055 0.854124 0.529458
0.473976 0.855497 0.530892
0.608896 0.871992 0.547417
0.760845 0.90692 0.559197
0.931426 0.933867 0.502419
0.948913 0.929519 0.488945
0.948913 0.929519 0.488945
0.455055 0.854124 0.529458
0.455055 0.854124 0.529458
0.455055 0.854124 0.529458
0.467262 0.855009 0.530404
0.592065 0.869184 0.544121
0.743954 0.905364 0.56228
0.909636 0.945861 0.528557
0.9514 0.952209 0.516548
0.9514 0.952209 0.516548
0.455055 0.854124 0.529458
0.455055 0.854124 0.529458
0.455055 0.854124 0.529458
0.467262 0.855009 0.530404
0.592065 0.869184 0.544121
0.744091 0.905409 0.56228
0.909789 0.945891 0.528496
0.9514 0.952209 0.516548
0.9514 0.952209 0.516548
0.0146944 0.0213474 0.0339818
0.0203098 0.0217746 0.0323949
0.277668 0.0554513 0.0479744
0.674098 0.123339 0.0758221
0.926482 0.168582 0.0949264
0.937942 0.16907 0.0950332
0.937942 0.16907 0.0950332
0.937942 0.16907 0.0950332
0.937942 0.16907 0.0950332
0.0147555 0.0211948 0.0270237
0.0147555 0.0211948 0.0270237
0.186542 0.0411994 0.0408484
0.608499 0.110704 0.0701305
0.909056 0.167773 0.0946822
0.937942 0.16907 0.0950332
0.937942 0.16907 0.0950332
0.937942 0.16907 0.0950332
0.937942 0.16907 0.0950332
0.057023 0.127092 0.0829786
0.0574197 0.127764 0.0834516
0.10132 0.115267 0.0760204
0.492958 0.140688 0.0676127
0.848676 0.198718 0.0962539
0.938842 0.196094 0.0978103
0.938674 0.191501 0.0972763
0.938674 0.191363 0.0972763
0.938674 0.191363 0.0972763
0.1841 0.371817 0.232654
0.188144 0.379049 0.237247
0.178439 0.356909 0.223285
0.34023 0.354391 0.188357
0.711299 0.366125 0.139452
0.943023 0.379309 0.14818
0.947173 0.364767 0.144335
0.946929 0.360891 0.142901
0.946929 0.360891 0.142901
0.327199 0.619242 0.389487
0.329427 0.623087 0.391959
0.314397 0.597101 0.375387
0.388663 0.561074 0.35375
0.563668 0.580407 0.295384
0.896635 0.575036 0.220951
0.959854 0.557244 0.223407
0.959457 0.551034 0.220386
0.959457 0.551034 0.220386
0.440803 0.821607 0.514229
0.44033 0.820768 0.51371
0.429435 0.799802 0.501808
0.458793 0.759808 0.478111
0.587366 0.754635 0.47068
0.76939 0.777951 0.389685
0.955413 0.763699 0.346441
0.956436 0.755322 0.340719
0.956436 0.755322 0.340719
0.455055 0.854124 0.529458
0.455055 0.854124 0.529458
0.455055 0.854124 0.529458
0.474006 0.855497 0.530892
0.60856 0.872175 0.547463
0.760769 0.906844 0.559274
0.931426 0.933837 0.502327
0.948867 0.929168 0.488518
0.948867 0.929168 0.488518
0.455055 0.854124 0.529458
0.455055 0.854124 0.529458
0.455055 0.854124 0.529458
0.466026 0.854932 0.530312
0.590799 0.86894 0.543893
0.742672 0.905013 0.562341
0.908064 0.945586 0.52903
0.9514 0.952209 0.516548
0.9514 0.952209 0.516548
0.455055 0.854124 0.529458
0.455055 0.854124 0.529458
0.455055 0.854124 0.529458
0.466026 0.854932 0.530312
0.590799 0.86894 0.543893
0.742672 0.905013 0.562341
0.908064 0.945586 0.52903
0.9514 0.952209 0.516548
0.9514 0.952209 0.516548
0.0270848 0.0387427 0.217594
0.0283665 0.0377813 0.210239
0.233951 0.0623789 0.232151
0.644572 0.118502 0.211872
0.915358 0.16672 0.188861
0.936828 0.167651 0.162737
0.937057 0.167697 0.152911
0.936904 0.167666 0.159701
0.936889 0.167666 0.159976
0.0221256 0.032166 0.166918
0.0210269 0.0307469 0.15462
0.160861 0.0462501 0.167422
0.590356 0.107515 0.168719
0.901793 0.166049 0.163195
0.937163 0.167773 0.148608
0.937285 0.167788 0.144976
0.93724 0.167742 0.147677
0.937224 0.167742 0.147936
0.0457771 0.123354 0.125856
0.046067 0.125185 0.12755
0.0921187 0.109255 0.111727
0.480293 0.133776 0.0962539
0.840375 0.191775 0.109392
0.938567 0.190829 0.104021
0.938415 0.18616 0.102693
0.938415 0.185534 0.101991
0.938415 0.185534 0.101991
0.179507 0.363684 0.228885
0.183658 0.371267 0.234562
0.173587 0.349386 0.219532
0.331853 0.345724 0.184634
0.702007 0.357519 0.136553
0.940612 0.372107 0.145159
0.946715 0.357412 0.141619
0.946456 0.353353 0.140139
0.946456 0.353353 0.140139
0.322271 0.610697 0.38407
0.324269 0.61416 0.386267
0.309468 0.588571 0.369955
0.380026 0.5523 0.34818
0.554467 0.571542 0.291203
0.889982 0.566888 0.217365
0.959396 0.549828 0.219821
0.958953 0.543267 0.216663
0.958953 0.543267 0.216663
0.436957 0.81416 0.510018
0.436713 0.813703 0.509743
0.425864 0.793118 0.497902
0.451774 0.752697 0.473686
0.57998 0.746975 0.466285
0.761944 0.770489 0.386236
0.956024 0.756466 0.341436
0.957198 0.747509 0.335485
0.957198 0.747509 0.335485
0.455055 0.854124 0.529458
0.455055 0.854124 0.529458
0.455055 0.854124 0.529458
0.471412 0.855314 0.530709
0.604013 0.870771 0.546258
0.756191 0.90425 0.558282
0.926909 0.929061 0.498482
0.948379 0.923995 0.482399
0.948379 0.923995 0.482399
0.455055 0.854124 0.529458
0.455055 0.854124 0.529458
0.455055 0.854124 0.529458
0.464332 0.854795 0.530175
0.585718 0.868025 0.542962
0.737835 0.903639 0.562356
0.901839 0.944427 0.530968
0.9514 0.952209 0.516548
0.9514 0.952209 0.516548
0.455055 0.854124 0.529458
0.455055 0.854124 0.529458
0.455055 0.854124 0.529458
0.464332 0.854795 0.530175
0.585718 0.868025 0.542962
0.737835 0.903639 0.562356
0.901839 0.944427 0.530968
0.9514 0.952209 0.516548
0.9514 0.952209 0.516548
0.0601053 0.0834211 0.516762
0.0584421 0.0811017 0.50222
0.210193 0.092607 0.52987
0.572229 0.137942 0.528222
0.884352 0.183261 0.525917
0.920897 0.18201 0.495781
0.921813 0.181003 0.484031
0.921233 0.181628 0.491356
0.921218 0.181643 0.49163
0.0525826 0.073228 0.452781
0.0510719 0.0711986 0.439826
0.158465 0.0793927 0.458656
0.527794 0.126909 0.489021
0.874601 0.180697 0.502922
0.921813 0.181033 0.483986
0.922164 0.180621 0.479515
0.921874 0.180926 0.483085
0.921859 0.180941 0.483375
0.054902 0.138735 0.381857
0.0557259 0.141497 0.38558
0.093431 0.124483 0.36257
0.424048 0.139254 0.401526
0.809766 0.187137 0.41709
0.92845 0.187762 0.400763
0.928695 0.182132 0.392706
0.928756 0.181262 0.391165
0.928756 0.181262 0.391165
0.145495 0.368765 0.374487
0.148898 0.376669 0.382269
0.140032 0.353552 0.359533
0.316777 0.330175 0.336706
0.657115 0.343221 0.30988
0.930175 0.36231 0.29279
0.943008 0.343465 0.269169
0.942855 0.3393 0.264332
0.942855 0.3393 0.264332
0.308064 0.602106 0.470741
0.309636 0.604822 0.472572
0.295796 0.578378 0.446601
0.377188 0.536141 0.414343
0.539437 0.548547 0.368597
0.877104 0.545525 0.274952
0.957473 0.532555 0.261479
0.957092 0.525933 0.255299
0.957076 0.525917 0.255451
0.429526 0.803754 0.564065
0.429297 0.803143 0.562493
0.417243 0.780346 0.539651
0.436759 0.737408 0.498466
0.564355 0.727932 0.480476
0.74258 0.751232 0.394369
0.957092 0.737774 0.337896
0.95906 0.728252 0.330495
0.95906 0.728252 0.330495
0.45597 0.856229 0.563058
0.455924 0.856092 0.560922
0.45568 0.855436 0.550835
0.466545 0.85536 0.538796
0.592706 0.866804 0.545617
0.743374 0.89546 0.554711
0.914244 0.916259 0.487739
0.94725 0.910735 0.467109
0.94725 0.910735 0.467109
0.455863 0.855894 0.558038
0.455741 0.855589 0.553521
0.455512 0.854978 0.543893
0.460822 0.854734 0.533532
0.574716 0.866056 0.540978
0.727092 0.900618 0.562356
0.888762 0.941756 0.535546
0.9514 0.952209 0.516548
0.9514 0.952209 0.516548
0.455863 0.855894 0.558038
0.455741 0.855589 0.553521
0.455512 0.854978 0.543893
0.460822 0.854734 0.533532
0.574701 0.866056 0.540978
0.727092 0.900618 0.562356
0.888762 0.941756 0.535546
0.9514 0.952209 0.516548
0.9514 0.952209 0.516548
0.0724041 0.0992905 0.657252
0.0724041 0.0992905 0.65716
0.211185 0.113115 0.705226
0.542473 0.157809 0.74873
0.833219 0.210697 0.768566
0.888289 0.207675 0.760845
0.890394 0.206561 0.754681
0.88893 0.207385 0.758938
0.88893 0.207385 0.758938
0.0722972 0.0991684 0.65536
0.0722667 0.0991073 0.654551
0.172366 0.107393 0.6748
0.505165 0.150408 0.730266
0.824872 0.209339 0.760189
0.889006 0.207263 0.758831
0.889784 0.206897 0.75642
0.888991 0.207401 0.75848
0.888991 0.207401 0.75848
0.0796826 0.16347 0.619272
0.0803998 0.166308 0.623377
0.118059 0.15082 0.613519
0.404334 0.159823 0.668452
0.752575 0.20647 0.691356
0.907073 0.203708 0.700252
0.907942 0.19971 0.691752
0.908248 0.200076 0.689494
0.908232 0.200092 0.689738
0.135363 0.38175 0.601022
0.138155 0.389425 0.609949
0.130465 0.366018 0.588113
0.279789 0.341512 0.545632
0.606195 0.347677 0.579232
0.910399 0.364385 0.577737
0.928267 0.344274 0.563745
0.928237 0.33991 0.55787
0.928237 0.33991 0.55787
0.259083 0.614588 0.618494
0.260044 0.616464 0.620264
0.24686 0.589563 0.593774
0.32311 0.54287 0.559564
0.52665 0.537789 0.541115
0.829129 0.539559 0.506722
0.956893 0.51722 0.472786
0.95668 0.510307 0.464958
0.95668 0.510307 0.464958
0.407218 0.806439 0.680766
0.406699 0.805295 0.679377
0.395651 0.781567 0.655604
0.415641 0.735393 0.611368
0.580133 0.716564 0.606439
0.741817 0.728084 0.560998
0.959869 0.720104 0.480659
0.962158 0.710964 0.466758
0.962158 0.710964 0.466758
0.451087 0.867323 0.680522
0.451255 0.86714 0.678996
0.452613 0.865827 0.668299
0.46276 0.863554 0.64921
0.60061 0.86891 0.652155
0.747814 0.884321 0.662882
0.903029 0.901213 0.598154
0.948043 0.899153 0.548226
0.948043 0.899153 0.548226
0.451896 0.866545 0.674144
0.45243 0.866087 0.670253
0.453605 0.864607 0.658244
0.457923 0.862425 0.637186
0.571176 0.869169 0.632044
0.727306 0.898894 0.648127
0.879591 0.939742 0.621729
0.9523 0.953063 0.589258
0.9523 0.953063 0.589258
0.451896 0.866545 0.674144
0.45243 0.866087 0.670253
0.453605 0.864607 0.658244
0.457923 0.862425 0.637186
0.571176 0.869169 0.632044
0.727306 0.898894 0.648127
0.879591 0.939742 0.621729
0.9523 0.953063 0.589258
0.9523 0.953063 0.589258
0.0724041 0.0992905 0.657267
0.0724041 0.0992905 0.657267
0.201358 0.112001 0.702678
0.527443 0.155764 0.770733
0.817884 0.214389 0.807202
0.873686 0.216175 0.814923
0.873686 0.216175 0.814923
0.873686 0.216175 0.814923
0.873686 0.216175 0.814923
0.0724041 0.0992905 0.657267
0.0724041 0.0992905 0.657267
0.167254 0.107591 0.687266
0.495399 0.150301 0.76875
0.811078 0.213901 0.806271
0.873686 0.216175 0.814923
0.873686 0.216175 0.814923
0.873686 0.216175 0.814923
0.873686 0.216175 0.814923
0.0816358 0.161044 0.672297
0.0822614 0.164065 0.673045
0.116579 0.149691 0.675761
0.393805 0.160861 0.761257
0.729519 0.211322 0.793683
0.87393 0.218891 0.815213
0.873899 0.218585 0.815183
0.873854 0.218128 0.815122
0.873854 0.218128 0.815122
0.141192 0.383978 0.741711
0.143313 0.390524 0.74403
0.136797 0.368566 0.736355
0.294881 0.341451 0.742306
0.572595 0.353048 0.799374
0.867079 0.379904 0.811337
0.897383 0.357153 0.804913
0.897856 0.352697 0.801236
0.897856 0.352697 0.801236
0.234882 0.624857 0.80322
0.235431 0.625986 0.803677
0.223468 0.599695 0.785489
0.293523 0.552438 0.749096
0.483909 0.543542 0.731517
0.791821 0.53933 0.756497
0.942901 0.514138 0.751919
0.942962 0.506905 0.744335
0.942962 0.506905 0.744335
0.357443 0.819394 0.823178
0.356863 0.818173 0.822003
0.345617 0.794873 0.799283
0.360159 0.748623 0.754543
0.523796 0.722408 0.752728
0.722423 0.722881 0.727047
0.953948 0.709529 0.690089
0.958129 0.699168 0.678737
0.958129 0.699168 0.678737
0.421897 0.887297 0.810391
0.422309 0.887083 0.808865
0.425925 0.884993 0.796078
0.437812 0.880064 0.772915
0.586007 0.877226 0.765896
0.761593 0.879774 0.7785
0.895567 0.889342 0.755535
0.953246 0.888594 0.689616
0.953246 0.888594 0.689616
0.424155 0.88603 0.802304
0.425513 0.885267 0.797742
0.429389 0.882948 0.783612
0.436881 0.878889 0.758404
0.555627 0.880751 0.746365
0.731853 0.901991 0.762387
0.877226 0.939025 0.762097
0.954696 0.955337 0.727947
0.954696 0.955337 0.727947
0.424155 0.88603 0.802304
0.425513 0.885267 0.797742
0.429358 0.882979 0.783734
0.436881 0.878889 0.758404
0.555627 0.880751 0.746365
0.731853 0.901991 0.762387
0.877226 0.939025 0.762097
0.954696 0.955337 0.727947
0.954696 0.955337 0.727947
0.0724041 0.0992905 0.657267
0.0724041 0.0992905 0.657267
0.195315 0.111238 0.69984
0.518669 0.154116 0.770199
0.813748 0.214099 0.806638
0.873686 0.216175 0.814923
0.873686 0.216175 0.814923
0.873686 0.216175 0.814923
0.873686 0.216175 0.814923
0.0724041 0.0992905 0.657267
0.0724041 0.0992905 0.657267
0.165316 0.107347 0.686427
0.492363 0.149813 0.768551
0.809155 0.213642 0.805966
0.873686 0.216175 0.814923
0.873686 0.216175 0.814923
0.873686 0.216175 0.814923
0.873686 0.216175 0.814923
0.0812085 0.158877 0.671763
0.0819104 0.162371 0.672618
0.115145 0.148226 0.675258
0.390799 0.158923 0.760708
0.726116 0.208804 0.792981
0.873915 0.218769 0.815213
0.873838 0.217853 0.815106
0.873793 0.217334 0.815045
0.873793 0.217334 0.815045
0.139864 0.379934 0.740291
0.142031 0.386618 0.742657
0.135073 0.363455 0.734554
0.290623 0.331121 0.74609
0.589868 0.341344 0.809537
0.859754 0.370886 0.832593
0.888075 0.355474 0.833982
0.887572 0.3514 0.83331
0.887572 0.3514 0.83331
0.23061 0.618158 0.816022
0.230915 0.618891 0.816236
0.218814 0.592569 0.808362
0.285222 0.544396 0.79939
0.495827 0.528527 0.825223
0.782223 0.530694 0.859586
0.917067 0.517708 0.870832
0.916426 0.51075 0.869673
0.916426 0.51075 0.869673
0.341451 0.818372 0.879515
0.340627 0.816999 0.879011
0.326787 0.794949 0.871458
0.33286 0.751553 0.858091
0.483177 0.724758 0.861265
0.695872 0.717617 0.892302
0.929992 0.708415 0.89987
0.936736 0.69781 0.896681
0.936736 0.69781 0.896681
0.412406 0.901427 0.907332
0.412406 0.901427 0.907332
0.412329 0.901396 0.907042
0.413367 0.898192 0.902022
0.548501 0.889509 0.894621
0.73286 0.884474 0.893996
0.888258 0.885588 0.888609
0.959426 0.877791 0.873854
0.959426 0.877791 0.873854
0.41239 0.901427 0.907301
0.412329 0.901411 0.907088
0.411826 0.901228 0.905303
0.409552 0.899916 0.895216
0.51371 0.900893 0.878721
0.710582 0.915648 0.87834
0.882811 0.940902 0.892256
0.958694 0.959106 0.877623
0.958694 0.959106 0.877623
0.41239 0.901427 0.907301
0.412329 0.901411 0.907088
0.411826 0.901228 0.905348
0.409552 0.899916 0.895216
0.51371 0.900893 0.878721
0.710582 0.915648 0.87834
0.882811 0.940902 0.892256
0.958694 0.959106 0.877623
0.958694 0.959106 0.877623
0.0724041 0.0992905 0.657267
0.0724041 0.0992905 0.657267
0.195697 0.111284 0.700038
0.519677 0.154269 0.770245
0.814771 0.214252 0.80679
0.873686 0.216175 0.814923
0.873686 0.216175 0.814923
0.873686 0.216175 0.814923
0.873686 0.216175 0.814923
0.0724041 0.0992905 0.657267
0.0724041 0.0992905 0.657267
0.165454 0.107347 0.686488
0.492744 0.149874 0.768551
0.809567 0.213718 0.806027
0.873686 0.216175 0.814923
0.873686 0.216175 0.814923
0.873686 0.216175 0.814923
0.873686 0.216175 0.814923
0.0812543 0.159075 0.671794
0.0819409 0.162509 0.672648
0.11516 0.148257 0.675258
0.390494 0.158709 0.760647
0.725368 0.208255 0.792828
0.873945 0.219059 0.815244
0.873808 0.217578 0.815076
0.873777 0.217273 0.815045
0.873777 0.217273 0.815045
0.139925 0.380102 0.740353
0.141878 0.386191 0.742504
0.134707 0.362478 0.734203
0.289021 0.329503 0.745403
0.587427 0.339406 0.809033
0.858213 0.369268 0.83212
0.887892 0.353964 0.833738
0.887358 0.349737 0.833036
0.887358 0.349737 0.833036
0.230121 0.617136 0.815717
0.23006 0.617105 0.815686
0.217868 0.590494 0.807752
0.283085 0.541939 0.798581
0.493019 0.525765 0.824277
0.779004 0.528023 0.85861
0.916823 0.515038 0.87039
0.916152 0.507927 0.869169
0.916152 0.507927 0.869169
0.340322 0.816861 0.878965
0.339391 0.815061 0.87834
0.32549 0.792844 0.870741
0.330205 0.748898 0.857206
0.47892 0.721431 0.860365
0.693767 0.713375 0.89398
0.927367 0.705226 0.904631
0.934066 0.694713 0.903471
0.934066 0.694713 0.903471
0.412406 0.901427 0.907332
0.412406 0.901427 0.907332
0.412406 0.901427 0.907332
0.413733 0.898207 0.9066
0.526482 0.888197 0.9066
0.691737 0.882811 0.915984
0.879332 0.88275 0.93846
0.952193 0.875624 0.941451
0.952193 0.875624 0.941451
0.412406 0.901427 0.907332
0.412406 0.901427 0.907332
0.412406 0.901427 0.907332
0.412406 0.901427 0.907332
0.515984 0.904967 0.910674
0.693004 0.921553 0.925628
0.870771 0.946899 0.948745
0.95906 0.958846 0.95935
0.95906 0.958846 0.95935
0.412406 0.901427 0.907332
0.412406 0.901427 0.907332
0.412406 0.901427 0.907332
0.412406 0.901427 0.907332
0.515984 0.904967 0.910674
0.693004 0.921553 0.925628
0.870771 0.946899 0.948745
0.95906 0.958846 0.95935
0.95906 0.958846 0.95935
0.0724041 0.0992905 0.657267
0.0724041 0.0992905 0.657267
0.195911 0.111315 0.700145
0.519677 0.154269 0.770245
0.814771 0.214252 0.80679
0.873686 0.216175 0.814923
0.873686 0.216175 0.814923
0.873686 0.216175 0.814923
0.873686 0.216175 0.814923
0.0724041 0.0992905 0.657267
0.0724041 0.0992905 0.657267
0.165423 0.107347 0.686473
0.492744 0.149874 0.768551
0.809812 0.213764 0.806073
0.873686 0.216175 0.814923
0.873686 0.216175 0.814923
0.873686 0.216175 0.814923
0.873686 0.216175 0.814923
0.0812543 0.159075 0.671794
0.0819409 0.162509 0.672648
0.11516 0.148257 0.675258
0.390829 0.15874 0.760678
0.725368 0.208255 0.792828
0.873945 0.219059 0.815244
0.873808 0.217578 0.815076
0.873777 0.217273 0.815045
0.873777 0.217273 0.815045
0.139925 0.380087 0.740353
0.141878 0.386191 0.742504
0.134768 0.362692 0.734279
0.289021 0.329503 0.745403
0.587427 0.339406 0.809033
0.858213 0.369268 0.83212
0.887892 0.353964 0.833738
0.887358 0.349737 0.833036
0.887358 0.349737 0.833036
0.230121 0.617136 0.815717
0.23006 0.617105 0.815686
0.217868 0.590494 0.807752
0.283085 0.541939 0.798581
0.493019 0.525765 0.824277
0.779004 0.528023 0.85861
0.916823 0.515038 0.87039
0.916152 0.507927 0.869169
0.916152 0.507927 0.869169
0.340322 0.816861 0.878965
0.339498 0.815213 0.878386
0.32549 0.792844 0.870741
0.330205 0.748898 0.857206
0.47892 0.721431 0.860365
0.693767 0.713375 0.89398
0.927367 0.705226 0.904631
0.934066 0.694713 0.903471
0.934066 0.694713 0.903471
0.412406 0.901427 0.907332
0.412406 0.901427 0.907332
0.412406 0.901427 0.907332
0.413733 0.898207 0.9066
0.526482 0.888197 0.9066
0.691737 0.882811 0.915984
0.879332 0.88275 0.93846
0.952193 0.875624 0.941451
0.952193 0.875624 0.941451
0.412406 0.901427 0.907332
0.412406 0.901427 0.907332
0.412406 0.901427 0.907332
0.412406 0.901427 0.907332
0.515984 0.904967 0.910674
0.693004 0.921553 0.925628
0.870771 0.946899 0.948745
0.95906 0.958846 0.95935
0.95906 0.958846 0.95935
0.412406 0.901427 0.907332
0.412406 0.901427 0.907332
0.412406 0.901427 0.907332
0.412406 0.901427 0.907332
0.515984 0.904967 0.910674
0.693004 0.921553 0.925628
0.870771 0.946899 0.948745
0.95906 0.958846 0.95935
0.95906 0.958846 0.95935
