Fusion/LUTs/Alexandru-Don-LUTs-v2/Alexandru-Don-LUTs/Monitoring Luts/Monitoring Lut 1.cube
TITLE "Generated by Resolve"
LUT_3D_SIZE 17
0 0 0
0.00790417 0 0
0.0524758 0 0
0.0977035 0 0
0.155184 0 0
0.234852 0 0
0.328054 0 0
0.430167 0 0
0.533486 0 0
0.630777 0 0
0.722042 0 0
0.812039 0 0
0.901091 0 0
0.987366 0 0
1 0 0
1 0 0
1 0 0
0 0.00662242 0
0.00723278 0.00642405 0
0.0505531 0.00538643 0
0.0955673 0.00411994 0
0.152987 0.00161746 0
0.232578 0 0
0.325765 0 0
0.428 0 0
0.53135 0 0
0.628794 0 0
0.720317 0 0
0.810544 0 0
0.900023 0 0
0.987106 0 0
1 0 0
1 0 0
1 0 0
0 0.0439002 0
0.00352483 0.0432441 0
0.039826 0.039826 0
0.0843671 0.0362554 0
0.14168 0.0293736 0
0.221317 0.016495 0
0.314992 0.00454719 0
0.417929 0 0
0.522362 0 0
0.621302 0 0
0.714763 0 0
0.807446 0 0
0.900008 0 0
0.987854 0 0
1 0 0
1 0 0
1 0 0
0 0.0801099 0
0.000259403 0.0794537 0
0.0282139 0.0763104 0
0.0733349 0.0733349 0
0.131365 0.067155 0
0.212406 0.0556954 0
0.307561 0.0409247 0
0.41268 0.0247044 0
0.519875 0.0114137 0
0.621836 0.00421149 0
0.718807 0 0
0.814694 0 0
0.910124 0 0
0.991806 0 0
1 0 0
1 0 0
1 0 0
0 0.122744 0
0 0.122316 0
0.0103151 0.120562 0
0.0550088 0.119203 0
0.115587 0.115587 0
0.199344 0.106828 0
0.297887 0.0954452 0
0.406439 0.0826734 0
0.516579 0.0702068 0
0.621561 0.0602884 0
0.720623 0.0523537 0
0.818448 0.0454261 0
0.915694 0.0393988 0
0.993973 0.0338445 0
1 0.0288853 0
1 0.0247959 0
1 0.0219425 0
0 0.179583 0
0 0.179644 0
3.0518e-05 0.180911 0
0.0263676 0.183078 0
0.0901503 0.182666 0
0.17702 0.17702 0
0.278157 0.168231 0
0.388586 0.157336 0
0.500893 0.147036 0
0.607279 0.138521 0
0.708003 0.13225 0
0.80737 0.126864 0
0.905745 0.121981 0
0.990997 0.117815 0
1 0.113802 0
1 0.10988 0
1 0.106508 0
0 0.252323 0
0 0.252903 0
0 0.256962 0
0.00341802 0.261448 0
0.0607004 0.263127 0
0.149248 0.259174 0
0.251789 0.251789 0
0.364157 0.242817 0
0.477562 0.233631 0
0.585489 0.226642 0
0.687251 0.221439 0
0.787396 0.2168 0
0.886854 0.212985 0
0.984787 0.209186 0
1 0.205478 0
1 0.201938 0
1 0.198123 0
0 0.336309 0
0 0.337179 0
0 0.343053 0
0 0.349218 0
0.0285344 0.352255 0
0.118471 0.349737 0
0.222416 0.343755 0
0.335561 0.335561 0
0.450141 0.327535 0
0.558526 0.321019 0
0.660807 0.316335 0
0.761425 0.312169 0
0.860639 0.30811 0
0.959167 0.304265 0
1 0.300221 0
1 0.295766 0
1 0.291402 0
0 0.42623 0
0 0.427405 0
0 0.434546 0
0 0.441764 0
0.00762951 0.445991 0
0.0903029 0.44416 0
0.194797 0.438727 0
0.308553 0.431159 0
0.423011 0.423011 0
0.531411 0.416526 0
0.633494 0.411612 0
0.73344 0.406775 0
0.832151 0.402228 0
0.929595 0.397299 0
0.997955 0.392096 0
1 0.386648 0
1 0.380896 0
0 0.517876 0
0 0.519112 0
0 0.526925 0
0 0.53492 0
0 0.539193 0
0.0687572 0.53753 0
0.173281 0.532113 0
0.286366 0.523873 0
0.400443 0.515343 0
0.508049 0.508049 0
0.609003 0.502022 0
0.708049 0.496284 0
0.80528 0.490257 0
0.901762 0.484367 0
0.991409 0.47834 0
1 0.472053 0
1 0.466056 0
0 0.608881 0
0 0.610224 0
0 0.618158 0
0 0.62562 0
0 0.629694 0
0.051606 0.627344 0
0.155108 0.62092 0
0.267414 0.611887 0
0.380102 0.601984 0
0.486519 0.593515 0
0.586603 0.586618 0
0.684565 0.579797 0
0.781491 0.573449 0
0.877516 0.567102 0
0.97322 0.560708 0
1 0.554467 0
1 0.548074 0
0 0.698512 0
0 0.699672 0
0 0.706767 0
0 0.713527 0
0 0.71632 0
0.0331273 0.71281 0
0.134783 0.705364 0
0.245914 0.695186 0
0.358053 0.684703 0
0.464042 0.675792 0
0.563653 0.668406 0
0.66154 0.661524 0
0.758144 0.654871 0
0.854002 0.648356 0
0.949706 0.641962 0
0.999954 0.635309 0
1 0.628916 0
0 0.784573 0
0 0.785595 0
0 0.791653 0
0 0.797116 0
0 0.799176 0
0.0161746 0.795041 0
0.113161 0.787015 0
0.224231 0.776761 0
0.336065 0.765988 0
0.441825 0.756848 0
0.541375 0.749416 0
0.638956 0.742229 0
0.735454 0.73547 0
0.831235 0.728862 0
0.926604 0.722133 0
0.997971 0.715618 0
1 0.708965 0
0 0.867124 0
0 0.867964 0
0 0.873289 0
0 0.878645 0
0 0.880308 0
0.00146487 0.875914 0
0.0916915 0.867918 0
0.202365 0.857267 0
0.314168 0.846479 0
0.419776 0.837171 0
0.519036 0.829465 0
0.616663 0.822309 0
0.712978 0.815366 0
0.808576 0.808576 0
0.904036 0.801938 0
0.995392 0.795102 0
1 0.788479 0
0 0.948028 0
0 0.948898 0
0 0.954238 0
0 0.959167 0
0 0.960784 0
0 0.956313 0
0.0696269 0.947936 0
0.180377 0.937362 0
0.29192 0.926299 0
0.397375 0.916854 0
0.496696 0.909209 0
0.594079 0.901808 0
0.690379 0.89485 0
0.785946 0.888045 0
0.881163 0.881163 0
0.976623 0.874449 0
1 0.867735 0
0 0.999435 0
0 0.999512 0
0 0.999969 0
0 1 0
0 1 0
0 1 0
0.0473487 0.999359 0
0.157763 0.998138 0
0.2692 0.996872 0
0.374762 0.995346 0
0.473823 0.98851 0
0.571359 0.981262 0
0.667506 0.974136 0
0.762921 0.967178 0
0.858335 0.960494 0
0.953582 0.953582 0
1 0.946822 0
0 1 0
0 1 0
0 1 0
0 1 0
0 1 0
0 1 0
0.0268254 1 0
0.135485 1 0
0.246906 1 0
0.352178 1 0
0.451484 1 0
0.54873 1 0
0.644953 1 0
0.740505 1 0
0.835676 1 0
0.931151 0.999985 0
0.999924 0.999954 0
0 0 0.00828565
0.00784314 0 0.00808728
0.0522774 0 0.0071107
0.0975052 0 0.00605783
0.154971 0 0.00360113
0.234607 0 0.000183108
0.32784 0 0
0.429953 0 0
0.533242 0 0
0.630564 0 0
0.721843 0 0
0.811856 0 0
0.900969 0 0
0.987335 0 0
1 0 0
1 0 0
1 0 0
0 0.00656138 0.00761425
0.00717174 0.00634775 0.00741588
0.0503548 0.00529488 0.00639353
0.0953689 0.00404364 0.00527962
0.152773 0.0015259 0.0027924
0.232349 0 0.000122072
0.325551 0 0
0.427771 0 0
0.531121 0 0
0.628611 0 0
0.720134 0 0
0.810391 0 0
0.899916 0 0
0.987076 0 0
1 0 0
1 0 0
1 0 0
0 0.0436713 0.00395209
0.00343328 0.0429999 0.00370794
0.0396124 0.0396124 0.00248722
0.0841382 0.0360266 0.0011902
0.141451 0.0291295 9.15541e-05
0.221118 0.0162966 0
0.314794 0.00445563 0
0.417777 0 0
0.52224 0 0
0.62118 0 0
0.714748 0 0
0.807446 0 0
0.900053 0 0
0.9879 0 0
1 0 0
1 0 0
1 0 0
0 0.0798962 0.000457771
0.000228885 0.0792401 0.000350958
0.0280003 0.076112 0
0.0731518 0.0731518 0
0.131212 0.0670176 0
0.212268 0.0555428 0
0.307485 0.0408484 0
0.41265 0.0246738 0
0.519875 0.0114595 0
0.621958 0.00430304 0
0.718929 0 0
0.814893 0 0
0.910384 0 0
0.991882 0 0
1 0 0
1 0 0
1 0 0
0 0.12256 0
0 0.122148 0
0.0102388 0.12047 0
0.0549477 0.119142 0
0.115587 0.115587 0
0.199405 0.106889 0
0.297978 0.0955367 0
0.406607 0.0828412 0
0.516808 0.0704356 0
0.621775 0.060502 0
0.720897 0.0526436 0
0.818753 0.0457313 0
0.915984 0.0396887 0
0.994095 0.034226 0
1 0.0292363 0
1 0.0251011 0
1 0.0222477 0
0 0.179614 0
0 0.17969 0
3.0518e-05 0.180972 0
0.0265202 0.18323 0
0.0903639 0.182879 0
0.177203 0.177203 0
0.278416 0.16849 0
0.388891 0.157641 0
0.501152 0.147295 0
0.607645 0.138872 0
0.708339 0.132601 0
0.807736 0.12723 0
0.906172 0.122408 0
0.991135 0.118181 0
1 0.114244 0
1 0.110353 0
1 0.106859 0
0 0.252461 0
0 0.25304 0
0 0.257221 0
0.00358587 0.261738 0
0.0609751 0.263401 0
0.149599 0.259525 0
0.252155 0.252155 0
0.364538 0.243198 0
0.477974 0.234028 0
0.585824 0.226978 0
0.687694 0.221881 0
0.787854 0.217258 0
0.887221 0.213367 0
0.984955 0.209644 0
1 0.205921 0
1 0.202319 0
1 0.198581 0
0 0.336629 0
0 0.337514 0
0 0.343389 0
0 0.349554 0
0.0289311 0.352651 0
0.118822 0.350088 0
0.222873 0.344198 0
0.336019 0.336019 0
0.450492 0.327901 0
0.558999 0.321492 0
0.66125 0.316762 0
0.761837 0.312581 0
0.861097 0.308583 0
0.959533 0.304646 0
1 0.300633 0
1 0.296178 0
1 0.291691 0
0 0.426612 0
0 0.427771 0
0 0.434943 0
0 0.442206 0
0.00788891 0.446357 0
0.0907607 0.444633 0
0.195254 0.439185 0
0.308965 0.431571 0
0.423468 0.423468 0
0.531838 0.416938 0
0.633921 0.412039 0
0.733867 0.407202 0
0.832456 0.402548 0
0.929976 0.397696 0
0.998032 0.392447 0
1 0.386908 0
1 0.381231 0
0 0.518334 0
0 0.51957 0
0 0.527367 0
0 0.535302 0
0 0.539666 0
0.0691844 0.537957 0
0.173724 0.532555 0
0.286809 0.524315 0
0.400809 0.515709 0
0.508446 0.508446 0
0.609369 0.502388 0
0.708324 0.496574 0
0.805615 0.490608 0
0.902052 0.484657 0
0.991516 0.478614 0
1 0.472374 0
1 0.466285 0
0 0.609308 0
0 0.610636 0
0 0.61857 0
0 0.626078 0
0 0.63006 0
0.0520027 0.627741 0
0.155459 0.621271 0
0.26772 0.612192 0
0.380453 0.602335 0
0.486824 0.593805 0
0.586892 0.586892 0
0.684886 0.580102 0
0.781735 0.573693 0
0.877806 0.567391 0
0.973526 0.561013 0
1 0.554696 0
1 0.548363 0
0 0.698924 0
0 0.700084 0
0 0.707164 0
0 0.713863 0
0 0.716686 0
0.033402 0.713115 0
0.135058 0.705638 0
0.24625 0.695506 0
0.358328 0.684977 0
0.464347 0.676112 0
0.563943 0.668711 0
0.661799 0.661784 0
0.75845 0.655177 0
0.854276 0.64863 0
0.949935 0.642206 0
0.999969 0.635615 0
1 0.629145 0
0 0.784924 0
0 0.785916 0
0 0.791943 0
0 0.797452 0
0 0.799451 0
0.0164187 0.795331 0
0.113481 0.787335 0
0.224491 0.777005 0
0.33637 0.766293 0
0.4421 0.757122 0
0.541634 0.749676 0
0.639261 0.742519 0
0.735714 0.735714 0
0.83151 0.729137 0
0.926894 0.722423 0
0.998001 0.715816 0
1 0.709255 0
0 0.867414 0
0 0.868254 0
0 0.87361 0
0 0.878904 0
0 0.880613 0
0.00154116 0.876204 0
0.0919509 0.868177 0
0.20267 0.857572 0
0.314397 0.846708 0
0.420035 0.83743 0
0.519326 0.82974 0
0.616892 0.822538 0
0.713268 0.815641 0
0.808835 0.808835 0
0.904265 0.802167 0
0.995422 0.795392 0
1 0.788724 0
0 0.948333 0
0 0.949172 0
0 0.954482 0
0 0.959472 0
0 0.961028 0
0 0.956588 0
0.0699168 0.948241 0
0.180591 0.937575 0
0.292195 0.926574 0
0.397635 0.917128 0
0.496925 0.909438 0
0.594369 0.902098 0
0.690608 0.895079 0
0.786206 0.888304 0
0.881453 0.881453 0
0.976822 0.874662 0
1 0.867994 0
0 0.999451 0
0 0.999542 0
0 0.999985 0
0 1 0
0 1 0
0 1 0
0.0475929 0.99939 0
0.158053 0.998169 0
0.269474 0.996902 0
0.375036 0.995422 0
0.474113 0.988785 0
0.571557 0.98146 0
0.667781 0.974411 0
0.763195 0.967453 0
0.858534 0.960708 0
0.953857 0.953857 0
1 0.947097 0
0 1 0
0 1 0
0 1 0
0 1 0
0 1 0
0 1 0
0.0270848 1 0
0.135698 1 0
0.247181 1 0
0.352453 1 0
0.451682 1 0
0.549004 1 0
0.645197 1 0
0.740734 1 0
0.83595 1 0
0.93135 0.999985 0
0.999924 0.999954 0
0 0 0.0545968
0.0075227 0 0.0540475
0.0514076 0 0.0514076
0.0964523 0 0.0483406
0.153872 0 0.0415656
0.233478 0 0.0286564
0.326619 0 0.0118715
0.428809 0 0.00183108
0.532128 0 0
0.62948 0 0
0.720974 0 0
0.811017 0 0
0.900359 0 0
0.987228 0 0
1 0 0
1 0 0
1 0 0
0 0.00622568 0.0527504
0.0068513 0.00602731 0.0522011
0.0493782 0.00489815 0.0493782
0.0942855 0.00363165 0.0461738
0.151659 0.00111391 0.0393378
0.231189 0 0.0263676
0.324376 0 0.0104982
0.426657 0 0.00115969
0.530037 0 0
0.627619 0 0
0.71931 0 0
0.809689 0 0
0.899443 0 0
0.986999 0 0
1 0 0
1 0 0
1 0 0
0 0.0425269 0.0425269
0.00300603 0.0418402 0.0418402
0.0384375 0.0384375 0.0384375
0.0830243 0.0349126 0.0349126
0.140307 0.027985 0.0280003
0.220111 0.0152895 0.0152895
0.313878 0.0040589 0.00488289
0.416938 0 0
0.521675 0 0
0.620813 0 0
0.714702 0 0
0.807767 0 0
0.90071 0 0
0.98819 0 0
1 0 0
1 0 0
1 0 0
0 0.0787671 0.0306554
6.10361e-05 0.0781415 0.0300298
0.0270237 0.0751354 0.0270237
0.0722057 0.0722057 0.024094
0.130541 0.066331 0.0182193
0.211734 0.055024 0.0087892
0.307164 0.040528 0.00177005
0.412787 0.0248264 0
0.520226 0.0117647 0
0.622782 0.00492866 0
0.720012 0.000320439 0
0.81619 0 0
0.91194 0 0
0.992432 0 0
1 0 0
1 0 0
1 0 0
0 0.121889 0.0112764
0 0.121492 0.0110018
0.0099031 0.119982 0.00991836
0.0548257 0.119036 0.00923171
0.115785 0.115785 0.00717174
0.199924 0.107408 0.00311284
0.298939 0.0964981 7.62951e-05
0.407675 0.0839094 0
0.518273 0.0719005 0
0.623362 0.062089 0
0.722591 0.0543374 0
0.820752 0.047715 0
0.918013 0.0417182 0
0.994812 0.0364385 0
1 0.031632 0
1 0.0270237 0
1 0.0240635 0
0 0.17995 1.5259e-05
0 0.180072 1.5259e-05
9.15541e-05 0.181674 6.10361e-05
0.0274968 0.184207 0.000183108
0.0916304 0.184131 7.62951e-05
0.178744 0.178744 0
0.279957 0.170031 0
0.39086 0.159594 0
0.50312 0.149264 0
0.609689 0.140932 0
0.710704 0.134966 0
0.81004 0.129534 0
0.908721 0.124941 0
0.992004 0.120806 0
1 0.116823 0
1 0.11313 0
1 0.10956 0
0 0.253788 0
0 0.254383 0
0 0.258732 0
0.004654 0.263493 0
0.0628214 0.265248 0
0.151614 0.26154 0
0.254475 0.254475 0
0.366751 0.245426 0
0.480415 0.236484 0
0.588373 0.229526 0
0.690181 0.224369 0
0.7906 0.22002 0
0.889921 0.216068 0
0.985824 0.212345 0
1 0.208743 0
1 0.204944 0
1 0.201205 0
0 0.338506 0
0 0.339452 0
0 0.345541 0
0 0.351705 0
0.0313115 0.355032 0
0.12134 0.352605 0
0.22533 0.34667 0
0.338659 0.338659 0
0.453162 0.330571 0
0.561624 0.324117 0
0.664057 0.319585 0
0.764477 0.315221 0
0.863722 0.311192 0
0.962173 0.307286 0
1 0.303059 0
1 0.298604 0
1 0.293996 0
0 0.429114 0
0 0.430228 0
0 0.437369 0
0 0.444862 0
0.00968948 0.449012 0
0.0934005 0.447257 0
0.198047 0.441993 0
0.311589 0.434195 0
0.426154 0.426154 0
0.5346 0.419699 0
0.636393 0.414511 0
0.7364 0.409735 0
0.834806 0.404883 0
0.932143 0.399847 0
0.99852 0.394644 0
1 0.388891 0
1 0.383169 0
0 0.520882 0
0 0.522194 0
0 0.53019 0
0 0.537972 0
0 0.542382 0
0.0719615 0.540719 0
0.176196 0.535042 0
0.289403 0.526909 0
0.403311 0.518196 0
0.510674 0.510674 0
0.611658 0.504677 0
0.710323 0.498573 0
0.807568 0.492546 0
0.904021 0.48661 0
0.992096 0.480415 0
1 0.47425 0
1 0.468116 0
0 0.612131 0
0 0.613382 0
0 0.621149 0
0 0.628702 0
0 0.632563 0
0.0543221 0.63006 0
0.157748 0.62356 0
0.26981 0.614298 0
0.382422 0.604303 0
0.488823 0.595804 0
0.588724 0.588724 0
0.686732 0.581979 0
0.783597 0.575555 0
0.879561 0.569146 0
0.975372 0.56286 0
1 0.556435 0
1 0.550072 0
0 0.70132 0
0 0.70248 0
0 0.70959 0
0 0.71603 0
0 0.718776 0
0.0352636 0.715175 0
0.136934 0.707515 0
0.248173 0.697429 0
0.360235 0.68687 0
0.466087 0.677836 0
0.565805 0.670573 0
0.6636 0.6636 0
0.760159 0.656901 0
0.856107 0.650462 0
0.951629 0.643885 0
1 0.637293 0
1 0.63093 0
0 0.787106 0
0 0.788052 0
0 0.793835 0
0 0.799374 0
0 0.801343 0
0.0178378 0.797116 0
0.115389 0.789242 0
0.226276 0.77879 0
0.338094 0.768017 0
0.443915 0.758923 0
0.543328 0.751354 0
0.641001 0.744259 0
0.737484 0.737484 0
0.833158 0.730785 0
0.928649 0.724193 0
0.998199 0.71751 0
1 0.710887 0
0 0.869184 0
0 0.870054 0
0 0.875486 0
0 0.88069 0
0 0.882368 0
0.00202945 0.878065 0
0.0936446 0.869871 0
0.20441 0.859312 0
0.316152 0.848447 0
0.421683 0.839078 0
0.521065 0.831495 0
0.618585 0.824231 0
0.7149 0.817273 0
0.810559 0.810559 0
0.905882 0.8038 0
0.995605 0.797024 0
1 0.790433 0
0 0.950225 0
0 0.951049 0
0 0.956207 0
0 0.961212 0
0 0.962829 0
0 0.958221 0
0.0716564 0.949981 0
0.1823 0.939284 0
0.293797 0.928191 0
0.39942 0.918898 0
0.498573 0.911086 0
0.595972 0.903716 0
0.692317 0.896788 0
0.787793 0.889876 0
0.883116 0.883116 0
0.9785 0.876326 0
1 0.869581 0
0 0.999649 0
0 0.999741 0
0 1 0
0 1 0
0 1 0
0 1 0
0.0491951 0.999573 0
0.159716 0.998352 0
0.27126 0.997101 0
0.376593 0.995926 0
0.475822 0.990494 0
0.57319 0.983093 0
0.669306 0.975952 0
0.76492 0.969192 0
0.860166 0.962325 0
0.955505 0.955505 0
1 0.948837 0
0 1 0
0 1 0
0 1 0
0 1 0
0 1 0
0 1 0
0.0285954 1 0
0.137377 1 0
0.248737 1 0
0.354147 1 0
0.453269 1 0
0.550591 1 0
0.646891 1 0
0.742306 1 0
0.837583 1 0
0.932998 0.999985 0
0.999939 0.999969 0
0 0 0.101762
0.007187 0 0.101213
0.05037 0 0.0984817
0.0953689 0 0.0953689
0.152697 0 0.0885023
0.232258 0 0.0755474
0.32546 0 0.0588083
0.427604 0 0.0396429
0.530983 0 0.0204776
0.628443 0 0.00758373
0.719997 0 3.0518e-05
0.810193 0 0
0.899825 0 0
0.987076 0 0
1 0 0
1 0 0
1 0 0
0 0.00585946 0.0998856
0.00646983 0.00563058 0.099321
0.0482948 0.00447089 0.0964065
0.0931716 0.00320439 0.0931716
0.150439 0.000656138 0.086244
0.229969 0 0.0732586
0.323217 0 0.0565805
0.425452 0 0.0374914
0.528984 0 0.0185702
0.626642 0 0.00654612
0.718425 0 1.5259e-05
0.809033 0 0
0.899031 0 0
0.986923 0 0
1 0 0
1 0 0
