Fusion/LUTs/Alexandru-Don-LUTs-v2/Alexandru-Don-LUTs/Monitoring Luts/Monitoring Lut 3.cube
TITLE "Generated by Resolve"
LUT_3D_SIZE 9
0 0 0
0.0161593 0 0
0.128069 0 0
0.325902 0 0
0.57113 0 0
0.792004 0 0
1 0 0
1 0 0
1 0 0
0 0.0118257 0
0.0113832 0.0104677 0
0.121202 0.00482185 0
0.316487 0 0
0.56199 0 0
0.78436 0 0
0.996201 0 0
1 0 0
1 0 0
0 0.0995193 0
0 0.0980392 0
0.0905928 0.0905928 0
0.289387 0.0642405 0
0.546029 0.0292058 0
0.783902 0.00984207 0
0.995254 0.00317388 0
1 0 0
1 0 0
0 0.240177 0
0 0.239231 0
0.0240787 0.246723 0
0.235279 0.235279 0
0.503944 0.211337 0
0.751751 0.195636 0
0.985473 0.184222 0
1 0.173739 0
1 0.169772 0
0 0.444434 0
0 0.443427 0
0 0.458869 0
0.16173 0.453971 0
0.433768 0.433768 0
0.683253 0.418601 0
0.919539 0.405295 0
1 0.39057 0
1 0.385031 0
0 0.659007 0
0 0.657435 0
0 0.672969 0
0.109392 0.666148 0
0.376242 0.641276 0
0.621164 0.621164 0
0.853544 0.603998 0
1 0.586954 0
1 0.580682 0
0 0.859739 0
0 0.858244 0
0 0.869047 0
0.0526589 0.859586 0
0.317556 0.833066 0
0.562097 0.811749 0
0.793729 0.793729 0
1 0.77615 0
1 0.769162 0
0 1 0
0 1 0
0 1 0
0.000595102 1 0
0.257939 1 0
0.502708 0.992584 0
0.734066 0.978683 0
0.962707 0.963073 0
1 0.955779 0
0 1 0
0 1 0
0 1 0
0 1 0
0.232853 1 0
0.477943 1 0
0.709072 1 0
0.937667 1 0
1 1 0
0 0 0.0175479
0.0155642 0 0.0158694
0.127291 0 0.00944533
0.324804 0 0
0.570031 0 0
0.790875 0 0
1 0 0
1 0 0
1 0 0
0 0.0112764 0.0124971
0.0109712 0.0100404 0.0113069
0.120577 0.00453193 0.00598154
0.315572 0 0
0.561074 0 0
0.783581 0 0
0.995422 0 0
1 0 0
1 0 0
0 0.0989548 0
0 0.0974289 0
0.0901808 0.090074 0
0.288716 0.0639658 0
0.545388 0.0289921 0
0.783337 0.00959792 0
0.994873 0.00315862 0
1 0 0
1 0 0
0 0.23975 0
0 0.238758 0
0.0241093 0.246159 0
0.234989 0.234775 0
0.503548 0.210956 0
0.7514 0.195193 0
0.984955 0.183719 0
1 0.17319 0
1 0.168978 0
0 0.443992 0
0 0.442893 0
0 0.458305 0
0.161303 0.453285 0
0.433265 0.433051 0
0.68275 0.418006 0
0.919051 0.404669 0
1 0.38999 0
1 0.384405 0
0 0.658289 0
0 0.656794 0
0 0.672312 0
0.108751 0.665583 0
0.375601 0.640726 0
0.620661 0.620462 0
0.853056 0.603296 0
1 0.586404 0
1 0.580087 0
0 0.858991 0
0 0.857481 0
0 0.868421 0
0.0520333 0.859052 0
0.316915 0.832547 0
0.561532 0.811215 0
0.793225 0.793042 0
1 0.775479 0
1 0.768566 0
0 1 0
0 1 0
0 1 0
0.000595102 1 0
0.257282 1 0
0.502144 0.992477 0
0.733532 0.978317 0
0.962203 0.962539 0
1 0.955047 0
0 1 0
0 1 0
0 1 0
0 1 0
0.232029 1 0
0.477226 1 0
0.70837 1 0
0.93695 1 0
1 1 0
0 0 0.1355
0.0133974 0 0.133394
0.123629 0 0.123735
0.320607 0 0.0898146
0.566018 0 0.0431373
0.787823 0 0.00947585
1 0 0
1 0 0
1 0 0
0 0.00933852 0.128634
0.00915541 0.00817884 0.126802
0.117052 0.00276188 0.117174
0.31165 0 0.0842451
0.557458 0 0.0381933
0.780835 0 0.00730907
0.994736 0 0
1 0 0
1 0 0
0 0.0959793 0.0962081
0 0.0945907 0.0946975
0.0883345 0.0882277 0.0883497
0.288045 0.0639048 0.0640116
0.546471 0.0307317 0.0308385
0.785733 0.0105898 0.0101778
0.995621 0.00457771 0.00364691
1 0.000534066 0.000213626
1 0 0
0 0.241688 0.018967
0 0.240726 0.0187076
0.0277562 0.249409 0.0277562
0.239033 0.239033 0.0184787
0.508278 0.21593 0.00500496
0.756649 0.20058 0.00125124
0.98674 0.18909 0
1 0.17847 0
1 0.174487 0
0 0.448966 0
0 0.447623 0
0 0.463539 0
0.167041 0.458991 0
0.438697 0.438697 0
0.687846 0.423194 0
0.923491 0.409186 0
1 0.393713 0
1 0.388067 0
0 0.663523 0
0 0.661997 0
0 0.67715 0
0.112978 0.669688 0
0.379232 0.644511 0
0.624201 0.624201 0
0.856489 0.606912 0
1 0.589792 0
1 0.583459 0
0 0.862608 0
0 0.861082 0
0 0.871763 0
0.055375 0.86247 0
0.320226 0.835782 0
0.564691 0.814404 0
0.796307 0.796307 0
1 0.778637 0
1 0.771649 0
0 1 0
0 1 0
0 1 0
0.00289921 1 0
0.260288 1 0
0.505058 0.995239 0
0.736477 0.980865 0
0.964752 0.965454 0
1 0.957946 0
0 1 0
0 1 0
0 1 0
0 1 0
0.234699 1 0
0.479698 1 0
0.710826 1 0
0.939315 1 0
1 1 0
0 0 0.357885
0.00553903 0 0.354772
0.112078 0 0.343771
0.308751 0 0.308949
0.554589 0 0.261524
0.777401 0 0.223072
0.994339 0 0.191119
1 0 0.165484
1 0 0.159899
0 0.00250248 0.347646
0.00285344 0.00183108 0.34493
0.105776 0 0.334096
0.300175 0 0.300389
0.546517 0 0.253712
0.770993 0 0.216052
0.98941 0 0.185412
1 0 0.160662
1 0 0.154406
0 0.0855421 0.312459
0 0.0843366 0.310277
0.0792401 0.0792401 0.304173
0.28072 0.0568551 0.280934
0.540856 0.0254215 0.24828
0.781338 0.00895705 0.225803
0.994583 0.00363165 0.208881
1 0.000167849 0.194705
1 0 0.189853
0 0.236667 0.236881
0 0.235782 0.235996
0.0240482 0.245411 0.245624
0.235966 0.235966 0.236179
0.505928 0.213413 0.213825
0.75494 0.198581 0.198795
0.985946 0.187579 0.187793
1 0.176944 0.177157
1 0.172808 0.173022
0 0.446662 0.154513
0 0.445518 0.153445
0 0.461814 0.169818
0.165301 0.45745 0.165515
0.436881 0.436881 0.145022
0.685771 0.420783 0.129015
0.920867 0.40621 0.114534
1 0.39057 0.0989395
1 0.384771 0.0932174
0 0.661662 0.105226
0 0.659998 0.103578
0 0.674632 0.118029
0.10985 0.666835 0.110048
0.375952 0.641321 0.0843519
0.620905 0.620905 0.0635691
0.853162 0.603555 0.0460365
1 0.586389 0.0291447
1 0.579995 0.0237278
0 0.859327 0.0528267
0 0.857877 0.0511482
0 0.868437 0.0616617
0.0520485 0.859266 0.0522621
0.316838 0.832731 0.0261082
0.561456 0.8112 0.00679026
0.793042 0.793042 0
1 0.775418 0
1 0.768399 0
0 1 0
0 1 0
0 1 0.00631724
0.00128176 1 0.00149538
0.256977 1 0
0.502037 0.993179 0
0.733425 0.978378 0
0.962097 0.962463 0
1 0.955169 0
0 1 0
0 1 0
0 1 0
0 1 0
0.231266 1 0
0.476692 1 0
0.707942 1 0
0.936599 1 0
1 1 0
0 0 0.635157
0 0 0.631708
0.0960708 0 0.62034
0.2925 0 0.585626
0.538827 0 0.538827
0.762661 0 0.501427
0.981567 0 0.471336
1 0 0.447578
1 0 0.441688
0 0 0.624628
0 0 0.621805
0.0898909 0 0.610529
0.284153 0 0.57702
0.531075 0 0.531075
0.756664 0 0.494591
0.976928 0 0.46566
1 0 0.442557
1 0 0.436088
0 0.0708171 0.590204
0 0.0695811 0.588006
0.0661326 0.0660105 0.583154
0.269139 0.0456855 0.561761
0.530648 0.0156405 0.530648
0.772091 0.00584421 0.508949
0.991836 0.0012665 0.492729
1 0 0.479072
1 0 0.474128
0 0.226917 0.519738
0 0.226017 0.518746
0.0163119 0.236469 0.529107
0.228153 0.227955 0.520516
0.49868 0.20618 0.49868
0.748089 0.191669 0.484092
0.982513 0.180682 0.47303
1 0.169787 0.462058
1 0.165408 0.457603
0 0.439384 0.439612
0 0.438193 0.438422
0 0.454734 0.454734
0.158404 0.450294 0.450507
0.429709 0.42948 0.429709
0.678035 0.412955 0.413184
0.91252 0.397742 0.397955
1 0.381735 0.381949
1 0.375921 0.376135
0 0.653925 0.3897
0 0.652399 0.387915
0 0.666377 0.401633
0.101091 0.658152 0.39295
0.367025 0.632486 0.367025
0.612055 0.611856 0.346334
0.844251 0.59443 0.328664
1 0.577356 0.311345
1 0.570855 0.304585
0 0.850233 0.335653
0 0.848798 0.333913
0 0.859266 0.344076
0.0428168 0.850095 0.334386
0.307439 0.823453 0.307439
0.552224 0.801968 0.285649
0.783902 0.783719 0.267231
0.999329 0.76611 0.249256
1 0.759045 0.24184
0 1 0.277028
0 1 0.275349
0 1 0.284489
0 1 0.27483
0.247486 1 0.247486
0.492668 0.98584 0.225055
0.724193 0.97055 0.206271
0.953323 0.953124 0.188205
1 0.945678 0.180407
0 1 0.252705
0 1 0.250507
0 1 0.258915
0 1 0.249485
0.221881 1 0.221881
0.467399 1 0.198749
0.698589 1 0.179416
0.927245 1 0.160891
1 1 0.152361
0 0 0.881132
0 0 0.878096
0.0821546 0 0.86688
0.278447 0 0.832776
0.525444 0 0.786923
0.750744 0 0.750744
0.971801 0 0.723033
1 0 0.701228
1 0 0.695933
0 0 0.871458
0 0 0.868894
0.0760967 0 0.858061
0.270329 0 0.825269
0.518013 0 0.780362
0.745251 0 0.745251
0.967468 0 0.718532
1 0 0.697108
1 0 0.691173
0 0.0585184 0.839353
0 0.057435 0.837446
0.0554818 0.0554818 0.834669
0.259876 0.0370336 0.815412
0.522576 0.010544 0.785794
0.765011 0.00363165 0.765209
0.9897 6.10361e-05 0.749844
1 0 0.737118
1 0 0.732586
0 0.219608 0.775219
0 0.218708 0.774487
0.0118868 0.230137 0.786099
0.222339 0.222339 0.778485
0.493278 0.201022 0.757336
0.742992 0.186694 0.743191
0.9794 0.175479 0.732174
1 0.164279 0.721141
1 0.159884 0.71693
0 0.434409 0.6981
0 0.432959 0.697124
0 0.449638 0.714061
0.153246 0.445319 0.709987
0.423972 0.423972 0.688884
0.671778 0.40679 0.671977
0.905638 0.390936 0.656168
1 0.374517 0.640223
1 0.368582 0.634546
0 0.648234 0.648234
0 0.646662 0.646662
0 0.659998 0.660014
0.094316 0.65124 0.651438
0.359823 0.625422 0.625605
0.604715 0.604715 0.604913
0.836774 0.587121 0.587121
1 0.569909 0.569894
1 0.563485 0.563485
0 0.843076 0.593561
0 0.841611 0.59205
0 0.852049 0.602441
0.0357519 0.842878 0.59321
0.299901 0.816052 0.566537
0.544717 0.794491 0.544915
0.776135 0.776135 0.526513
0.996612 0.75848 0.508598
1 0.751522 0.501579
0 1 0.535622
0 1 0.533944
0 1 0.543374
0 1 0.534325
0.239872 0.997147 0.507317
0.484993 0.97969 0.485191
0.716533 0.963333 0.466697
0.945525 0.945525 0.448615
1 0.938003 0.441032
0 1 0.512139
0 1 0.510048
0 1 0.518578
0 1 0.509575
0.213779 1 0.482261
0.459205 1 0.459403
0.690517 1 0.440452
0.919234 1 0.422095
1 1 0.413703
0 0 1
0 0 1
0.0693675 0 1
0.26569 0 1
0.513512 0 1
0.740459 0 0.989197
0.963439 0 0.963439
1 0 0.943114
1 0 0.938125
0 0 1
0 0 1
0.0634775 0 1
0.257832 0 1
0.506416 0 0.997192
0.735363 0 0.984268
0.959335 0 0.959335
1 0 0.939178
1 0 0.933562
0 0.047715 1
0 0.0467536 1
0.0467536 0.0466468 1
0.252506 0.0299382 1
0.516228 0.00819409 0.998215
0.759594 0.00215152 0.992691
0.987823 0 0.987518
1 0 0.981125
1 0 0.977127
0 0.213672 0.99585
0 0.212711 0.995438
0.00814832 0.224964 0.998749
0.21796 0.21796 0.997208
0.489387 0.196948 0.989639
0.739345 0.182757 0.983459
0.976898 0.171588 0.976699
1 0.159945 0.966247
1 0.155398 0.961929
0 0.430228 0.94342
0 0.428901 0.942397
0 0.445655 0.959442
0.149096 0.441138 0.955047
0.419394 0.419394 0.933623
0.666651 0.401358 0.916106
0.900175 0.385122 0.900175
1 0.368688 0.884047
1 0.362646 0.878309
0 0.643336 0.892699
0 0.641642 0.891234
0 0.654185 0.903853
0.0881971 0.645426 0.895125
0.35375 0.61944 0.869017
0.598672 0.598672 0.848295
0.830732 0.581064 0.830732
1 0.563653 0.813565
1 0.557 0.806958
0 0.837156 0.837156
0 0.835706 0.835706
0 0.845808 0.846006
0.0298619 0.836606 0.836805
0.293507 0.809812 0.809812
0.538323 0.788128 0.788128
0.769879 0.769879 0.769879
0.992096 0.752194 0.752194
1 0.744839 0.745037
0 1 0.778958
0 1 0.777523
0 1 0.786892
0 1 0.777981
0.233173 0.992401 0.750698
0.478523 0.974227 0.728511
0.710048 0.956847 0.710048
0.939101 0.939101 0.692287
1 0.931609 0.684794
0 1 0.755169
0 1 0.753307
0 1 0.761944
0 1 0.753231
0.207019 1 0.725795
0.452766 1 0.702983
0.684077 1 0.684077
0.912825 1 0.66601
1 1 0.657588
0 0 1
0 0 1
0.0567178 0 1
0.2533 0 1
0.502205 0 1
0.731106 0 1
0.956054 0 1
1 0 1
1 0 1
0 0 1
0 0 1
0.0510262 0 1
0.245716 0 1
0.49546 0 1
0.726207 0 1
0.951919 0 1
1 0 1
1 0 1
0 0.0377356 1
0 0.03682 1
0.0387732 0.0386664 1
0.245548 0.0233768 1
0.510109 0.00628672 1
0.75436 0.000885023 1
0.985748 0 1
1 0 1
1 0 1
0 0.208255 1
0 0.207279 1
0.00646983 0.220188 1
0.213993 0.213779 1
0.485603 0.193194 1
0.735698 0.179049 1
0.973571 0.16759 1
1 0.155459 1
1 0.150561 1
0 0.426596 1
0 0.425193 1
0 0.441947 1
0.14519 0.436988 1
0.414847 0.414618 1
0.661448 0.396048 1
0.894408 0.379431 1
1 0.362875 1
1 0.356863 1
0 0.638224 1
0 0.636698 1
0 0.648798 1
0.0825818 0.639872 1
0.348043 0.613825 1
0.592935 0.592737 1
0.824903 0.575021 1
1 0.557656 1
1 0.551019 1
0 0.831113 1
0 0.829664 1
0 0.839796 1
0.0244144 0.830671 1
0.287495 0.803906 1
0.532341 0.782162 1
0.763912 0.763714 0.999054
0.987533 0.745998 0.987305
1 0.738796 0.981964
0 1 0.999374
0 1 0.99942
0 1 1
0 1 0.999908
0.227008 0.987732 0.986374
0.472435 0.969009 0.967926
0.704036 0.950835 0.950835
0.93315 0.932967 0.93315
1 0.925292 0.925292
0 1 0.989258
0 1 0.988739
0 1 0.997452
0 1 0.990997
0.20061 1 0.965957
0.446311 1 0.943358
0.677699 1 0.924514
0.906477 1 0.906477
1 1 0.897871
0 0 1
0 0 1
0.0542916 0 1
0.250492 0 1
0.499504 0 1
0.728969 0 1
0.954192 0 1
1 0 1
1 0 1
0 0 1
0 0 1
0.0483864 0 1
0.242725 0 1
0.492607 0 1
0.723918 0 1
0.949859 0 1
1 0 1
1 0 1
0 0.0354772 1
0 0.0345006 1
0.0366064 0.0366064 1
0.243229 0.0216831 1
0.507927 0.00561532 1
0.752453 0.000610361 1
0.984802 0 1
1 0 1
1 0 1
0 0.206363 1
0 0.205341 1
0.0059205 0.218433 1
0.212299 0.212299 1
0.483986 0.191821 1
0.734188 0.177661 1
0.972274 0.165988 1
1 0.153719 1
1 0.148806 1
0 0.425162 1
0 0.423514 1
0 0.440162 1
0.143374 0.435355 1
0.412848 0.412848 1
0.659403 0.394095 1
0.892515 0.377417 1
1 0.360678 1
1 0.354421 1
0 0.636515 1
0 0.634958 1
0 0.646708 1
0.0802472 0.637629 1
0.345541 0.61146 1
0.590494 0.590494 1
0.822431 0.572717 1
1 0.555352 1
1 0.548501 1
0 0.829023 1
0 0.827543 1
0 0.837613 1
0.0225528 0.828397 1
0.284794 0.801389 1
0.529702 0.779538 1
0.761196 0.761196 1
0.985733 0.74345 1
1 0.73608 1
0 1 1
0 1 1
0 1 1
0 1 1
0.224262 0.985977 1
0.469627 0.966461 1
0.701183 0.947982 1
0.930236 0.930236 1
1 0.92253 1
0 1 1
0 1 1
0 1 1
0 1 1
0.197665 1 1
0.443397 1 1
0.674754 1 1
0.903502 1 1
0.997665 0.997665 0.997665
