Fusion/LUTs/Alexandru-Don-LUTs-v2/Alexandru-Don-LUTs/Monitoring Luts/Monitoring Lut 4.cube
TITLE "Generated by Resolve"
LUT_3D_SIZE 17
0.0159915 0.0153201 0.0159152
0.0159915 0.0153201 0.0159152
0.0350958 0.0214694 0.0225986
0.0965896 0.0236973 0.0246281
0.206332 0.026978 0.022858
0.348837 0.0426947 0.0214389
0.500343 0.0707866 0.0203098
0.645243 0.0950484 0.0174258
0.752255 0.108278 0.0167086
0.836896 0.115587 0.0166018
0.8448 0.115724 0.0166934
0.8448 0.115724 0.0166934
0.8448 0.115724 0.0166934
0.8448 0.115724 0.0166934
0.8448 0.115724 0.0166934
0.8448 0.115724 0.0166934
0.8448 0.115724 0.0166934
0.0159915 0.0153201 0.0159152
0.0159915 0.0153201 0.0159152
0.0244297 0.019913 0.0209049
0.0720226 0.0232395 0.024506
0.1776 0.0256657 0.0234531
0.323583 0.0384527 0.0214237
0.481636 0.0672313 0.020737
0.627619 0.0923323 0.0176089
0.739101 0.107042 0.0166934
0.826093 0.114961 0.0166171
0.8448 0.115724 0.0166934
0.8448 0.115724 0.0166934
0.8448 0.115724 0.0166934
0.8448 0.115724 0.0166934
0.8448 0.115724 0.0166934
0.8448 0.115724 0.0166934
0.8448 0.115724 0.0166934
0.021561 0.0241855 0.0259403
0.0201724 0.0219883 0.0234379
0.0194858 0.019852 0.0206455
0.0492561 0.0237888 0.0245365
0.139605 0.0245365 0.0242618
0.282338 0.0330663 0.022034
0.440726 0.0597696 0.0213016
0.5879 0.0861677 0.0184176
0.713497 0.104173 0.016907
0.802121 0.113115 0.0166934
0.8448 0.115724 0.0166934
0.8448 0.115724 0.0166934
0.8448 0.115724 0.0166934
0.8448 0.115724 0.0166934
0.8448 0.115724 0.0166934
0.8448 0.115724 0.0166934
0.8448 0.115724 0.0166934
0.0229496 0.0597696 0.0572976
0.0235599 0.0546578 0.0533455
0.0241398 0.0473182 0.0470588
0.0405737 0.0496376 0.0351263
0.123964 0.0451057 0.0292668
0.246952 0.0462043 0.0251316
0.409293 0.0581979 0.021622
0.562402 0.0819104 0.0188144
0.69575 0.102007 0.0170291
0.787991 0.111818 0.0167697
0.843626 0.115694 0.0166781
0.8448 0.115724 0.0166934
0.8448 0.115724 0.0166934
0.8448 0.115724 0.0166934
0.8448 0.115724 0.0166934
0.8448 0.115724 0.0166934
0.8448 0.115724 0.0166934
0.0173342 0.112444 0.0921187
0.0171664 0.106828 0.0882124
0.0178073 0.0986191 0.0829633
0.0189822 0.092668 0.0777905
0.079942 0.0979477 0.044007
0.212757 0.0885939 0.0347295
0.363165 0.0874342 0.0224002
0.519478 0.096025 0.0176242
0.663508 0.109636 0.0166018
0.768063 0.116884 0.0165255
0.84036 0.119951 0.0167239
0.844526 0.118608 0.0167239
0.844556 0.118318 0.0167239
0.844511 0.118746 0.0167239
0.844419 0.119722 0.0167391
0.844312 0.120851 0.0167544
0.844221 0.122148 0.0167544
0.0214542 0.180407 0.147799
0.0211032 0.176272 0.14406
0.0205081 0.169421 0.13785
0.0201114 0.164874 0.133745
0.0291905 0.160662 0.121798
0.153826 0.164965 0.0674144
0.311833 0.150759 0.0483711
0.470954 0.144808 0.0259709
0.619165 0.148333 0.0161898
0.743893 0.151125 0.0167391
0.830121 0.150042 0.0170901
0.845197 0.147677 0.0171817
0.845182 0.147494 0.0171817
0.84538 0.148913 0.0172427
0.845762 0.151247 0.0173342
0.84622 0.153933 0.0174563
0.846647 0.156542 0.0175631
0.0270695 0.255207 0.218967
0.026978 0.253513 0.217411
0.0267185 0.249165 0.213397
0.0265965 0.247089 0.211475
0.0263218 0.242649 0.206775
0.0759136 0.242405 0.183429
0.244541 0.247303 0.107057
0.426337 0.230442 0.0834821
0.573617 0.225132 0.0616159
0.716182 0.219913 0.0393378
0.811368 0.213031 0.0211032
0.855543 0.209186 0.0209049
0.855497 0.208743 0.0208743
0.855772 0.210285 0.0209964
0.856199 0.212634 0.0211795
0.85684 0.215549 0.0216831
0.857588 0.218433 0.0224155
0.0298161 0.340917 0.286015
0.0298161 0.341421 0.286351
0.0298009 0.339422 0.285023
0.0298009 0.339223 0.284886
0.0297856 0.336736 0.283207
0.0300908 0.328939 0.273518
0.16318 0.336324 0.225071
0.351553 0.340032 0.153124
0.530571 0.32546 0.129946
0.672236 0.315267 0.106401
0.791775 0.305074 0.0918593
0.863645 0.296117 0.0799725
0.871229 0.292378 0.0768902
0.871397 0.293553 0.0777142
0.871809 0.296407 0.0796979
0.872297 0.299931 0.0821546
0.872786 0.30338 0.084535
0.0311589 0.434821 0.341009
0.0311742 0.436973 0.341985
0.0311589 0.43595 0.341527
0.0311742 0.436561 0.341802
0.0311437 0.434424 0.340795
0.0310369 0.425299 0.3346
0.113909 0.418982 0.314366
0.224018 0.439918 0.215427
0.454063 0.430716 0.199329
0.626398 0.418357 0.178622
0.759182 0.40383 0.156451
0.845991 0.394095 0.142519
0.884184 0.388235 0.136004
0.885191 0.388693 0.136217
0.885603 0.391409 0.137987
0.886076 0.394553 0.140047
0.886549 0.397711 0.142092
0.0335546 0.531609 0.379156
0.0336767 0.534127 0.380011
0.0336156 0.532769 0.379553
0.0336156 0.53286 0.379583
0.0334325 0.529412 0.378408
0.0329747 0.520943 0.37554
0.0719615 0.505623 0.363912
0.227558 0.510079 0.334295
0.332189 0.529107 0.240742
0.549615 0.518318 0.242512
0.708812 0.51075 0.227481
0.823621 0.496193 0.211551
0.887343 0.4878 0.202045
0.899519 0.485252 0.199695
0.899748 0.486976 0.200824
0.900069 0.489281 0.202335
0.900328 0.491127 0.20354
0.0392157 0.623713 0.405066
0.0393378 0.624735 0.40531
0.0390936 0.622675 0.404822
0.0389868 0.621759 0.404593
0.0386511 0.618296 0.403723
0.0380102 0.609873 0.401541
0.0655222 0.593118 0.395071
0.190753 0.586679 0.376257
0.323186 0.599023 0.338827
0.463966 0.607538 0.287282
0.642634 0.601083 0.281544
0.778698 0.596933 0.274311
0.869398 0.587457 0.266514
0.910887 0.580926 0.260716
0.912718 0.580163 0.260105
0.91281 0.580896 0.260548
0.912825 0.581018 0.260624
0.0484932 0.703548 0.424262
0.0485389 0.704219 0.424399
0.0484169 0.702525 0.424048
0.0483558 0.701717 0.42388
0.048127 0.698772 0.423255
0.0471962 0.690593 0.421317
0.0707408 0.673701 0.416159
0.169421 0.658091 0.401999
0.304738 0.668101 0.385687
0.427817 0.67866 0.336233
0.583398 0.67921 0.323674
0.725795 0.675044 0.312261
0.835981 0.671901 0.312367
0.906752 0.667765 0.313024
0.924437 0.663233 0.31043
0.924285 0.662043 0.309743
0.924117 0.660609 0.308904
0.0511177 0.75584 0.436347
0.0511177 0.755947 0.436377
0.0511177 0.754559 0.436088
0.0511177 0.753567 0.435904
0.0510262 0.750591 0.435218
0.0506905 0.743679 0.433478
0.0691234 0.731792 0.430137
0.149447 0.719982 0.419333
0.279301 0.731563 0.409232
0.413291 0.739162 0.380392
0.549844 0.743114 0.358068
0.682261 0.742412 0.343267
0.794446 0.73785 0.338598
0.882445 0.734783 0.339559
0.926452 0.730602 0.341604
0.928664 0.727626 0.340825
0.928588 0.724575 0.339727
0.051133 0.765637 0.4383
0.051133 0.765637 0.4383
0.051133 0.765637 0.4383
0.051133 0.765637 0.4383
0.051133 0.765637 0.4383
0.051133 0.765637 0.4383
0.0651102 0.766537 0.438804
0.135729 0.760296 0.430671
0.258335 0.769329 0.422995
0.399558 0.784726 0.411032
0.526986 0.795209 0.386481
0.649439 0.796887 0.37171
0.758022 0.793393 0.365362
0.849363 0.789975 0.36051
0.915587 0.785901 0.358419
0.928069 0.781109 0.357198
0.928328 0.776944 0.355886
0.051133 0.765637 0.4383
0.051133 0.765637 0.4383
0.051133 0.765637 0.4383
0.051133 0.765637 0.4383
0.051133 0.765637 0.4383
0.051133 0.765637 0.4383
0.0628061 0.766415 0.438773
0.130068 0.767468 0.43328
0.243305 0.784344 0.428977
0.372747 0.812619 0.422034
0.500923 0.827298 0.403845
0.619898 0.833097 0.391165
0.725567 0.834302 0.386511
0.8159 0.833066 0.383078
0.890791 0.831159 0.379904
0.923644 0.827192 0.376623
0.924224 0.822522 0.374334
0.051133 0.765637 0.4383
0.051133 0.765637 0.4383
0.051133 0.765637 0.4383
0.051133 0.765637 0.4383
0.051133 0.765637 0.4383
0.051133 0.765637 0.4383
0.059617 0.766232 0.438743
0.123995 0.767452 0.433982
0.231815 0.78172 0.429191
0.357534 0.810025 0.42295
0.481865 0.832303 0.408377
0.59527 0.844327 0.399069
0.695735 0.851713 0.395239
0.782986 0.857282 0.395087
0.860059 0.858747 0.393484
0.913924 0.858137 0.391821
0.919676 0.85507 0.390326
0.051133 0.765637 0.4383
0.051133 0.765637 0.4383
0.051133 0.765637 0.4383
0.051133 0.765637 0.4383
0.051133 0.765637 0.4383
0.051133 0.765637 0.4383
0.054963 0.765988 0.438697
0.115755 0.767239 0.43476
0.217121 0.778393 0.429435
0.338994 0.807004 0.42385
0.462104 0.829343 0.409461
0.574929 0.842435 0.401129
0.673548 0.850324 0.395483
0.759991 0.855848 0.395239
0.83595 0.860044 0.394659
0.902235 0.863264 0.394308
0.918303 0.86421 0.39443
0.0159915 0.0153201 0.0159152
0.0159915 0.0153201 0.0159152
0.0335546 0.0213169 0.0224002
0.0937667 0.0236515 0.0246281
0.203143 0.0267796 0.0229038
0.346166 0.0422065 0.0214237
0.498009 0.0703441 0.0203555
0.643137 0.094728 0.0174411
0.751125 0.108171 0.0167086
0.836637 0.115587 0.0166018
0.8448 0.115724 0.0166934
0.8448 0.115724 0.0166934
0.8448 0.115724 0.0166934
0.8448 0.115724 0.0166934
0.8448 0.115724 0.0166934
0.8448 0.115724 0.0166934
0.8448 0.115724 0.0166934
0.0159915 0.0153201 0.0159152
0.0159915 0.0153201 0.0159152
0.0239872 0.0198062 0.020798
0.0700847 0.023209 0.024506
0.175647 0.0256046 0.0234989
0.322499 0.0382696 0.0214237
0.479927 0.0669108 0.0207828
0.625376 0.0919966 0.0176699
0.737392 0.106889 0.0166781
0.824277 0.114839 0.0166171
0.8448 0.115724 0.0166934
0.8448 0.115724 0.0166934
0.8448 0.115724 0.0166934
0.8448 0.115724 0.0166934
0.8448 0.115724 0.0166934
0.8448 0.115724 0.0166934
0.8448 0.115724 0.0166934
0.0209812 0.0232547 0.0248722
0.0197147 0.0212558 0.0226139
0.0190127 0.0192569 0.0200656
0.0470893 0.022797 0.024033
0.137026 0.0244755 0.0243076
0.279637 0.0327611 0.0220798
0.438453 0.0593423 0.0213321
0.585977 0.0858473 0.0184482
0.712291 0.104021 0.0169223
0.801099 0.113024 0.0166934
0.8448 0.115724 0.0166934
0.8448 0.115724 0.0166934
0.8448 0.115724 0.0166934
0.8448 0.115724 0.0166934
0.8448 0.115724 0.0166934
0.8448 0.115724 0.0166934
0.8448 0.115724 0.0166934
0.0233158 0.0575265 0.0557412
0.0237125 0.0528572 0.0518044
0.0242771 0.045594 0.0455787
0.0387427 0.0476387 0.034226
0.121065 0.0436561 0.0291447
0.245289 0.0446937 0.0250401
0.408148 0.0570687 0.021622
0.561196 0.0817121 0.0188296
0.694926 0.1019 0.0170291
0.78735 0.111757 0.0167849
0.843519 0.115694 0.0166629
0.8448 0.115724 0.0166934
0.8448 0.115724 0.0166934
0.8448 0.115724 0.0166934
0.8448 0.115724 0.0166934
0.8448 0.115724 0.0166934
0.8448 0.115724 0.0166934
0.017258 0.110094 0.090486
0.0171664 0.105013 0.0869917
0.0179751 0.0968338 0.0818647
0.0191196 0.0910964 0.076936
0.0787976 0.0961624 0.0437018
0.211322 0.0869612 0.0344244
0.362448 0.0863813 0.0224613
0.519051 0.0952468 0.0177005
0.663371 0.10927 0.0166171
0.768063 0.11664 0.0165408
0.840391 0.119814 0.0167239
0.844526 0.118547 0.0167239
0.844556 0.118303 0.0167239
0.844511 0.118776 0.0167239
0.844419 0.119768 0.0167391
0.844312 0.120928 0.0167544
0.844221 0.122225 0.0167544
0.0213016 0.178592 0.146151
0.0209659 0.17467 0.142596
0.0204013 0.168215 0.136767
0.0200198 0.163867 0.132845
0.0285191 0.159777 0.121324
0.152865 0.164096 0.0670481
0.311559 0.150195 0.048127
0.471061 0.144381 0.025742
0.619913 0.148333 0.0161898
0.744442 0.151095 0.0167391
0.830869 0.150179 0.0170901
0.845212 0.147723 0.0171817
0.845182 0.147585 0.0171817
0.845396 0.14902 0.0172427
0.845792 0.151369 0.0173495
0.846235 0.154086 0.0174563
0.846662 0.156603 0.0175784
0.0270085 0.254261 0.218097
0.0269322 0.25275 0.216709
0.0267033 0.248875 0.213138
0.0265812 0.246891 0.211307
0.0263218 0.242573 0.206744
0.0755932 0.242649 0.183795
0.244587 0.247517 0.107149
0.427253 0.230884 0.0836347
0.574517 0.225345 0.0616464
0.717083 0.220096 0.0393225
0.811963 0.213184 0.0211032
0.855589 0.209262 0.0209049
0.855528 0.208896 0.0208743
0.855756 0.210208 0.0209812
0.856199 0.212634 0.0211795
0.856794 0.215396 0.0216373
0.857557 0.218357 0.0224002
0.0298161 0.340825 0.285954
0.0298161 0.341421 0.286351
0.0298009 0.339529 0.285084
0.0298009 0.33962 0.285145
0.0297856 0.33724 0.283543
0.0300908 0.329427 0.273899
0.163378 0.33669 0.225467
0.351965 0.340368 0.153231
0.531075 0.325673 0.130022
0.672709 0.315282 0.106371
0.792035 0.304952 0.0917678
0.863706 0.29601 0.0798962
0.871199 0.292088 0.0766918
0.871382 0.293462 0.0776532
0.871763 0.296101 0.0794842
0.872251 0.299641 0.0819409
0.872724 0.302983 0.0842603
0.0311589 0.435142 0.341161
0.0311742 0.437369 0.342153
0.0311589 0.436454 0.341756
0.0311742 0.437064 0.342031
0.0311589 0.434928 0.341054
0.0310369 0.425711 0.334829
0.113527 0.419211 0.314611
0.22388 0.439857 0.215686
0.453941 0.430594 0.199252
0.626551 0.418112 0.178439
0.759152 0.403601 0.156298
0.846036 0.393881 0.142367
0.884123 0.387915 0.135805
0.88513 0.388251 0.135927
0.885542 0.390967 0.137697
0.886 0.394018 0.139681
0.886458 0.397055 0.141665
0.0335851 0.532235 0.37937
0.0336919 0.534432 0.380118
0.0336309 0.533181 0.37969
0.0336156 0.532967 0.379614
0.0334325 0.529519 0.378454
0.0329747 0.520943 0.37554
0.0713207 0.50573 0.364019
0.22707 0.509896 0.334325
0.331685 0.528969 0.240696
0.549218 0.51809 0.24239
0.708583 0.510399 0.227283
0.823377 0.495628 0.2112
0.88716 0.487251 0.201694
0.899413 0.484565 0.199252
0.899641 0.486183 0.200305
0.899916 0.488136 0.201572
0.900175 0.489967 0.202777
0.0392157 0.623713 0.405066
0.0393225 0.624628 0.40528
0.0390936 0.622675 0.404822
0.0389868 0.621759 0.404593
0.0386511 0.618296 0.403723
0.037995 0.609781 0.401511
0.0649577 0.593027 0.395102
0.189868 0.586282 0.376303
0.322835 0.598428 0.339208
0.463203 0.607202 0.287083
0.641886 0.600305 0.281193
0.777829 0.596139 0.273869
0.868803 0.586664 0.266056
0.910628 0.579767 0.260029
0.91252 0.578714 0.259205
0.912581 0.579187 0.25951
0.912566 0.57908 0.259434
0.0484932 0.703548 0.424262
0.0485389 0.704143 0.424384
0.0484169 0.702525 0.424048
0.0483406 0.701564 0.42385
0.048127 0.698695 0.423239
0.0471656 0.690303 0.421241
0.0702373 0.673457 0.416129
0.168231 0.657465 0.401938
0.303365 0.667216 0.38558
0.426139 0.677729 0.335805
0.582025 0.678294 0.323293
0.72433 0.673732 0.311666
0.834607 0.670359 0.31165
0.905669 0.666133 0.312154
0.924208 0.661448 0.309392
0.924025 0.659892 0.308492
0.923796 0.658106 0.307454
0.0511177 0.755688 0.436316
0.0511177 0.755901 0.436362
0.0511177 0.754391 0.436057
0.0511177 0.753307 0.435843
0.0510109 0.750164 0.435111
0.0506752 0.743175 0.433356
0.068452 0.731182 0.430045
0.147906 0.719142 0.419226
0.277729 0.730282 0.409064
0.411337 0.737713 0.380148
0.547723 0.741482 0.357473
0.680018 0.740398 0.342641
0.792065 0.735744 0.337804
0.880522 0.732601 0.338689
0.92607 0.728496 0.340825
0.928588 0.725017 0.339879
0.928512 0.722072 0.338827
0.051133 0.765637 0.4383
0.051133 0.765637 0.4383
0.051133 0.765637 0.4383
0.051133 0.765637 0.4383
0.051133 0.765637 0.4383
0.051133 0.765637 0.4383
0.0643015 0.766491 0.438788
0.134356 0.759243 0.430549
0.256336 0.76762 0.422751
0.39736 0.783139 0.410849
0.524392 0.793118 0.385916
0.646525 0.794583 0.370825
0.755352 0.790997 0.364294
0.846571 0.787259 0.359258
0.913619 0.783337 0.357412
0.928267 0.778042 0.356237
0.928542 0.77377 0.354879
0.051133 0.765637 0.4383
0.051133 0.765637 0.4383
0.051133 0.765637 0.4383
0.051133 0.765637 0.4383
0.051133 0.765637 0.4383
0.051133 0.765637 0.4383
0.061799 0.766354 0.438773
0.128344 0.767468 0.433478
0.240528 0.783673 0.429053
0.369116 0.811994 0.422263
0.498085 0.825345 0.403357
0.616846 0.83122 0.390784
0.722484 0.832151 0.38558
0.812924 0.830686 0.382025
0.888289 0.828504 0.378729
0.924025 0.824338 0.375204
0.924575 0.81944 0.372839
0.051133 0.765637 0.4383
0.051133 0.765637 0.4383
0.051133 0.765637 0.4383
0.051133 0.765637 0.4383
0.051133 0.765637 0.4383
0.051133 0.765637 0.4383
0.0584421 0.766171 0.438727
0.121889 0.767452 0.434226
0.22855 0.780972 0.429252
0.353353 0.809339 0.423163
0.477806 0.831693 0.408606
0.591241 0.843976 0.399466
0.691615 0.851438 0.395209
0.778988 0.856077 0.39469
0.85658 0.856855 0.392767
0.912596 0.856138 0.390967
0.919951 0.853178 0.389471
0.051133 0.765637 0.4383
0.051133 0.765637 0.4383
0.051133 0.765637 0.4383
0.051133 0.765637 0.4383
0.051133 0.765637 0.4383
0.051133 0.765637 0.4383
0.0544747 0.765942 0.438636
0.113634 0.767147 0.434928
0.213519 0.7776 0.42948
0.334554 0.806271 0.424063
0.457908 0.828717 0.409674
0.570809 0.842039 0.401556
0.66923 0.85005 0.395544
0.755474 0.855558 0.39527
0.831571 0.859831 0.394705
0.898177 0.863066 0.394339
0.918303 0.86421 0.39443
0.0222782 0.0252537 0.0364233
0.0216678 0.0239567 0.0334173
0.0404517 0.0257572 0.0439918
0.101503 0.0249485 0.0432288
0.203616 0.0240024 0.034699
0.345205 0.0352178 0.0225071
0.494224 0.0696269 0.0204471
0.639735 0.0941939 0.0174716
0.749172 0.107988 0.0167086
0.836027 0.115572 0.0165866
0.8448 0.115724 0.0166934
0.8448 0.115724 0.0166934
0.8448 0.115724 0.0166934
0.8448 0.115724 0.0166934
0.8448 0.115724 0.0166934
0.8448 0.115724 0.0166934
0.8448 0.115724 0.0166934
0.0201724 0.0209812 0.0265354
0.0196994 0.0203555 0.0251774
0.0265202 0.0221714 0.0304417
0.0726635 0.0237736 0.0319219
0.174258 0.0244755 0.0276036
0.320485 0.037583 0.0214694
0.476509 0.0662699 0.0208591
0.621592 0.0914321 0.0177615
0.734707 0.10663 0.0166781
0.821668 0.114656 0.0166323
0.8448 0.115724 0.0166934
0.8448 0.115724 0.0166934
0.8448 0.115724 0.0166934
0.8448 0.115724 0.0166934
0.8448 0.115724 0.0166934
0.8448 0.115724 0.0166934
0.8448 0.115724 0.0166934
0.021088 0.0238956 0.0269322
0.0196689 0.0213474 0.0235752
0.0180667 0.0180667 0.0191958
0.0446784 0.0224308 0.0238041
0.133227 0.0243839 0.0243839
0.275822 0.0323339 0.0221714
0.434791 0.0586709 0.0213779
0.582971 0.0853437 0.0184787
0.710094 0.103761 0.0169375
0.799115 0.112871 0.0167086
0.8448 0.115724 0.0166934
0.8448 0.115724 0.0166934
0.8448 0.115724 0.0166934
0.8448 0.115724 0.0166934
0.8448 0.115724 0.0166934
0.8448 0.115724 0.0166934
0.8448 0.115724 0.0166934
0.0235599 0.0546578 0.0533455
0.0239109 0.0502785 0.0495918
0.0244755 0.0430762 0.0434272
0.0374456 0.0449378 0.0338293
0.116976 0.0415503 0.0289464
0.242084 0.042359 0.0248417
0.406271 0.0553902 0.021622
0.558785 0.0813153 0.0188907
0.693095 0.101686 0.0170443
0.785824 0.111604 0.0167849
0.843229 0.115679 0.0166629
0.8448 0.115724 0.0166934
0.8448 0.115724 0.0166934
0.8448 0.115724 0.0166934
0.8448 0.115724 0.0166934
0.8448 0.115724 0.0166934
0.8448 0.115724 0.0166934
0.0171511 0.10663 0.0880751
0.0174868 0.101854 0.085008
0.0182345 0.0942855 0.0802472
0.0193332 0.088426 0.0754711
0.0768902 0.0930037 0.0435645
0.20914 0.0845045 0.0339208
0.361059 0.0846723 0.0225681
0.517906 0.0939193 0.0178225
0.662516 0.108507 0.0166629
0.767498 0.116106 0.0165408
0.840223 0.119432 0.0167086
0.844556 0.118273 0.0167239
0.844572 0.118044 0.0167239
0.844526 0.118593 0.0167239
0.844434 0.11957 0.0167391
0.844327 0.120745 0.0167391
0.844221 0.122026 0.0167544
0.0210422 0.17557 0.14342
0.0207523 0.172244 0.140414
0.0202182 0.166094 0.134844
0.0198672 0.162051 0.131197
0.0272221 0.15758 0.120119
0.151141 0.162463 0.0663615
0.310246 0.148669 0.0475319
0.470283 0.143145 0.0251926
0.619532 0.147448 0.0161746
0.744106 0.150423 0.0167086
0.83061 0.149676 0.0170596
0.845151 0.147341 0.0171664
0.845151 0.14725 0.0171664
0.845319 0.148531 0.0172122
0.845701 0.150866 0.017319
0.846143 0.153552 0.0174411
0.846555 0.155993 0.0175479
0.0269017 0.252277 0.216266
0.0268254 0.251057 0.215137
0.0266117 0.247364 0.211734
0.0265202 0.245945 0.210437
0.026276 0.241779 0.206104
0.074052 0.241718 0.183444
0.243809 0.246647 0.106752
0.426627 0.23003 0.0831922
0.574319 0.224598 0.0612039
0.716991 0.219455 0.0388037
0.811643 0.212604 0.0210574
0.855467 0.208591 0.0208591
0.855375 0.208087 0.0208133
0.855604 0.209323 0.0209201
0.856016 0.211673 0.0211032
0.856535 0.214405 0.0213779
0.857313 0.217365 0.0221408
0.0298009 0.339529 0.285084
0.0298161 0.340414 0.285679
0.0298009 0.338933 0.284688
0.0298009 0.338933 0.284688
0.0297856 0.336736 0.283207
0.0300603 0.328893 0.273594
0.162768 0.336233 0.22562
0.351141 0.339696 0.153002
0.530571 0.324758 0.129503
0.672007 0.314351 0.105806
0.791379 0.303761 0.0911116
0.863401 0.29485 0.0791028
0.871031 0.290898 0.0758679
0.871214 0.29218 0.0767529
0.87158 0.294835 0.0785992
0.872084 0.29836 0.0810559
0.872541 0.30161 0.0833143
0.0311437 0.434424 0.340795
0.0311742 0.436759 0.341894
0.0311589 0.436057 0.341573
0.0311742 0.436667 0.341848
0.0311437 0.434318 0.340749
0.0310369 0.425254 0.334676
0.111757 0.418189 0.314473
0.222599 0.438651 0.216068
0.452628 0.42948 0.19855
0.625467 0.416953 0.177844
0.758129 0.402258 0.155505
0.845212 0.392508 0.141482
0.883833 0.386542 0.134981
0.884932 0.386847 0.135058
0.885313 0.389456 0.136706
0.885771 0.392493 0.138689
0.886183 0.395209 0.140459
0.0335393 0.531502 0.379126
0.0336614 0.5337 0.379873
0.0336004 0.532555 0.379477
0.0335699 0.532128 0.379339
0.0333867 0.528572 0.378134
0.032929 0.520104 0.37525
0.06981 0.505028 0.363882
0.225345 0.508751 0.334203
0.329763 0.527871 0.240116
0.547875 0.516869 0.241718
0.707256 0.50901 0.22652
0.821973 0.494087 0.210285
0.886625 0.485801 0.200778
0.899153 0.482734 0.198047
0.899367 0.48423 0.199023
0.899641 0.486183 0.200305
0.899855 0.487678 0.201282
0.0390784 0.622583 0.404791
0.0392309 0.623804 0.405081
0.0389868 0.621759 0.404593
0.0388952 0.620935 0.404395
0.0385748 0.617304 0.403464
0.0379339 0.608972 0.401312
0.0636454 0.59205 0.394934
0.18819 0.585061 0.376181
0.321859 0.596826 0.339849
0.460929 0.605783 0.286259
0.639963 0.598611 0.280461
0.77586 0.594217 0.272831
0.867216 0.584604 0.264866
0.910124 0.577554 0.258686
0.912184 0.576165 0.257649
0.91223 0.576532 0.257862
0.912184 0.576165 0.257649
0.0484321 0.702739 0.424094
0.0484779 0.703334 0.424216
0.0483558 0.701793 0.423896
0.0482795 0.700679 0.423667
0.0480507 0.697887 0.423072
0.047013 0.689113 0.420951
0.0691081 0.672374 0.41593
0.166064 0.655909 0.401709
0.300893 0.665309 0.38529
0.422904 0.675715 0.334844
0.57937 0.676051 0.322316
0.721874 0.671519 0.310658
0.832029 0.667948 0.310491
0.904005 0.663523 0.310796
0.923812 0.658228 0.307515
0.923613 0.65655 0.306554
0.923369 0.654627 0.305425
0.0511177 0.755016 0.436179
0.0511177 0.75523 0.436225
0.0511177 0.753674 0.43592
0.0511177 0.75259 0.435706
0.0509651 0.749233 0.434867
0.0506142 0.742046 0.433066
0.0673228 0.730037 0.429877
0.145449 0.717571 0.419013
0.274891 0.727703 0.408667
0.40795 0.735149 0.379461
0.544106 0.738582 0.356374
0.676493 0.737469 0.341802
0.789014 0.732769 0.336645
0.877897 0.729442 0.337438
0.925566 0.725231 0.339605
0.928496 0.72163 0.338674
0.928405 0.718364 0.337499
0.051133 0.765637 0.4383
0.051133 0.765637 0.4383
0.051133 0.765637 0.4383
0.051133 0.765637 0.4383
0.051133 0.765637 0.4383
0.051133 0.765637 0.4383
0.0631723 0.76643 0.438788
0.132555 0.757626 0.43032
0.253605 0.765301 0.422446
0.394018 0.780667 0.410529
0.520638 0.78996 0.385046
0.642741 0.791547 0.36965
0.751553 0.787518 0.362722
0.843 0.78378 0.357656
0.91107 0.779492 0.35584
0.928512 0.774212 0.355016
0.928771 0.76994 0.353674
0.051133 0.765637 0.4383
0.051133 0.765637 0.4383
0.051133 0.765637 0.4383
0.051133 0.765637 0.4383
0.051133 0.765637 0.4383
0.051133 0.765637 0.4383
0.0603799 0.766278 0.438758
0.12604 0.767468 0.433738
0.236606 0.782788 0.429114
0.364569 0.811215 0.422553
0.494194 0.822477 0.402594
0.613062 0.828489 0.390097
0.718456 0.829129 0.384222
0.808652 0.82742 0.380591
0.885222 0.825284 0.377295
0.924422 0.820401 0.373312
0.925032 0.815274 0.37084
0.051133 0.765637 0.4383
0.051133 0.765637 0.4383
0.051133 0.765637 0.4383
0.051133 0.765637 0.4383
0.051133 0.765637 0.4383
0.051133 0.765637 0.4383
0.0568704 0.766094 0.438712
0.119417 0.767391 0.434455
0.224201 0.779995 0.429313
0.348394 0.80853 0.423392
0.472694 0.83093 0.408881
0.586023 0.843519 0.4
0.686046 0.851102 0.3953
0.774655 0.853834 0.393835
0.852476 0.854551 0.391882
0.91107 0.853803 0.389975
0.920317 0.850736 0.388388
0.051133 0.765637 0.4383
0.051133 0.765637 0.4383
0.051133 0.765637 0.4383
0.051133 0.765637 0.4383
0.051133 0.765637 0.4383
0.051133 0.765637 0.4383
0.0538643 0.765881 0.438575
0.110872 0.76701 0.435142
0.20882 0.776761 0.429526
0.329213 0.805402 0.424308
0.452567 0.827909 0.409995
0.565515 0.84152 0.402106
0.663401 0.849683 0.395636
0.749691 0.855177 0.3953
0.825772 0.859571 0.394751
0.8934 0.862837 0.394369
0.918303 0.86421 0.39443
0.0245975 0.0493019 0.0832837
0.0247349 0.0463417 0.078294
0.0390478 0.0433204 0.0953841
0.122911 0.0365454 0.103395
0.225055 0.03299 0.0964675
0.355886 0.0268406 0.068986
0.506752 0.0366827 0.0253452
0.641672 0.0819562 0.0188602
0.750332 0.102708 0.0172122
0.836332 0.113664 0.0168612
0.8448 0.115724 0.0166934
0.8448 0.115724 0.0166934
0.8448 0.115724 0.0166934
0.8448 0.115724 0.0166934
