Fusion/LUTs/Alexandru-Don-LUTs-v2/Alexandru-Don-LUTs/Monitoring Luts/Monitoring Lut 4.cube
TITLE "Generated by Resolve"
LUT_3D_SIZE 5
0.0159915 0.0153201 0.0159152
0.206332 0.026978 0.022858
0.752255 0.108278 0.0167086
0.8448 0.115724 0.0166934
0.8448 0.115724 0.0166934
0.0173342 0.112444 0.0921187
0.079942 0.0979477 0.044007
0.663508 0.109636 0.0166018
0.844556 0.118318 0.0167239
0.844221 0.122148 0.0167544
0.0311589 0.434821 0.341009
0.0311437 0.434424 0.340795
0.454063 0.430716 0.199329
0.884184 0.388235 0.136004
0.886549 0.397711 0.142092
0.0511177 0.75584 0.436347
0.0510262 0.750591 0.435218
0.279301 0.731563 0.409232
0.794446 0.73785 0.338598
0.928588 0.724575 0.339727
0.051133 0.765637 0.4383
0.051133 0.765637 0.4383
0.217121 0.778393 0.429435
0.673548 0.850324 0.395483
0.918303 0.86421 0.39443
0.0200198 0.0938888 0.15433
0.23827 0.0679789 0.202762
0.775036 0.0460365 0.0234379
0.848676 0.104631 0.0174716
0.847807 0.107637 0.0172274
0.0179599 0.128923 0.124987
0.0808423 0.0976577 0.09131
0.662974 0.101823 0.0169375
0.844617 0.117617 0.0167086
0.84538 0.119097 0.0168612
0.0311284 0.433082 0.340124
0.0311284 0.433188 0.340169
0.449973 0.427039 0.197391
0.883223 0.383703 0.133257
0.885634 0.391623 0.138125
0.0511177 0.75378 0.435935
0.0508431 0.746822 0.434272
0.268742 0.722454 0.407874
0.781888 0.726284 0.334081
0.928145 0.710506 0.334371
0.051133 0.765637 0.4383
0.051133 0.765637 0.4383
0.199084 0.775006 0.429618
0.651728 0.848905 0.395834
0.918303 0.86421 0.39443
0.0648051 0.380346 0.629038
0.181811 0.374182 0.635615
0.844251 0.280522 0.672847
0.95668 0.23653 0.592126
0.954101 0.230304 0.580362
0.0552224 0.359579 0.580224
0.0731823 0.33991 0.554711
0.739315 0.239521 0.590845
0.943511 0.205875 0.533974
0.947509 0.215793 0.551354
0.0332799 0.510353 0.502831
0.0332494 0.509483 0.502068
0.455619 0.442176 0.41706
0.916487 0.364324 0.315679
0.927337 0.367864 0.319173
0.047837 0.797116 0.525154
0.0476692 0.785336 0.51664
0.234379 0.720088 0.466545
0.751644 0.699397 0.361669
0.933654 0.676234 0.345312
0.0478676 0.812696 0.52076
0.047776 0.804211 0.504906
0.154314 0.790051 0.468544
0.606104 0.854597 0.420554
0.912001 0.853101 0.398535
0.0691386 0.399771 0.665965
0.159762 0.398672 0.677577
0.82005 0.349462 0.829358
0.975952 0.348653 0.827878
0.975952 0.348653 0.827878
0.0684062 0.408148 0.675517
0.0806439 0.40383 0.671489
0.728618 0.349569 0.83032
0.975952 0.348653 0.827878
0.975952 0.348653 0.827878
0.0408789 0.60235 0.835584
0.0407111 0.599664 0.83386
0.375921 0.543023 0.807507
0.958846 0.487282 0.800916
0.977157 0.489525 0.801221
0.0488594 0.894392 0.851591
0.0494698 0.881605 0.837049
0.150225 0.788632 0.745083
0.766903 0.726284 0.680735
0.978363 0.675822 0.630289
0.0485084 0.906905 0.820081
0.0490272 0.899016 0.778729
0.0842756 0.879545 0.692699
0.614115 0.893126 0.652537
0.921996 0.867674 0.621653
0.0691386 0.399771 0.665965
0.155459 0.398657 0.676814
0.808148 0.349508 0.82945
0.975952 0.348653 0.827878
0.975952 0.348653 0.827878
0.0685283 0.407492 0.674723
0.0805219 0.4038 0.671412
0.729152 0.349859 0.830289
0.975952 0.348653 0.827878
0.975952 0.348653 0.827878
0.0410315 0.604715 0.837095
0.0407874 0.60087 0.834638
0.370367 0.544671 0.818906
0.957565 0.495735 0.837156
0.977066 0.495857 0.836713
0.0482948 0.89807 0.877714
0.0487984 0.885832 0.879179
0.138048 0.810773 0.881956
0.738796 0.748257 0.887175
0.986236 0.719982 0.875944
0.0472267 0.916396 0.875853
0.0472267 0.916396 0.875853
0.0647746 0.916945 0.876661
0.547799 0.917021 0.884611
0.921477 0.880751 0.837644
