Fusion/LUTs/Alexandru-Don-LUTs-v2/Alexandru-Don-LUTs/Monitoring Luts/Monitoring Lut 6.cube
TITLE "Generated by Resolve"
LUT_3D_SIZE 17
0.0147555 0.0211948 0.0270237
0.0147555 0.0211948 0.0270237
0.0218662 0.0218357 0.0279545
0.106538 0.0302129 0.0352178
0.287053 0.0569162 0.0486915
0.49514 0.0902419 0.0617227
0.68278 0.125063 0.0766003
0.840726 0.159045 0.0913252
0.929015 0.168688 0.0949416
0.937942 0.16907 0.0950332
0.937942 0.16907 0.0950332
0.937942 0.16907 0.0950332
0.937942 0.16907 0.0950332
0.937942 0.16907 0.0950332
0.937942 0.16907 0.0950332
0.937942 0.16907 0.0950332
0.937942 0.16907 0.0950332
0.0147555 0.0211948 0.0270237
0.0147555 0.0211948 0.0270237
0.0151522 0.0212253 0.0270695
0.0702525 0.0261845 0.03299
0.227405 0.0475624 0.0440833
0.439582 0.0809491 0.0583352
0.631495 0.115053 0.0720684
0.801526 0.150195 0.0877699
0.911925 0.167926 0.094728
0.937942 0.16907 0.0950332
0.937942 0.16907 0.0950332
0.937942 0.16907 0.0950332
0.937942 0.16907 0.0950332
0.937942 0.16907 0.0950332
0.937942 0.16907 0.0950332
0.937942 0.16907 0.0950332
0.937942 0.16907 0.0950332
0.0147555 0.0211948 0.0270237
0.0147555 0.0211948 0.0270237
0.0147555 0.0211948 0.0270237
0.0468452 0.0241398 0.0312505
0.190784 0.0418555 0.0412146
0.408484 0.0759594 0.0565499
0.610239 0.111025 0.0702678
0.789883 0.147555 0.0866255
0.908721 0.167742 0.0946822
0.937942 0.16907 0.0950332
0.937942 0.16907 0.0950332
0.937942 0.16907 0.0950332
0.937942 0.16907 0.0950332
0.937942 0.16907 0.0950332
0.937942 0.16907 0.0950332
0.937942 0.16907 0.0950332
0.937942 0.16907 0.0950332
0.0237125 0.0469062 0.0374304
0.0227817 0.04448 0.0363317
0.0221408 0.042771 0.0355535
0.0281987 0.0372168 0.0336004
0.141192 0.0409857 0.0385595
0.353948 0.0682841 0.053254
0.561379 0.101946 0.066392
0.74609 0.137972 0.0824903
0.886809 0.166491 0.0942397
0.937942 0.16907 0.0950332
0.937942 0.16907 0.0950332
0.937942 0.16907 0.0950332
0.937942 0.16907 0.0950332
0.937942 0.16907 0.0950332
0.937942 0.16907 0.0950332
0.937942 0.16907 0.0950332
0.937942 0.16907 0.0950332
0.0568704 0.12665 0.0827344
0.0560922 0.125139 0.0817731
0.0569924 0.12697 0.0829175
0.0529946 0.118364 0.0776226
0.0990463 0.112902 0.0748913
0.277455 0.1205 0.0596475
0.489204 0.138201 0.0668498
0.678187 0.165026 0.080766
0.844739 0.195743 0.0955978
0.933654 0.199664 0.0982071
0.938766 0.194095 0.0975814
0.938674 0.191226 0.097261
0.938628 0.189807 0.0971237
0.938582 0.18851 0.0970016
0.938628 0.189807 0.0971237
0.938628 0.189807 0.0971237
0.938628 0.189807 0.0971237
0.113893 0.238666 0.150332
0.114031 0.238987 0.150561
0.116548 0.243885 0.153521
0.112734 0.236484 0.149081
0.122881 0.221897 0.140932
0.209628 0.222278 0.127337
0.408453 0.228275 0.0959335
0.601343 0.243809 0.0999161
0.776928 0.269444 0.109911
0.906035 0.286885 0.115801
0.942672 0.282094 0.115709
0.942428 0.276387 0.11397
0.942306 0.273274 0.112978
0.942184 0.270481 0.112032
0.942245 0.271901 0.112398
0.942245 0.271901 0.112398
0.942245 0.271901 0.112398
0.182239 0.368505 0.230579
0.183032 0.369894 0.231434
0.186511 0.376181 0.235401
0.183032 0.369985 0.231479
0.176043 0.353658 0.221225
0.23331 0.340978 0.213779
0.336553 0.351247 0.18674
0.525444 0.355901 0.143053
0.70811 0.36376 0.138628
0.862272 0.379522 0.144991
0.942855 0.378363 0.147692
0.947463 0.369589 0.14612
0.947127 0.364172 0.144106
0.946838 0.359442 0.142382
0.946914 0.360586 0.142794
0.946914 0.360586 0.142794
0.946914 0.360586 0.142794
0.25536 0.495262 0.310826
0.256489 0.497215 0.312047
0.259678 0.502708 0.315541
0.256489 0.49723 0.312062
0.246693 0.479835 0.301076
0.279545 0.461067 0.289998
0.353552 0.457984 0.283803
0.455695 0.47155 0.244053
0.634424 0.473259 0.193469
0.810605 0.473533 0.178775
0.928267 0.476417 0.18088
0.953796 0.466575 0.183322
0.953277 0.458808 0.180209
0.952895 0.453025 0.17789
0.952956 0.454017 0.178271
0.952956 0.454017 0.178271
0.952956 0.454017 0.178271
0.325856 0.616892 0.388022
0.326253 0.617594 0.388449
0.328496 0.621485 0.390951
0.32462 0.614755 0.386648
0.313634 0.595789 0.374533
0.325399 0.57348 0.360845
0.388006 0.559976 0.353079
0.461814 0.565774 0.344564
0.562829 0.579461 0.295079
0.736126 0.579904 0.244053
0.896147 0.574487 0.220661
0.959762 0.567025 0.227451
0.959854 0.556939 0.223255
0.959411 0.55021 0.219959
0.959472 0.551019 0.22034
0.959472 0.551019 0.22034
0.959472 0.551019 0.22034
0.389517 0.727993 0.457801
0.389197 0.727413 0.457435
0.389975 0.728771 0.458289
0.385977 0.72166 0.453895
0.375235 0.7028 0.442191
0.371771 0.679942 0.428016
0.423545 0.661448 0.417151
0.490623 0.658473 0.414206
0.563378 0.66807 0.399847
0.667765 0.681376 0.343114
0.82916 0.681193 0.294392
0.951217 0.670405 0.279255
0.963775 0.657954 0.278706
0.963867 0.650233 0.273777
0.963882 0.650965 0.274205
0.963882 0.650965 0.274205
0.963882 0.650965 0.274205
0.440513 0.821103 0.513909
0.439979 0.820035 0.513329
0.440284 0.820615 0.513664
0.437278 0.814817 0.510369
0.429099 0.799191 0.501427
0.420569 0.778149 0.488746
0.458747 0.759289 0.477791
0.519554 0.750835 0.473686
0.587182 0.754376 0.470527
0.66186 0.765774 0.44979
0.768994 0.77789 0.389441
0.90602 0.77705 0.347814
0.95555 0.763638 0.34641
0.956436 0.755215 0.340658
0.95639 0.755779 0.341039
0.95639 0.755779 0.341039
0.95639 0.755779 0.341039
0.455055 0.854124 0.529458
0.455055 0.854124 0.529458
0.455055 0.854124 0.529458
0.455055 0.854124 0.529458
0.454292 0.852094 0.528664
0.452491 0.847089 0.526604
0.483467 0.839979 0.524575
0.542473 0.833906 0.523491
0.610788 0.83534 0.526467
0.680247 0.842756 0.522118
0.756527 0.853742 0.495094
0.858808 0.863462 0.435142
0.942763 0.85922 0.418662
0.946654 0.851164 0.411765
0.946639 0.851499 0.412024
0.946639 0.851499 0.412024
0.946624 0.851652 0.412146
0.455055 0.854124 0.529458
0.455055 0.854124 0.529458
0.455055 0.854124 0.529458
0.455055 0.854124 0.529458
0.455055 0.854124 0.529458
0.455055 0.854124 0.529458
0.473976 0.855497 0.530892
0.533928 0.860151 0.535332
0.608896 0.871992 0.547417
0.687373 0.888228 0.559792
0.760845 0.90692 0.559197
0.842176 0.924025 0.542367
0.931426 0.933867 0.502419
0.948913 0.929412 0.488807
0.948913 0.929519 0.488945
0.948913 0.929519 0.488945
0.948913 0.929519 0.488945
0.455055 0.854124 0.529458
0.455055 0.854124 0.529458
0.455055 0.854124 0.529458
0.455055 0.854124 0.529458
0.455055 0.854124 0.529458
0.455055 0.854124 0.529458
0.466484 0.854963 0.530343
0.521401 0.858869 0.534234
0.59089 0.868955 0.543908
0.671077 0.885588 0.559106
0.742977 0.905089 0.56231
0.821698 0.925826 0.555825
0.90869 0.945708 0.528832
0.9514 0.952209 0.516548
0.9514 0.952209 0.516548
0.9514 0.952209 0.516548
0.9514 0.952209 0.516548
0.455055 0.854124 0.529458
0.455055 0.854124 0.529458
0.455055 0.854124 0.529458
0.455055 0.854124 0.529458
0.455055 0.854124 0.529458
0.455055 0.854124 0.529458
0.467262 0.855009 0.530404
0.522423 0.858961 0.53431
0.592065 0.869184 0.544121
0.672114 0.885832 0.559243
0.743954 0.905364 0.56228
0.822782 0.926085 0.555611
0.909636 0.945861 0.528557
0.9514 0.952209 0.516548
0.9514 0.952209 0.516548
0.9514 0.952209 0.516548
0.9514 0.952209 0.516548
0.455055 0.854124 0.529458
0.455055 0.854124 0.529458
0.455055 0.854124 0.529458
0.455055 0.854124 0.529458
0.455055 0.854124 0.529458
0.455055 0.854124 0.529458
0.467262 0.855009 0.530404
0.522423 0.858961 0.53431
0.592065 0.869184 0.544121
0.672114 0.885832 0.559243
0.744091 0.905409 0.56228
0.822782 0.926085 0.555611
0.909789 0.945891 0.528496
0.9514 0.952209 0.516548
0.9514 0.952209 0.516548
0.9514 0.952209 0.516548
0.9514 0.952209 0.516548
0.455055 0.854124 0.529458
0.455055 0.854124 0.529458
0.455055 0.854124 0.529458
0.455055 0.854124 0.529458
0.455055 0.854124 0.529458
0.455055 0.854124 0.529458
0.467262 0.855009 0.530404
0.522423 0.858961 0.53431
0.592065 0.869184 0.544121
0.672236 0.885863 0.559243
0.744091 0.905409 0.56228
0.822782 0.926085 0.555611
0.909789 0.945891 0.528496
0.9514 0.952209 0.516548
0.9514 0.952209 0.516548
0.9514 0.952209 0.516548
0.9514 0.952209 0.516548
0.0147555 0.0211948 0.0270237
0.0147555 0.0211948 0.0270237
0.0211337 0.0217746 0.0278325
0.1037 0.0298772 0.03505
0.282521 0.056199 0.0483406
0.490959 0.0895247 0.0614481
0.678645 0.124239 0.0762341
0.837537 0.158343 0.0910658
0.927825 0.168627 0.0949264
0.937942 0.16907 0.0950332
0.937942 0.16907 0.0950332
0.937942 0.16907 0.0950332
0.937942 0.16907 0.0950332
0.937942 0.16907 0.0950332
0.937942 0.16907 0.0950332
0.937942 0.16907 0.0950332
0.937942 0.16907 0.0950332
0.0147555 0.0211948 0.0270237
0.0147555 0.0211948 0.0270237
0.0149996 0.02121 0.0270542
0.0679332 0.0259556 0.0328374
0.223575 0.0469673 0.0437934
0.435813 0.0803388 0.0581216
0.628321 0.114443 0.0717937
0.799252 0.149676 0.087541
0.911101 0.16788 0.094728
0.937942 0.16907 0.0950332
0.937942 0.16907 0.0950332
0.937942 0.16907 0.0950332
0.937942 0.16907 0.0950332
0.937942 0.16907 0.0950332
0.937942 0.16907 0.0950332
0.937942 0.16907 0.0950332
0.937942 0.16907 0.0950332
0.0147555 0.0211948 0.0270237
0.0147555 0.0211948 0.0270237
0.0147555 0.0211948 0.0270237
0.0456703 0.024033 0.0311131
0.188388 0.041474 0.041001
0.406638 0.0756695 0.0564431
0.608698 0.110735 0.0701305
0.789273 0.147417 0.0865644
0.908583 0.167758 0.0946822
0.937942 0.16907 0.0950332
0.937942 0.16907 0.0950332
0.937942 0.16907 0.0950332
0.937942 0.16907 0.0950332
0.937942 0.16907 0.0950332
0.937942 0.16907 0.0950332
0.937942 0.16907 0.0950332
0.937942 0.16907 0.0950332
0.0234684 0.0462654 0.0371557
0.0225986 0.0439765 0.0361028
0.0220493 0.0425574 0.035462
0.0281987 0.0372625 0.0335546
0.140887 0.041062 0.0385748
0.353796 0.0681468 0.053254
0.56144 0.101961 0.0664073
0.746731 0.138094 0.0825513
0.887221 0.166522 0.094255
0.937942 0.16907 0.0950332
0.937942 0.16907 0.0950332
0.937942 0.16907 0.0950332
0.937942 0.16907 0.0950332
0.937942 0.16907 0.0950332
0.937942 0.16907 0.0950332
0.937942 0.16907 0.0950332
0.937942 0.16907 0.0950332
0.0567636 0.126482 0.0826276
0.0560769 0.125063 0.0817426
0.0569924 0.126879 0.082887
0.0530861 0.118517 0.0777447
0.0998703 0.113664 0.0751507
0.278004 0.120928 0.0597238
0.490349 0.138827 0.0670787
0.679469 0.165743 0.0809644
0.846189 0.196612 0.0957961
0.933486 0.200137 0.0982223
0.938796 0.194629 0.0976425
0.938689 0.19176 0.0973068
0.938628 0.190265 0.0971542
0.938598 0.188922 0.0970169
0.938643 0.190249 0.0971695
0.938643 0.190249 0.0971695
0.938643 0.190249 0.0971695
0.114214 0.239322 0.150729
0.114214 0.239338 0.15079
0.116777 0.244297 0.153765
0.113039 0.237064 0.149447
0.123522 0.222644 0.14139
0.210224 0.223209 0.127901
0.409689 0.229038 0.0962234
0.603021 0.244739 0.100221
0.778347 0.270161 0.11014
0.906752 0.287327 0.115969
0.942702 0.282399 0.11577
0.942443 0.276646 0.114076
0.942306 0.273548 0.11313
0.942168 0.270451 0.112154
0.942229 0.271687 0.112459
0.942245 0.271839 0.112505
0.942245 0.271839 0.112505
0.182849 0.369589 0.23125
0.183398 0.370596 0.231861
0.18674 0.376577 0.235676
0.183459 0.370733 0.231968
0.176852 0.354437 0.221729
0.233921 0.341695 0.214267
0.33753 0.351949 0.187167
0.526314 0.35639 0.143206
0.70898 0.364172 0.138766
0.862715 0.379385 0.144945
0.942687 0.37818 0.147677
0.947463 0.369543 0.14609
0.947112 0.363912 0.144015
0.946807 0.359075 0.142229
0.946883 0.360189 0.142641
0.946883 0.360189 0.142657
0.946883 0.360189 0.142657
0.256153 0.496635 0.311681
0.25687 0.497871 0.312474
0.260105 0.503441 0.316014
0.256809 0.497765 0.312413
0.247028 0.480385 0.301411
0.279698 0.461524 0.290288
0.353628 0.458198 0.283909
0.45539 0.471733 0.243885
0.634394 0.47303 0.193225
0.81059 0.473411 0.178714
0.928023 0.476143 0.180789
0.95378 0.466346 0.18323
0.953262 0.458518 0.180087
0.952865 0.452506 0.177691
0.952926 0.453468 0.178073
0.952926 0.453468 0.178073
0.952926 0.453468 0.178073
0.32639 0.617838 0.388602
0.326482 0.618006 0.388708
0.328588 0.621622 0.391043
0.324727 0.614954 0.38677
0.313695 0.59588 0.374624
0.32517 0.573556 0.360891
0.387625 0.55993 0.353033
0.461494 0.56553 0.344472
0.562661 0.579324 0.295003
0.735744 0.579492 0.243885
0.895857 0.574182 0.220584
0.959426 0.566552 0.226871
0.959823 0.556497 0.223056
0.959381 0.549737 0.21976
0.959426 0.550454 0.220096
0.959426 0.550454 0.220096
0.959426 0.550454 0.220096
0.389731 0.728389 0.458045
0.389105 0.72726 0.457359
0.389899 0.728634 0.458198
0.385916 0.721538 0.453819
0.375204 0.702754 0.442145
0.371298 0.679927 0.42797
0.423072 0.661311 0.417044
0.490288 0.658183 0.414054
0.562844 0.667613 0.399603
0.66772 0.680888 0.343206
0.82858 0.680629 0.294209
0.950393 0.669764 0.278462
0.96376 0.65742 0.278401
0.963821 0.649577 0.273457
0.963821 0.650126 0.273777
0.963821 0.650126 0.273777
0.963821 0.650126 0.273777
0.440604 0.821241 0.514015
0.439841 0.819791 0.513176
0.440116 0.820325 0.513481
0.437171 0.814588 0.510231
0.429099 0.799146 0.501427
0.420432 0.778073 0.488716
0.458305 0.759075 0.477653
0.519005 0.750408 0.473396
0.58674 0.753933 0.470283
0.661326 0.765209 0.449378
0.768688 0.777371 0.389349
0.905486 0.776425 0.347616
0.955535 0.763073 0.346014
0.956527 0.754498 0.340154
0.956481 0.754894 0.340414
0.956481 0.754894 0.340414
0.956481 0.754894 0.340414
0.455055 0.854124 0.529458
0.455055 0.854124 0.529458
0.455055 0.854124 0.529458
0.455055 0.854124 0.529458
0.454337 0.852216 0.52871
0.452552 0.847044 0.526604
0.483207 0.840146 0.524666
0.542138 0.833707 0.523445
0.610254 0.834928 0.526253
0.679911 0.842344 0.521965
0.755917 0.853208 0.494652
0.858137 0.862943 0.434424
0.942672 0.858686 0.418189
0.946609 0.850416 0.411048
0.946593 0.850675 0.411246
0.946593 0.850675 0.411246
0.946593 0.850675 0.411246
0.455055 0.854124 0.529458
0.455055 0.854124 0.529458
0.455055 0.854124 0.529458
0.455055 0.854124 0.529458
0.455055 0.854124 0.529458
0.455055 0.854124 0.529458
0.473793 0.855482 0.530877
0.53344 0.86009 0.535286
0.608408 0.872068 0.547402
0.686961 0.888106 0.559747
0.76054 0.906828 0.559304
0.841825 0.924315 0.54284
0.931472 0.933639 0.502098
0.948837 0.929 0.488304
0.948867 0.929122 0.488457
0.948867 0.929122 0.488457
0.948867 0.929122 0.488457
0.455055 0.854124 0.529458
0.455055 0.854124 0.529458
0.455055 0.854124 0.529458
0.455055 0.854124 0.529458
0.455055 0.854124 0.529458
0.455055 0.854124 0.529458
0.465644 0.854902 0.530282
0.520638 0.858808 0.534188
0.589822 0.868772 0.543709
0.67013 0.885374 0.558953
0.741955 0.904799 0.562341
0.820523 0.925521 0.556176
0.907347 0.94548 0.529213
0.9514 0.952209 0.516548
0.9514 0.952209 0.516548
0.9514 0.952209 0.516548
0.9514 0.952209 0.516548
0.455055 0.854124 0.529458
0.455055 0.854124 0.529458
0.455055 0.854124 0.529458
0.455055 0.854124 0.529458
0.455055 0.854124 0.529458
0.455055 0.854124 0.529458
0.466407 0.854948 0.530327
0.521614 0.8589 0.534264
0.590982 0.868986 0.543923
0.671107 0.885603 0.559091
0.742855 0.905058 0.562341
0.821439 0.92575 0.556008
0.908232 0.945632 0.528954
0.9514 0.952209 0.516548
0.9514 0.952209 0.516548
0.9514 0.952209 0.516548
0.9514 0.952209 0.516548
0.455055 0.854124 0.529458
0.455055 0.854124 0.529458
0.455055 0.854124 0.529458
0.455055 0.854124 0.529458
0.455055 0.854124 0.529458
0.455055 0.854124 0.529458
0.466407 0.854948 0.530327
0.521614 0.8589 0.534264
0.590982 0.868986 0.543923
0.671107 0.885603 0.559091
0.742855 0.905058 0.562341
0.821439 0.92575 0.556008
0.908232 0.945632 0.528954
0.9514 0.952209 0.516548
0.9514 0.952209 0.516548
0.9514 0.952209 0.516548
0.9514 0.952209 0.516548
0.455055 0.854124 0.529458
0.455055 0.854124 0.529458
0.455055 0.854124 0.529458
0.455055 0.854124 0.529458
0.455055 0.854124 0.529458
0.455055 0.854124 0.529458
0.466407 0.854948 0.530327
0.521614 0.8589 0.534264
0.590982 0.868986 0.543923
0.671107 0.885603 0.559091
0.742992 0.905089 0.562325
0.821576 0.92578 0.555993
0.908232 0.945632 0.528954
0.9514 0.952209 0.516548
0.9514 0.952209 0.516548
0.9514 0.952209 0.516548
0.9514 0.952209 0.516548
0.0146944 0.0213474 0.0339818
0.0147097 0.0213474 0.0335699
0.0203098 0.0217746 0.0323949
0.100572 0.0295415 0.0356298
0.277668 0.0554513 0.0479744
0.486336 0.0887312 0.0611582
0.674098 0.123339 0.0758221
0.83418 0.15761 0.0907607
0.926482 0.168582 0.0949264
0.937942 0.16907 0.0950332
0.937942 0.16907 0.0950332
0.937942 0.16907 0.0950332
0.937942 0.16907 0.0950332
0.937942 0.16907 0.0950332
0.937942 0.16907 0.0950332
0.937942 0.16907 0.0950332
0.937942 0.16907 0.0950332
0.0147402 0.02121 0.0279545
0.0147555 0.0211948 0.0271763
0.0149538 0.02121 0.0270542
0.0654459 0.0257572 0.0326696
0.219745 0.0463569 0.0434882
0.432486 0.0798047 0.0579385
0.626078 0.114015 0.0716106
0.798047 0.149401 0.0874189
0.910857 0.167865 0.0947127
0.937942 0.16907 0.0950332
0.937942 0.16907 0.0950332
0.937942 0.16907 0.0950332
0.937942 0.16907 0.0950332
0.937942 0.16907 0.0950332
0.937942 0.16907 0.0950332
0.937942 0.16907 0.0950332
0.937942 0.16907 0.0950332
0.0147555 0.0211948 0.0270237
0.0147555 0.0211948 0.0270237
0.0147555 0.0211948 0.0270237
0.0443732 0.0239109 0.0309911
0.186542 0.0411994 0.0408484
0.405722 0.0755169 0.0563973
0.608499 0.110704 0.0701305
0.789731 0.147524 0.0866102
0.909056 0.167773 0.0946822
0.937942 0.16907 0.0950332
0.937942 0.16907 0.0950332
0.937942 0.16907 0.0950332
0.937942 0.16907 0.0950332
0.937942 0.16907 0.0950332
0.937942 0.16907 0.0950332
0.937942 0.16907 0.0950332
0.937942 0.16907 0.0950332
0.0231022 0.0452888 0.0366979
0.022385 0.0434119 0.0358587
0.0219272 0.0422065 0.0352941
0.0281376 0.0372473 0.0335393
0.141176 0.0413214 0.0386206
0.35462 0.0682689 0.053315
0.562783 0.102205 0.0664988
0.748531 0.138476 0.0827192
0.888273 0.166598 0.0942855
0.937942 0.16907 0.0950332
0.937942 0.16907 0.0950332
0.937942 0.16907 0.0950332
0.937942 0.16907 0.0950332
0.937942 0.16907 0.0950332
0.937942 0.16907 0.0950332
0.937942 0.16907 0.0950332
0.937942 0.16907 0.0950332
0.057023 0.127092 0.0829786
0.0564889 0.125902 0.0822766
0.0574197 0.127764 0.0834516
0.053666 0.119677 0.0784619
0.10132 0.115267 0.0760204
0.280308 0.122576 0.0601663
0.492958 0.140688 0.0676127
0.68249 0.16759 0.0814221
0.848676 0.198718 0.0962539
0.933959 0.201633 0.0983749
0.938842 0.196094 0.0978103
0.938735 0.193256 0.0974746
0.938674 0.191501 0.0972763
0.938628 0.190051 0.0971389
0.938674 0.191363 0.0972763
0.938674 0.191363 0.0972763
0.938674 0.191363 0.0972763
0.115145 0.241138 0.151827
0.115221 0.241306 0.151965
0.117861 0.246403 0.155016
0.114153 0.239216 0.150713
0.125673 0.225025 0.14284
0.212604 0.22591 0.12929
0.412802 0.231586 0.0971084
0.606104 0.247318 0.101045
0.78114 0.27245 0.110872
0.908156 0.288975 0.116457
0.942748 0.283772 0.116182
0.942489 0.277974 0.114427
0.942351 0.274693 0.113481
0.942214 0.271305 0.112428
0.94226 0.272511 0.112749
0.94226 0.272511 0.112749
0.94226 0.272663 0.112795
0.1841 0.371817 0.232654
0.184741 0.373022 0.233402
0.188144 0.379049 0.237247
0.184878 0.373236 0.23357
0.178439 0.356909 0.223285
0.23624 0.344182 0.215824
0.34023 0.354391 0.188357
0.528817 0.358618 0.144121
0.711299 0.366125 0.139452
0.864271 0.38085 0.145434
0.943023 0.379309 0.14818
0.947509 0.370321 0.14638
0.947173 0.364767 0.144335
0.946868 0.359823 0.142519
0.946929 0.360891 0.142901
0.946929 0.360891 0.142901
0.946929 0.360891 0.142901
0.25742 0.498802 0.313054
0.258106 0.499992 0.313817
0.261402 0.505653 0.317418
0.258 0.499825 0.31371
0.248234 0.482368 0.302678
0.281254 0.463264 0.291386
0.355184 0.459892 0.284916
0.456764 0.473243 0.244572
0.635859 0.474372 0.193729
0.811841 0.474525 0.179141
0.928695 0.477058 0.18117
0.953841 0.467216 0.183581
0.953323 0.459342 0.180423
0.952911 0.453254 0.177996
0.952972 0.454108 0.178332
0.952972 0.454108 0.178332
0.952972 0.454108 0.178332
0.327199 0.619242 0.389487
0.327382 0.619547 0.389715
0.329427 0.623087 0.391959
0.325505 0.616312 0.387625
0.314397 0.597101 0.375387
0.326131 0.574762 0.361654
0.388663 0.561074 0.35375
0.462516 0.566644 0.345083
0.563668 0.580407 0.295384
0.736828 0.580407 0.244282
0.896635 0.575036 0.220951
0.95935 0.567269 0.22707
0.959854 0.557244 0.223407
0.959411 0.550393 0.220081
0.959457 0.551034 0.220386
0.959457 0.551034 0.220386
0.959457 0.551034 0.220386
0.390173 0.729198 0.458534
0.389548 0.728023 0.457816
0.390387 0.729503 0.458747
0.386419 0.722438 0.454383
0.375753 0.7037 0.442741
0.371756 0.680858 0.428565
0.423865 0.662272 0.417655
0.491127 0.659113 0.414649
0.563699 0.668482 0.400076
0.668757 0.681727 0.343725
0.829252 0.681376 0.294606
0.950408 0.670466 0.278828
0.96376 0.658061 0.278782
0.963806 0.650156 0.273869
0.963806 0.650599 0.274128
0.963806 0.650599 0.274128
0.963806 0.650599 0.274128
0.440803 0.821607 0.514229
0.440055 0.820188 0.513405
0.44033 0.820768 0.51371
0.437476 0.815183 0.510582
0.429435 0.799802 0.501808
0.42089 0.778881 0.489204
0.458793 0.759808 0.478111
0.519631 0.751095 0.473823
0.587366 0.754635 0.47068
0.661982 0.765896 0.449714
0.76939 0.777951 0.389685
0.90573 0.776913 0.348241
0.955413 0.763699 0.346441
0.956466 0.755062 0.340566
0.956436 0.755322 0.340719
0.956436 0.755322 0.340719
0.956436 0.755322 0.340719
0.455055 0.854124 0.529458
0.455055 0.854124 0.529458
0.455055 0.854124 0.529458
0.455055 0.854124 0.529458
0.454414 0.852461 0.528801
0.452674 0.847257 0.526711
0.48365 0.840833 0.525002
0.542596 0.834226 0.523751
0.610819 0.83537 0.526589
0.680446 0.842817 0.522225
0.756558 0.853651 0.494926
0.85861 0.863325 0.434989
0.942718 0.859052 0.418555
0.946639 0.850797 0.411399
0.946609 0.850904 0.411475
0.946609 0.850904 0.411475
0.946609 0.850904 0.411475
0.455055 0.854124 0.529458
0.455055 0.854124 0.529458
0.455055 0.854124 0.529458
0.455055 0.854124 0.529458
0.455055 0.854124 0.529458
0.455055 0.854124 0.529458
0.474006 0.855497 0.530892
0.533593 0.860105 0.535302
0.60856 0.872175 0.547463
0.687099 0.888182 0.559762
0.760769 0.906844 0.559274
0.842161 0.924498 0.542809
0.931426 0.933837 0.502327
0.948867 0.929168 0.488502
0.948867 0.929168 0.488518
0.948867 0.929168 0.488518
0.948867 0.929168 0.488518
0.455055 0.854124 0.529458
0.455055 0.854124 0.529458
0.455055 0.854124 0.529458
0.455055 0.854124 0.529458
0.455055 0.854124 0.529458
0.455055 0.854124 0.529458
0.465553 0.854887 0.530266
0.520516 0.858793 0.534173
0.589654 0.868727 0.543679
0.670039 0.885344 0.558938
0.741909 0.904799 0.562341
0.820584 0.925536 0.556054
0.907469 0.94548 0.529244
0.9514 0.952209 0.516548
0.9514 0.952209 0.516548
0.9514 0.952209 0.516548
0.9514 0.952209 0.516548
0.455055 0.854124 0.529458
0.455055 0.854124 0.529458
0.455055 0.854124 0.529458
0.455055 0.854124 0.529458
0.455055 0.854124 0.529458
0.455055 0.854124 0.529458
0.466026 0.854932 0.530312
0.521477 0.858885 0.534249
0.590799 0.86894 0.543893
0.67097 0.885573 0.55906
0.742672 0.905013 0.562341
0.821286 0.925719 0.555962
0.908064 0.945586 0.52903
0.9514 0.952209 0.516548
0.9514 0.952209 0.516548
0.9514 0.952209 0.516548
0.9514 0.952209 0.516548
0.455055 0.854124 0.529458
0.455055 0.854124 0.529458
0.455055 0.854124 0.529458
0.455055 0.854124 0.529458
0.455055 0.854124 0.529458
0.455055 0.854124 0.529458
0.466026 0.854932 0.530312
0.521477 0.858885 0.534249
0.590799 0.86894 0.543893
0.67097 0.885573 0.55906
0.742672 0.905013 0.562341
0.821286 0.925719 0.555962
0.908064 0.945586 0.52903
0.9514 0.952209 0.516548
0.9514 0.952209 0.516548
0.9514 0.952209 0.516548
0.9514 0.952209 0.516548
0.455055 0.854124 0.529458
0.455055 0.854124 0.529458
0.455055 0.854124 0.529458
0.455055 0.854124 0.529458
0.455055 0.854124 0.529458
0.455055 0.854124 0.529458
0.466026 0.854932 0.530312
0.521477 0.858885 0.534249
0.590799 0.86894 0.543893
0.67097 0.885573 0.55906
0.742672 0.905013 0.562341
0.821286 0.925719 0.555962
0.908064 0.945586 0.52903
0.9514 0.952209 0.516548
0.9514 0.952209 0.516548
0.9514 0.952209 0.516548
0.9514 0.952209 0.516548
0.0172732 0.0253452 0.101503
0.0172427 0.02533 0.101183
0.0213474 0.02533 0.0982986
0.088838 0.0321508 0.101534
0.264775 0.0546426 0.103441
0.475517 0.0865339 0.0915847
0.663981 0.121019 0.0888228
0.826154 0.155779 0.0949416
0.922957 0.168429 0.0955978
0.937942 0.16907 0.0950332
0.937942 0.16907 0.0950332
0.937942 0.16907 0.0950332
0.937942 0.16907 0.0950332
0.937942 0.16907 0.0950332
0.937942 0.16907 0.0950332
0.937942 0.16907 0.0950332
0.937942 0.16907 0.0950332
0.0163119 0.0240177 0.0844434
0.0159915 0.0235599 0.0781415
