Fusion/LUTs/Alexandru-Don-LUTs-v2/Alexandru-Don-LUTs/Monitoring Luts/Monitoring Lut 3.cube
TITLE "Generated by Resolve"
LUT_3D_SIZE 5
0 0 0
0.128069 0 0
0.57113 0 0
1 0 0
1 0 0
0 0.0995193 0
0.0905928 0.0905928 0
0.546029 0.0292058 0
0.995254 0.00317388 0
1 0 0
0 0.444434 0
0 0.458869 0
0.433768 0.433768 0
0.919539 0.405295 0
1 0.385031 0
0 0.859739 0
0 0.869047 0
0.317556 0.833066 0
0.793729 0.793729 0
1 0.769162 0
0 1 0
0 1 0
0.232853 1 0
0.709072 1 0
1 1 0
0 0 0.1355
0.123629 0 0.123735
0.566018 0 0.0431373
1 0 0
1 0 0
0 0.0959793 0.0962081
0.0883345 0.0882277 0.0883497
0.546471 0.0307317 0.0308385
0.995621 0.00457771 0.00364691
1 0 0
0 0.448966 0
0 0.463539 0
0.438697 0.438697 0
0.923491 0.409186 0
1 0.388067 0
0 0.862608 0
0 0.871763 0
0.320226 0.835782 0
0.796307 0.796307 0
1 0.771649 0
0 1 0
0 1 0
0.234699 1 0
0.710826 1 0
1 1 0
0 0 0.635157
0.0960708 0 0.62034
0.538827 0 0.538827
0.981567 0 0.471336
1 0 0.441688
0 0.0708171 0.590204
0.0661326 0.0660105 0.583154
0.530648 0.0156405 0.530648
0.991836 0.0012665 0.492729
1 0 0.474128
0 0.439384 0.439612
0 0.454734 0.454734
0.429709 0.42948 0.429709
0.91252 0.397742 0.397955
1 0.375921 0.376135
0 0.850233 0.335653
0 0.859266 0.344076
0.307439 0.823453 0.307439
0.783902 0.783719 0.267231
1 0.759045 0.24184
0 1 0.252705
0 1 0.258915
0.221881 1 0.221881
0.698589 1 0.179416
1 1 0.152361
0 0 1
0.0693675 0 1
0.513512 0 1
0.963439 0 0.963439
1 0 0.938125
0 0.047715 1
0.0467536 0.0466468 1
0.516228 0.00819409 0.998215
0.987823 0 0.987518
1 0 0.977127
0 0.430228 0.94342
0 0.445655 0.959442
0.419394 0.419394 0.933623
0.900175 0.385122 0.900175
1 0.362646 0.878309
0 0.837156 0.837156
0 0.845808 0.846006
0.293507 0.809812 0.809812
0.769879 0.769879 0.769879
1 0.744839 0.745037
0 1 0.755169
0 1 0.761944
0.207019 1 0.725795
0.684077 1 0.684077
1 1 0.657588
0 0 1
0.0542916 0 1
0.499504 0 1
0.954192 0 1
1 0 1
0 0.0354772 1
0.0366064 0.0366064 1
0.507927 0.00561532 1
0.984802 0 1
1 0 1
0 0.425162 1
0 0.440162 1
0.412848 0.412848 1
0.892515 0.377417 1
1 0.354421 1
0 0.829023 1
0 0.837613 1
0.284794 0.801389 1
0.761196 0.761196 1
1 0.73608 1
0 1 1
0 1 1
0.197665 1 1
0.674754 1 1
0.997665 0.997665 0.997665
