Fusion/LUTs/Alexandru-Don-LUTs-v2/Alexandru-Don-LUTs/Monitoring Luts/Monitoring Lut 4.cube
TITLE "Generated by Resolve"
LUT_3D_SIZE 9
0.0159915 0.0153201 0.0159152
0.0350958 0.0214694 0.0225986
0.206332 0.026978 0.022858
0.500343 0.0707866 0.0203098
0.752255 0.108278 0.0167086
0.8448 0.115724 0.0166934
0.8448 0.115724 0.0166934
0.8448 0.115724 0.0166934
0.8448 0.115724 0.0166934
0.021561 0.0241855 0.0259403
0.0194858 0.019852 0.0206455
0.139605 0.0245365 0.0242618
0.440726 0.0597696 0.0213016
0.713497 0.104173 0.016907
0.8448 0.115724 0.0166934
0.8448 0.115724 0.0166934
0.8448 0.115724 0.0166934
0.8448 0.115724 0.0166934
0.0173342 0.112444 0.0921187
0.0178073 0.0986191 0.0829633
0.079942 0.0979477 0.044007
0.363165 0.0874342 0.0224002
0.663508 0.109636 0.0166018
0.84036 0.119951 0.0167239
0.844556 0.118318 0.0167239
0.844419 0.119722 0.0167391
0.844221 0.122148 0.0167544
0.0270695 0.255207 0.218967
0.0267185 0.249165 0.213397
0.0263218 0.242649 0.206775
0.244541 0.247303 0.107057
0.573617 0.225132 0.0616159
0.811368 0.213031 0.0211032
0.855497 0.208743 0.0208743
0.856199 0.212634 0.0211795
0.857588 0.218433 0.0224155
0.0311589 0.434821 0.341009
0.0311589 0.43595 0.341527
0.0311437 0.434424 0.340795
0.113909 0.418982 0.314366
0.454063 0.430716 0.199329
0.759182 0.40383 0.156451
0.884184 0.388235 0.136004
0.885603 0.391409 0.137987
0.886549 0.397711 0.142092
0.0392157 0.623713 0.405066
0.0390936 0.622675 0.404822
0.0386511 0.618296 0.403723
0.0655222 0.593118 0.395071
0.323186 0.599023 0.338827
0.642634 0.601083 0.281544
0.869398 0.587457 0.266514
0.912718 0.580163 0.260105
0.912825 0.581018 0.260624
0.0511177 0.75584 0.436347
0.0511177 0.754559 0.436088
0.0510262 0.750591 0.435218
0.0691234 0.731792 0.430137
0.279301 0.731563 0.409232
0.549844 0.743114 0.358068
0.794446 0.73785 0.338598
0.926452 0.730602 0.341604
0.928588 0.724575 0.339727
0.051133 0.765637 0.4383
0.051133 0.765637 0.4383
0.051133 0.765637 0.4383
0.0628061 0.766415 0.438773
0.243305 0.784344 0.428977
0.500923 0.827298 0.403845
0.725567 0.834302 0.386511
0.890791 0.831159 0.379904
0.924224 0.822522 0.374334
0.051133 0.765637 0.4383
0.051133 0.765637 0.4383
0.051133 0.765637 0.4383
0.054963 0.765988 0.438697
0.217121 0.778393 0.429435
0.462104 0.829343 0.409461
0.673548 0.850324 0.395483
0.83595 0.860044 0.394659
0.918303 0.86421 0.39443
0.0222782 0.0252537 0.0364233
0.0404517 0.0257572 0.0439918
0.203616 0.0240024 0.034699
0.494224 0.0696269 0.0204471
0.749172 0.107988 0.0167086
0.8448 0.115724 0.0166934
0.8448 0.115724 0.0166934
0.8448 0.115724 0.0166934
0.8448 0.115724 0.0166934
0.021088 0.0238956 0.0269322
0.0180667 0.0180667 0.0191958
0.133227 0.0243839 0.0243839
0.434791 0.0586709 0.0213779
0.710094 0.103761 0.0169375
0.8448 0.115724 0.0166934
0.8448 0.115724 0.0166934
0.8448 0.115724 0.0166934
0.8448 0.115724 0.0166934
0.0171511 0.10663 0.0880751
0.0182345 0.0942855 0.0802472
0.0768902 0.0930037 0.0435645
0.361059 0.0846723 0.0225681
0.662516 0.108507 0.0166629
0.840223 0.119432 0.0167086
0.844572 0.118044 0.0167239
0.844434 0.11957 0.0167391
0.844221 0.122026 0.0167544
0.0269017 0.252277 0.216266
0.0266117 0.247364 0.211734
0.026276 0.241779 0.206104
0.243809 0.246647 0.106752
0.574319 0.224598 0.0612039
0.811643 0.212604 0.0210574
0.855375 0.208087 0.0208133
0.856016 0.211673 0.0211032
0.857313 0.217365 0.0221408
0.0311437 0.434424 0.340795
0.0311589 0.436057 0.341573
0.0311437 0.434318 0.340749
0.111757 0.418189 0.314473
0.452628 0.42948 0.19855
0.758129 0.402258 0.155505
0.883833 0.386542 0.134981
0.885313 0.389456 0.136706
0.886183 0.395209 0.140459
0.0390784 0.622583 0.404791
0.0389868 0.621759 0.404593
0.0385748 0.617304 0.403464
0.0636454 0.59205 0.394934
0.321859 0.596826 0.339849
0.639963 0.598611 0.280461
0.867216 0.584604 0.264866
0.912184 0.576165 0.257649
0.912184 0.576165 0.257649
0.0511177 0.755016 0.436179
0.0511177 0.753674 0.43592
0.0509651 0.749233 0.434867
0.0673228 0.730037 0.429877
0.274891 0.727703 0.408667
0.544106 0.738582 0.356374
0.789014 0.732769 0.336645
0.925566 0.725231 0.339605
0.928405 0.718364 0.337499
0.051133 0.765637 0.4383
0.051133 0.765637 0.4383
0.051133 0.765637 0.4383
0.0603799 0.766278 0.438758
0.236606 0.782788 0.429114
0.494194 0.822477 0.402594
0.718456 0.829129 0.384222
0.885222 0.825284 0.377295
0.925032 0.815274 0.37084
0.051133 0.765637 0.4383
0.051133 0.765637 0.4383
0.051133 0.765637 0.4383
0.0538643 0.765881 0.438575
0.20882 0.776761 0.429526
0.452567 0.827909 0.409995
0.663401 0.849683 0.395636
0.825772 0.859571 0.394751
0.918303 0.86421 0.39443
0.0200198 0.0938888 0.15433
0.0346838 0.0868544 0.150011
0.23827 0.0679789 0.202762
0.520348 0.0420691 0.128298
0.775036 0.0460365 0.0234379
0.851301 0.0969406 0.0181735
0.848676 0.104631 0.0174716
0.848005 0.107012 0.0172732
0.847807 0.107637 0.0172274
0.0223239 0.0678721 0.110491
0.0237125 0.0592508 0.0999161
0.170901 0.0462959 0.139956
0.449851 0.0280461 0.0743572
0.712703 0.085481 0.0191348
0.84686 0.110124 0.0171206
0.846021 0.112459 0.0169833
0.846006 0.112551 0.0169833
0.846311 0.111696 0.0170596
0.0179599 0.128923 0.124987
0.0176394 0.113466 0.110491
0.0808423 0.0976577 0.09131
0.364813 0.0749371 0.0460975
0.662974 0.101823 0.0169375
0.840269 0.117983 0.0167391
0.844617 0.117617 0.0167086
0.844923 0.118166 0.0168002
0.84538 0.119097 0.0168612
0.0267491 0.249149 0.213977
0.0264897 0.24506 0.209888
0.026215 0.240574 0.205203
0.242435 0.245243 0.106096
0.574319 0.22298 0.0602274
0.8112 0.211307 0.0209506
0.8551 0.206546 0.0206912
0.855711 0.209918 0.0209659
0.856809 0.215473 0.0216526
0.0311284 0.433082 0.340124
0.0311589 0.434928 0.341054
0.0311284 0.433188 0.340169
0.107195 0.416068 0.314443
0.449973 0.427039 0.197391
0.756176 0.399466 0.153841
0.883223 0.383703 0.133257
0.884825 0.386084 0.134585
0.885634 0.391623 0.138125
0.0388342 0.620417 0.404273
0.0387579 0.619699 0.404089
0.038407 0.615198 0.402914
0.0605325 0.589914 0.394537
0.319677 0.593225 0.34168
0.635874 0.59501 0.278843
0.863691 0.579919 0.262165
0.911437 0.570581 0.254231
0.91133 0.569726 0.253697
0.0511177 0.75378 0.435935
0.0511177 0.752239 0.43563
0.0508431 0.746822 0.434272
0.0650034 0.727504 0.429404
0.268742 0.722454 0.407874
0.536492 0.732677 0.354147
0.781888 0.726284 0.334081
0.924697 0.718364 0.337118
0.928145 0.710506 0.334371
0.051133 0.765637 0.4383
0.051133 0.765637 0.4383
0.051133 0.765637 0.4383
0.057435 0.766125 0.438727
0.228229 0.780896 0.429252
0.485603 0.816495 0.400992
0.709773 0.823056 0.381491
0.876875 0.817029 0.373342
0.925978 0.806851 0.366781
0.051133 0.765637 0.4383
0.051133 0.765637 0.4383
0.051133 0.765637 0.4383
0.0525368 0.765759 0.438437
0.199084 0.775006 0.429618
0.443381 0.825696 0.412772
0.651728 0.848905 0.395834
0.813901 0.859007 0.394858
0.918303 0.86421 0.39443
0.0357214 0.242878 0.39086
0.0421607 0.233585 0.376272
0.179721 0.227497 0.423255
0.532509 0.162173 0.431769
0.801205 0.12372 0.350103
0.903731 0.0939651 0.289815
0.901549 0.0820935 0.262684
0.900786 0.0778668 0.252903
0.900465 0.076112 0.248844
0.030518 0.209873 0.335149
0.0293584 0.202625 0.323247
0.124208 0.198566 0.341192
0.464317 0.138979 0.375555
0.750988 0.0997787 0.295125
0.897993 0.0700847 0.232853
0.898466 0.062211 0.212772
0.898466 0.062211 0.212772
0.898909 0.0652171 0.220645
0.0267643 0.219806 0.319478
0.025864 0.207324 0.304051
0.0536965 0.191943 0.289357
0.391836 0.132326 0.320089
0.703365 0.0890211 0.250767
0.890394 0.0586862 0.196307
0.896635 0.052842 0.186603
0.896849 0.0583352 0.194293
0.897169 0.0659648 0.205997
0.0292668 0.294469 0.301793
0.0291295 0.29073 0.298161
0.0289769 0.286458 0.29395
0.254047 0.258045 0.24213
0.574731 0.217121 0.167575
0.814359 0.195529 0.110704
0.865492 0.188251 0.0967269
0.867018 0.19202 0.101625
0.869551 0.198123 0.109728
0.031342 0.44889 0.365087
0.0313573 0.451179 0.366293
0.0313115 0.448173 0.364065
0.0746319 0.423239 0.339239
0.439826 0.419699 0.216968
0.747509 0.388815 0.16173
0.88304 0.372656 0.13901
0.885679 0.374426 0.140627
0.886595 0.379385 0.144839
0.0389105 0.620371 0.414176
0.0388342 0.61941 0.413611
0.038468 0.614206 0.411353
0.047715 0.586923 0.399527
0.31014 0.583017 0.346059
0.623377 0.583963 0.274052
0.85452 0.567773 0.255222
0.909606 0.556985 0.245808
0.909377 0.555322 0.244755
0.049485 0.753246 0.443336
0.049485 0.750607 0.442084
0.0495155 0.744137 0.439231
0.058732 0.722255 0.430655
0.254887 0.709484 0.405661
0.520043 0.719417 0.349187
0.767102 0.712688 0.32845
0.916335 0.704417 0.330846
0.927581 0.695354 0.327703
0.0501869 0.77116 0.447425
0.0504311 0.770092 0.44564
0.0507973 0.768475 0.443488
0.0537423 0.766094 0.439094
0.212909 0.776959 0.429343
0.469505 0.804959 0.398001
0.693294 0.809689 0.375479
0.862135 0.802258 0.366247
0.927398 0.791302 0.360433
0.0504158 0.770199 0.445838
0.050782 0.768582 0.443626
0.0511025 0.766766 0.440894
0.051133 0.765637 0.4383
0.181918 0.772091 0.429816
0.427405 0.821851 0.417578
0.631052 0.847318 0.396292
0.793423 0.857939 0.395026
0.915511 0.860365 0.392767
0.0648051 0.380346 0.629038
0.065568 0.373205 0.616358
0.181811 0.374182 0.635615
0.518059 0.312154 0.724468
0.844251 0.280522 0.672847
0.96199 0.249622 0.616495
0.95668 0.23653 0.592126
0.954772 0.231922 0.583429
0.954101 0.230304 0.580362
0.059617 0.359304 0.591897
0.0581369 0.353124 0.581491
0.126772 0.351324 0.588083
0.431861 0.300862 0.687617
0.785016 0.255726 0.624598
0.948211 0.224628 0.569436
0.947601 0.215167 0.551797
0.947707 0.215412 0.55227
0.949386 0.219257 0.559503
0.0552224 0.359579 0.580224
0.0538796 0.350713 0.567681
0.0731823 0.33991 0.554711
0.340475 0.292653 0.646143
0.739315 0.239521 0.590845
0.937789 0.211505 0.544152
0.943511 0.205875 0.533974
0.945205 0.209644 0.541405
0.947509 0.215793 0.551354
0.0318914 0.384543 0.534951
0.0318151 0.382116 0.53254
0.0317693 0.379507 0.530159
0.196201 0.338994 0.480415
0.609277 0.281987 0.505394
0.870985 0.225589 0.449699
0.930175 0.212375 0.428962
0.931411 0.216358 0.433539
0.933669 0.223423 0.441871
0.0332799 0.510353 0.502831
0.0333715 0.512444 0.504662
0.0332494 0.509483 0.502068
0.0322881 0.476265 0.47332
0.455619 0.442176 0.41706
0.744595 0.395621 0.355322
0.916487 0.364324 0.315679
0.925566 0.363622 0.314824
0.927337 0.367864 0.319173
0.0425879 0.669032 0.510658
0.0424811 0.66775 0.509544
0.0420539 0.661814 0.505302
0.0399786 0.630167 0.484367
0.325917 0.604913 0.458137
0.622553 0.583108 0.374334
0.857649 0.55169 0.314443
0.926009 0.539223 0.303136
0.925597 0.537148 0.301656
0.047837 0.797116 0.525154
0.047776 0.793591 0.522499
0.0476692 0.785336 0.51664
0.0468147 0.758114 0.499229
0.234379 0.720088 0.466545
0.508736 0.712215 0.40325
0.751644 0.699397 0.361669
0.911406 0.688914 0.353719
0.933654 0.676234 0.345312
0.0479286 0.815473 0.525994
0.0478676 0.812894 0.521126
0.0478065 0.809064 0.513924
0.047715 0.801297 0.499779
0.189792 0.787427 0.474937
0.460075 0.800015 0.445487
0.673655 0.797879 0.396384
0.845472 0.786603 0.376104
0.933776 0.773327 0.374701
0.0478676 0.812696 0.52076
0.0478065 0.808942 0.51371
0.047776 0.804211 0.504906
0.0475166 0.796094 0.490074
0.154314 0.790051 0.468544
0.402472 0.828351 0.452003
0.606104 0.854597 0.420554
0.772152 0.855482 0.404395
0.912001 0.853101 0.398535
0.0691386 0.399771 0.665965
0.0691691 0.399771 0.665965
0.168353 0.398688 0.679118
0.473655 0.365805 0.835172
0.832319 0.349432 0.829267
0.975891 0.347829 0.825681
0.975799 0.345663 0.819974
0.975814 0.344106 0.815961
0.97583 0.343725 0.814939
0.0691386 0.399771 0.665965
0.0691386 0.399771 0.665965
0.120119 0.398733 0.671351
0.375479 0.379858 0.808743
0.77348 0.347738 0.825696
0.974029 0.342123 0.810666
0.975845 0.336828 0.797742
0.975845 0.337392 0.7991
0.975875 0.340246 0.806027
0.0682841 0.409613 0.677134
0.068513 0.407599 0.674861
0.082887 0.404654 0.672694
0.328969 0.397086 0.722072
0.734966 0.34583 0.820081
0.967224 0.335576 0.794629
0.975814 0.332158 0.786419
0.97583 0.334569 0.792279
0.97586 0.338155 0.800961
0.056733 0.463386 0.714504
0.0569467 0.462394 0.713726
0.0572518 0.460914 0.71252
0.201129 0.436805 0.691814
0.605051 0.375891 0.767117
0.902632 0.350713 0.730739
0.975769 0.339818 0.71754
0.97583 0.343221 0.720455
0.975967 0.349111 0.726024
0.0405127 0.588403 0.752361
0.040589 0.589944 0.754711
0.0404059 0.586618 0.751415
0.0398566 0.553017 0.71368
0.399207 0.500694 0.641718
0.764691 0.45391 0.632059
0.949828 0.41619 0.600046
0.96643 0.412161 0.596994
0.966873 0.417014 0.60032
0.048249 0.720439 0.679484
0.0481575 0.719112 0.67834
0.0477913 0.713161 0.673152
0.0456855 0.681804 0.646998
0.274739 0.638102 0.619455
0.63444 0.605966 0.57171
0.855756 0.567315 0.527031
0.95758 0.543847 0.504356
0.957183 0.540993 0.501595
0.0499428 0.854841 0.670192
0.0499428 0.850858 0.666468
0.0499886 0.842481 0.658915
0.049958 0.811826 0.635523
0.186725 0.756848 0.593927
0.540887 0.734813 0.587121
0.757595 0.708385 0.535958
0.924117 0.685191 0.505577
0.962356 0.668101 0.48217
0.0492561 0.869886 0.662989
0.0492866 0.86746 0.65539
0.0493629 0.863722 0.644083
0.0490883 0.855924 0.621378
0.153521 0.833478 0.588449
0.484474 0.826413 0.582177
0.69099 0.803632 0.553811
0.847791 0.788815 0.518959
0.964096 0.770291 0.479545
0.0493019 0.86685 0.653574
0.0493782 0.863142 0.642359
0.0492409 0.858473 0.628687
0.0487526 0.849943 0.604776
0.125521 0.840269 0.573693
0.397467 0.869902 0.564691
0.614084 0.871824 0.536706
0.767117 0.870771 0.495796
0.917449 0.859236 0.46389
0.0691386 0.399771 0.665965
0.0691386 0.399771 0.665965
0.159762 0.398672 0.677577
0.455192 0.367224 0.836576
0.82005 0.349462 0.829358
0.975967 0.348714 0.827985
0.975952 0.348653 0.827878
0.975952 0.348653 0.827878
0.975952 0.348653 0.827878
0.0691386 0.399771 0.665965
0.0691386 0.399771 0.665965
0.113466 0.398856 0.670695
0.364385 0.384863 0.787671
0.762768 0.349462 0.829908
0.973037 0.34876 0.828183
0.975952 0.348653 0.827878
0.975952 0.348653 0.827878
0.975952 0.348653 0.827878
0.0684062 0.408148 0.675517
0.0687266 0.406531 0.673594
0.0806439 0.40383 0.671489
0.32285 0.399268 0.719142
0.728618 0.349569 0.83032
0.964569 0.348745 0.828244
0.975952 0.348653 0.827878
0.975952 0.348653 0.827878
0.975952 0.348653 0.827878
0.0590829 0.464836 0.724697
0.059205 0.464271 0.724254
0.0594797 0.463172 0.723339
0.198505 0.446342 0.718944
0.591104 0.399451 0.832944
0.900008 0.384405 0.82974
0.976257 0.379477 0.82826
0.976257 0.381231 0.828367
0.976272 0.3841 0.82855
0.0408789 0.60235 0.835584
0.0409094 0.602792 0.835874
0.0407111 0.599664 0.83386
0.0496223 0.575479 0.817975
0.375921 0.543023 0.807507
0.749142 0.502724 0.825498
0.958846 0.487282 0.800916
0.977142 0.486534 0.79884
0.977157 0.489525 0.801221
0.0498207 0.762585 0.871778
0.0497749 0.761196 0.871412
0.0496529 0.756344 0.869917
0.0488136 0.730724 0.855665
0.260792 0.683162 0.82034
0.592187 0.643381 0.770993
0.864179 0.611811 0.729351
0.977707 0.590021 0.706142
0.978698 0.585168 0.700725
0.0488594 0.894392 0.851591
0.0490578 0.890425 0.847196
0.0494698 0.881605 0.837049
0.0506752 0.849073 0.803082
0.150225 0.788632 0.745083
0.52958 0.749844 0.723842
0.766903 0.726284 0.680735
0.923033 0.696605 0.649027
0.978363 0.675822 0.630289
0.0480659 0.909712 0.836637
0.0483864 0.907607 0.824063
0.0489204 0.904372 0.805508
0.049073 0.896849 0.76817
0.109804 0.873564 0.720607
0.430854 0.847791 0.706493
0.698772 0.816831 0.67953
0.849836 0.797955 0.650294
0.974594 0.772427 0.613809
0.0485084 0.906905 0.820081
0.0490272 0.903655 0.801434
0.0490272 0.899016 0.778729
0.0493629 0.890806 0.740093
0.0842756 0.879545 0.692699
0.360861 0.898695 0.671901
0.614115 0.893126 0.652537
0.779553 0.880568 0.637339
0.921996 0.867674 0.621653
0.0691386 0.399771 0.665965
0.0691386 0.399771 0.665965
0.156619 0.398657 0.677012
0.444434 0.368063 0.8374
0.81323 0.349493 0.829419
0.975967 0.348745 0.828031
0.975952 0.348653 0.827878
0.975952 0.348653 0.827878
0.975952 0.348653 0.827878
0.0691386 0.399771 0.665965
0.0691386 0.399771 0.665965
0.110521 0.398917 0.67042
0.359365 0.387121 0.778119
0.75848 0.349462 0.829953
0.972717 0.34876 0.828183
0.975952 0.348653 0.827878
0.975952 0.348653 0.827878
0.975952 0.348653 0.827878
0.0684977 0.407691 0.674968
0.0687877 0.40618 0.673167
0.0802319 0.403693 0.67126
0.322118 0.399329 0.718898
0.727855 0.349676 0.830335
0.964569 0.348745 0.828244
0.975952 0.348653 0.827878
0.975952 0.348653 0.827878
0.975952 0.348653 0.827878
0.0590829 0.464836 0.724697
0.0591287 0.464607 0.724514
0.0593423 0.463722 0.723796
0.199725 0.446952 0.719554
0.590768 0.400107 0.83299
0.899397 0.384665 0.829755
0.976257 0.379721 0.828275
0.976257 0.381277 0.828367
0.976272 0.384024 0.82855
0.0409247 0.60296 0.835981
0.0409247 0.603052 0.836042
0.0407263 0.599741 0.833921
0.0501869 0.575433 0.81796
0.369558 0.543847 0.817411
0.746288 0.505791 0.841794
0.957931 0.495186 0.837079
0.977035 0.494301 0.836515
0.977066 0.496315 0.836774
0.0496834 0.763485 0.881224
0.0496376 0.761837 0.881132
0.049485 0.756817 0.880842
0.0485389 0.732815 0.878492
0.260716 0.691493 0.877653
0.587503 0.655055 0.869978
0.854292 0.631678 0.858747
0.980621 0.622309 0.848676
0.981613 0.618006 0.844663
0.0482948 0.898146 0.877714
0.0484474 0.894347 0.878157
0.0487526 0.886976 0.879042
0.0497444 0.861357 0.882017
0.140169 0.812757 0.877409
0.506752 0.774227 0.871946
0.744244 0.746853 0.835782
0.922393 0.72607 0.801343
0.986465 0.707073 0.779812
0.0472267 0.916396 0.875853
0.0472267 0.916396 0.875853
0.0472267 0.916396 0.875853
0.0472572 0.91606 0.875334
0.093431 0.899321 0.859739
0.453864 0.85539 0.826001
0.695552 0.823468 0.789441
0.853056 0.80943 0.760769
0.978332 0.780758 0.729305
0.0472267 0.916396 0.875853
0.0472267 0.916396 0.875853
0.0472267 0.916396 0.875853
0.047364 0.915221 0.869261
0.0694743 0.907271 0.81886
0.321721 0.911131 0.778943
0.579095 0.908415 0.756817
0.786465 0.888747 0.747509
0.922683 0.873274 0.726146
0.0691386 0.399771 0.665965
0.0691386 0.399771 0.665965
0.155459 0.398657 0.676814
0.435843 0.368948 0.836866
0.808148 0.349508 0.82945
0.975967 0.34876 0.828061
0.975952 0.348653 0.827878
0.975952 0.348653 0.827878
0.975952 0.348653 0.827878
0.0691386 0.399771 0.665965
0.0691386 0.399771 0.665965
0.108675 0.398947 0.670253
0.356527 0.388403 0.772717
0.756344 0.349462 0.829984
0.972625 0.348745 0.828183
0.975952 0.348653 0.827878
0.975952 0.348653 0.827878
0.975952 0.348653 0.827878
0.0685283 0.407492 0.674723
0.0688029 0.406119 0.673121
0.0805219 0.4038 0.671412
0.323217 0.39939 0.719188
0.729152 0.349859 0.830289
0.965743 0.348745 0.828244
0.975952 0.348653 0.827878
0.975952 0.348653 0.827878
0.975952 0.348653 0.827878
0.0588693 0.465721 0.725429
0.058854 0.465766 0.725475
0.0590372 0.465049 0.72488
0.201999 0.448096 0.720653
0.592065 0.401129 0.833082
0.899962 0.385504 0.829816
0.976257 0.380423 0.828321
0.976257 0.381888 0.828412
0.976272 0.384512 0.82858
0.0410315 0.604715 0.837095
0.041001 0.604364 0.836866
0.0407874 0.60087 0.834638
0.050782 0.576364 0.818723
0.370367 0.544671 0.818906
0.746258 0.50663 0.841901
0.957565 0.495735 0.837156
0.977035 0.49453 0.836545
0.977066 0.495857 0.836713
0.0497292 0.764477 0.881285
0.0496681 0.76257 0.881163
0.0495003 0.757183 0.880858
0.0485389 0.732845 0.878462
0.261646 0.690974 0.877623
0.586221 0.654429 0.869856
0.850996 0.630915 0.860807
0.980362 0.621897 0.856611
0.981537 0.61735 0.855711
0.0482948 0.89807 0.877714
0.0484627 0.893935 0.878202
0.0487984 0.885832 0.879179
0.0497902 0.859556 0.88217
0.138048 0.810773 0.881956
0.503975 0.773953 0.894423
0.738796 0.748257 0.887175
0.915709 0.731456 0.879484
0.986236 0.719982 0.875944
0.0472267 0.916396 0.875853
0.0472267 0.916396 0.875853
0.0472267 0.916396 0.875853
0.0472572 0.915862 0.875853
0.0897383 0.900282 0.877943
0.389044 0.865858 0.903685
0.667201 0.836744 0.902922
0.838788 0.820096 0.892989
0.977951 0.803403 0.873823
0.0472267 0.916396 0.875853
0.0472267 0.916396 0.875853
0.0472267 0.916396 0.875853
0.0472267 0.916396 0.875853
0.0647746 0.916945 0.876661
0.311971 0.922774 0.885527
0.547799 0.917021 0.884611
0.779934 0.892668 0.860517
0.921477 0.880751 0.837644
