Fusion/LUTs/Alexandru-Don-LUTs-v2/Alexandru-Don-LUTs/Monitoring Luts/Monitoring Lut 5.cube
TITLE "Generated by Resolve"
LUT_3D_SIZE 17
0.0147555 0.0211948 0.0270237
0.0147555 0.0211948 0.0270237
0.0185855 0.0215305 0.0274968
0.0723735 0.026627 0.0331273
0.198337 0.0430762 0.0417639
0.37464 0.070573 0.0545357
0.544671 0.0988174 0.0649882
0.700481 0.128511 0.0781872
0.834607 0.157748 0.0908522
0.915877 0.168139 0.094789
0.937942 0.16907 0.0950332
0.937942 0.16907 0.0950332
0.937942 0.16907 0.0950332
0.937942 0.16907 0.0950332
0.937942 0.16907 0.0950332
0.937942 0.16907 0.0950332
0.937942 0.16907 0.0950332
0.0147555 0.0211948 0.0270237
0.0147555 0.0211948 0.0270237
0.0149538 0.02121 0.0270542
0.0488441 0.0242771 0.0310369
0.160159 0.0374304 0.0388952
0.332341 0.0639658 0.0518654
0.508003 0.0923476 0.0624399
0.667918 0.122042 0.0751965
0.810452 0.152193 0.0886244
0.905013 0.167575 0.0946212
0.937942 0.16907 0.0950332
0.937942 0.16907 0.0950332
0.937942 0.16907 0.0950332
0.937942 0.16907 0.0950332
0.937942 0.16907 0.0950332
0.937942 0.16907 0.0950332
0.937942 0.16907 0.0950332
0.0147555 0.0211948 0.0270237
0.0147555 0.0211948 0.0270237
0.0147555 0.0211948 0.0270237
0.0335699 0.0229191 0.0294652
0.132403 0.0336309 0.0370184
0.300649 0.0590372 0.0496071
0.485115 0.0884565 0.0610056
0.652155 0.118975 0.0737774
0.801862 0.150195 0.0877852
0.902388 0.167346 0.0945296
0.937697 0.169055 0.0950332
0.937942 0.16907 0.0950332
0.937942 0.16907 0.0950332
0.937942 0.16907 0.0950332
0.937942 0.16907 0.0950332
0.937942 0.16907 0.0950332
0.937942 0.16907 0.0950332
0.019501 0.035172 0.0324865
0.0189975 0.0336919 0.0319219
0.0184482 0.0320287 0.031281
0.0234379 0.0296635 0.0307927
0.0972915 0.0339971 0.0359655
0.254917 0.052842 0.0462806
0.445014 0.0818494 0.0586252
0.614664 0.111727 0.0705577
0.768627 0.142733 0.0846113
0.884352 0.165789 0.0939651
0.935347 0.168963 0.0950027
0.937942 0.16907 0.0950332
0.937942 0.16907 0.0950332
0.937942 0.16907 0.0950332
0.937942 0.16907 0.0950332
0.937942 0.16907 0.0950332
0.937942 0.16907 0.0950332
0.041886 0.0922713 0.0621653
0.0419928 0.092546 0.0623484
0.0421607 0.0928511 0.0625467
0.0398566 0.0870222 0.0591745
0.0722667 0.0816205 0.0564584
0.198199 0.0875105 0.0513771
0.384466 0.102342 0.0577707
0.558083 0.122438 0.0678721
0.715297 0.147295 0.0811322
0.851179 0.17261 0.0932784
0.926146 0.177218 0.0957809
0.93817 0.176303 0.0957504
0.938125 0.175097 0.095613
0.938125 0.174701 0.0955825
0.938109 0.174365 0.095552
0.938094 0.174105 0.0955215
0.938109 0.174472 0.095552
0.0831464 0.179309 0.115053
0.0838331 0.180667 0.115892
0.0853742 0.183703 0.117784
0.0825208 0.178119 0.114382
0.0873426 0.167422 0.108293
0.152041 0.166003 0.101427
0.31339 0.169665 0.0757153
0.492012 0.18143 0.0792554
0.65127 0.202258 0.0881971
0.798825 0.227893 0.0988022
0.903716 0.242374 0.104875
0.940368 0.239399 0.104753
0.94052 0.23444 0.103822
0.940429 0.232288 0.10341
0.940337 0.230426 0.103044
0.940276 0.228931 0.102708
0.940322 0.230167 0.102922
0.136385 0.282719 0.176898
0.137881 0.285664 0.178668
0.140429 0.290593 0.18172
0.138308 0.286427 0.179187
0.134081 0.273838 0.171572
0.169726 0.262089 0.165469
0.248508 0.268177 0.149676
0.424247 0.271763 0.111482
0.586877 0.281376 0.111254
0.73756 0.299092 0.118273
0.86659 0.317647 0.125185
0.935805 0.318303 0.12668
0.944183 0.312322 0.125704
0.943938 0.307729 0.124132
0.943771 0.304433 0.123003
0.943618 0.301686 0.122072
0.943679 0.302876 0.122484
0.196796 0.394644 0.24715
0.198856 0.39823 0.249424
0.201923 0.403586 0.252811
0.200198 0.400626 0.250935
0.19292 0.3879 0.242908
0.208438 0.372747 0.233692
0.270558 0.366461 0.229343
0.356085 0.379416 0.20061
0.519783 0.382284 0.155688
0.68069 0.384833 0.145769
0.818494 0.395605 0.150027
0.919097 0.40116 0.152926
0.949035 0.394659 0.155428
0.948547 0.387152 0.152575
0.948241 0.382589 0.150835
0.947967 0.378546 0.149294
0.948043 0.37966 0.149722
0.259495 0.502373 0.315297
0.261601 0.505989 0.317601
0.264286 0.510643 0.320546
0.262501 0.507561 0.318608
0.254856 0.494392 0.310277
0.254276 0.477348 0.299687
0.306523 0.463951 0.292134
0.372549 0.466346 0.286732
0.460945 0.479118 0.247379
0.612512 0.48101 0.201663
0.770748 0.478874 0.182498
0.890593 0.483223 0.181842
0.950713 0.478462 0.185931
0.953979 0.469413 0.184421
0.953597 0.463661 0.182086
0.953292 0.459068 0.180224
0.953368 0.460014 0.180606
0.319646 0.60618 0.381186
0.321157 0.608774 0.382849
0.323064 0.612085 0.38497
0.320775 0.608118 0.382437
0.31249 0.593805 0.373312
0.305165 0.575387 0.361669
0.341787 0.557702 0.351263
0.400397 0.551308 0.34728
0.464958 0.55903 0.336522
0.556283 0.570581 0.291493
0.70071 0.572106 0.245899
0.8495 0.567788 0.221973
0.942748 0.563729 0.21857
0.959701 0.554742 0.222309
0.959228 0.54757 0.218845
0.958877 0.542229 0.216281
0.958938 0.543008 0.216648
0.375067 0.702571 0.441978
0.375799 0.703853 0.442771
0.376761 0.705516 0.443824
0.374014 0.700664 0.440803
0.365942 0.686564 0.431998
0.355962 0.667567 0.420111
0.377356 0.648493 0.408499
0.428717 0.63624 0.401602
0.488228 0.637583 0.399069
0.553323 0.647044 0.382284
0.646418 0.658045 0.333349
0.784131 0.659113 0.288518
0.913771 0.652018 0.263294
0.9635 0.641779 0.269001
0.963561 0.632822 0.263798
0.963455 0.627085 0.260349
0.96347 0.627787 0.260746
0.423331 0.788571 0.495094
0.423529 0.788922 0.495308
0.423926 0.789609 0.495735
0.421286 0.784878 0.492821
0.414069 0.771923 0.484855
0.403998 0.753826 0.473747
0.412177 0.735225 0.462547
0.457877 0.720348 0.453941
0.513405 0.716869 0.452384
0.572137 0.721828 0.44715
0.638682 0.731914 0.425483
0.733303 0.742535 0.373373
0.859068 0.74316 0.330434
0.950729 0.733791 0.321294
0.959564 0.722591 0.319158
0.960113 0.716152 0.315053
0.960067 0.716731 0.315419
0.452094 0.846387 0.526406
0.452003 0.84625 0.526284
0.452049 0.846387 0.526329
0.451301 0.844556 0.525536
0.449012 0.839048 0.523125
0.443565 0.827405 0.517235
0.442557 0.812589 0.509255
0.484886 0.799664 0.50248
0.536065 0.792889 0.499626
0.593286 0.79411 0.49897
0.651804 0.801297 0.49044
0.720577 0.811536 0.464317
0.813794 0.820752 0.409659
0.918166 0.819959 0.381659
0.950668 0.809476 0.379568
0.951324 0.803296 0.374929
0.951278 0.803708 0.375235
0.455055 0.854124 0.529458
0.455055 0.854124 0.529458
0.455055 0.854124 0.529458
0.455055 0.854124 0.529458
0.455055 0.854124 0.529458
0.455055 0.854124 0.529458
0.456245 0.854017 0.529473
0.495033 0.852232 0.530617
0.547951 0.851896 0.532891
0.609827 0.856626 0.539528
0.672923 0.863447 0.543664
0.731777 0.872389 0.533898
0.800259 0.881895 0.505669
0.885527 0.888914 0.459403
0.945708 0.885527 0.441382
0.945739 0.879499 0.435737
0.945739 0.879759 0.435966
0.455055 0.854124 0.529458
0.455055 0.854124 0.529458
0.455055 0.854124 0.529458
0.455055 0.854124 0.529458
0.455055 0.854124 0.529458
0.455055 0.854124 0.529458
0.455344 0.854139 0.529473
0.483436 0.856184 0.531624
0.534661 0.860136 0.535332
0.597772 0.870253 0.545342
0.667079 0.884733 0.558267
0.729473 0.901305 0.562356
0.79559 0.919249 0.558953
0.867369 0.93373 0.539666
0.938811 0.942138 0.509224
0.94992 0.939559 0.500938
0.94992 0.939635 0.50103
0.455055 0.854124 0.529458
0.455055 0.854124 0.529458
0.455055 0.854124 0.529458
0.455055 0.854124 0.529458
0.455055 0.854124 0.529458
0.455055 0.854124 0.529458
0.455116 0.854124 0.529458
0.476219 0.855665 0.531075
0.525124 0.859129 0.534493
0.584619 0.867857 0.542794
0.653712 0.88159 0.556405
0.715511 0.897398 0.562112
0.779461 0.915175 0.560296
0.849912 0.932723 0.549538
0.924331 0.948409 0.523873
0.9514 0.952209 0.516548
0.9514 0.952209 0.516548
0.455055 0.854124 0.529458
0.455055 0.854124 0.529458
0.455055 0.854124 0.529458
0.455055 0.854124 0.529458
0.455055 0.854124 0.529458
0.455055 0.854124 0.529458
0.455161 0.854139 0.529473
0.477104 0.855726 0.531151
0.526085 0.85922 0.534554
0.585748 0.86807 0.542992
0.65481 0.881834 0.556588
0.716442 0.897658 0.562158
0.780392 0.915404 0.560235
0.850843 0.932952 0.549233
0.925063 0.948516 0.523674
0.9514 0.952209 0.516548
0.9514 0.952209 0.516548
0.0147555 0.0211948 0.0270237
0.0147555 0.0211948 0.0270237
0.0180667 0.0214847 0.0274357
0.0702678 0.0264134 0.0329595
0.195041 0.0425727 0.0415045
0.371298 0.0700542 0.0543221
0.541711 0.0982834 0.0647746
0.697749 0.127962 0.0779278
0.832593 0.15729 0.0906691
0.914931 0.168093 0.0947738
0.937942 0.16907 0.0950332
0.937942 0.16907 0.0950332
0.937942 0.16907 0.0950332
0.937942 0.16907 0.0950332
0.937942 0.16907 0.0950332
0.937942 0.16907 0.0950332
0.937942 0.16907 0.0950332
0.0147555 0.0211948 0.0270237
0.0147555 0.0211948 0.0270237
0.0148928 0.02121 0.027039
0.0472877 0.0241398 0.0308843
0.157626 0.0370794 0.0387121
0.329427 0.063508 0.0516823
0.50576 0.0919661 0.0623026
0.666194 0.121706 0.0750439
0.809339 0.151934 0.0885023
0.904723 0.167544 0.0946059
0.937942 0.16907 0.0950332
0.937942 0.16907 0.0950332
0.937942 0.16907 0.0950332
0.937942 0.16907 0.0950332
0.937942 0.16907 0.0950332
0.937942 0.16907 0.0950332
0.937942 0.16907 0.0950332
0.0147555 0.0211948 0.0270237
0.0147555 0.0211948 0.0270237
0.0147555 0.0211948 0.0270237
0.0328069 0.0228428 0.0293736
0.131075 0.0334478 0.0369421
0.299397 0.0588388 0.0495155
0.484413 0.0883345 0.0609598
0.651942 0.118929 0.0737621
0.80209 0.150256 0.0878004
0.902632 0.167361 0.0945449
0.937713 0.169055 0.0950332
0.937942 0.16907 0.0950332
0.937942 0.16907 0.0950332
0.937942 0.16907 0.0950332
0.937942 0.16907 0.0950332
0.937942 0.16907 0.0950332
0.937942 0.16907 0.0950332
0.0193332 0.0346685 0.0323033
0.0189364 0.0334783 0.0318456
0.0184634 0.0320745 0.0312963
0.0235142 0.0297704 0.0308385
0.0974136 0.034165 0.035996
0.255314 0.052903 0.0463111
0.445518 0.0819867 0.0586557
0.615549 0.11191 0.0706493
0.769772 0.142962 0.0847028
0.885084 0.165866 0.0939956
0.935409 0.168963 0.0950179
0.937942 0.16907 0.0950332
0.937942 0.16907 0.0950332
0.937942 0.16907 0.0950332
0.937942 0.16907 0.0950332
0.937942 0.16907 0.0950332
0.937942 0.16907 0.0950332
0.0419928 0.092546 0.0623331
0.0421149 0.0928206 0.062501
0.042359 0.0933089 0.0628061
0.040238 0.0876631 0.059556
0.0730907 0.0824598 0.0569314
0.19939 0.0885939 0.0518044
0.385718 0.103288 0.0579232
0.559655 0.123552 0.0681163
0.717144 0.148272 0.0813764
0.852674 0.173938 0.0935073
0.926696 0.177737 0.0958267
0.938186 0.176577 0.0957809
0.93814 0.175372 0.0956436
0.938125 0.174975 0.0955978
0.938125 0.174609 0.0955673
0.938109 0.174334 0.0955367
0.938125 0.174701 0.0955825
0.0835126 0.180011 0.11548
0.0842451 0.18146 0.116411
0.0858015 0.184512 0.118257
0.0830243 0.179141 0.115023
0.0881971 0.168627 0.109056
0.153155 0.167269 0.102159
0.315328 0.171069 0.0761578
0.494026 0.182712 0.0796826
0.653483 0.203723 0.0886549
0.800992 0.229374 0.0991684
0.904952 0.243412 0.105074
0.940444 0.240269 0.104952
0.940566 0.235294 0.10396
0.940459 0.233127 0.103548
0.940368 0.231205 0.103197
0.940307 0.229618 0.102876
0.940368 0.230838 0.10309
0.137041 0.284031 0.177661
0.138552 0.286946 0.179477
0.141161 0.291981 0.182589
0.13904 0.287846 0.180072
0.134936 0.275273 0.172473
0.171267 0.263783 0.166491
0.250034 0.269841 0.150561
0.426169 0.273487 0.1122
0.58909 0.282979 0.111772
0.739513 0.300465 0.1187
0.867979 0.318807 0.125566
0.936248 0.319158 0.127031
0.944213 0.312947 0.125917
0.943969 0.308354 0.124346
0.943786 0.305013 0.123201
0.943633 0.301961 0.122179
0.943694 0.303136 0.12256
0.197696 0.396185 0.248127
0.19968 0.399695 0.25034
0.202747 0.405005 0.253712
0.201053 0.402106 0.251881
0.193774 0.389441 0.24387
0.209689 0.374182 0.234607
0.271885 0.367941 0.230243
0.357656 0.380743 0.201343
0.521294 0.383429 0.156069
0.682048 0.38584 0.14612
0.819516 0.396414 0.150286
0.919554 0.401709 0.153277
0.949081 0.395071 0.155581
0.948562 0.387549 0.152728
0.948257 0.38291 0.150958
0.947982 0.37882 0.149401
0.948043 0.379843 0.149798
0.26041 0.50396 0.316304
0.262364 0.507317 0.318441
0.26508 0.511986 0.321416
0.263249 0.508858 0.319432
0.255543 0.495583 0.311025
0.25565 0.478614 0.300496
0.307225 0.464881 0.292714
0.373342 0.467262 0.287205
0.461204 0.479973 0.247547
0.613153 0.481575 0.201831
0.771405 0.479438 0.182727
0.890974 0.48365 0.181994
0.95082 0.478813 0.186175
0.953994 0.46978 0.184558
0.953628 0.464012 0.182239
0.953323 0.459205 0.180285
0.953368 0.460105 0.180652
0.320333 0.607385 0.381949
0.321736 0.609766 0.38349
0.323613 0.613016 0.385565
0.321248 0.608927 0.382956
0.312978 0.594659 0.373861
0.30547 0.576074 0.362097
0.342214 0.558373 0.351675
0.400885 0.551934 0.347662
0.46537 0.559518 0.336858
0.556741 0.571069 0.291722
0.701167 0.572488 0.246082
0.849851 0.568109 0.22211
0.942718 0.564004 0.21857
0.959716 0.555016 0.222431
0.959243 0.547738 0.218936
0.958877 0.542382 0.216373
0.958923 0.543099 0.216709
0.375509 0.703365 0.442466
0.376135 0.704417 0.443137
0.377035 0.705989 0.444114
0.374334 0.701228 0.441154
0.366232 0.687037 0.432288
0.356237 0.668147 0.420462
0.377661 0.649042 0.408835
0.429038 0.636667 0.401846
0.488609 0.63798 0.399329
0.553567 0.647349 0.382498
0.646876 0.658259 0.333547
0.784436 0.659464 0.288762
0.913634 0.652216 0.26363
0.963287 0.641932 0.268833
0.963546 0.633051 0.263951
0.963439 0.627192 0.260456
0.963439 0.627741 0.260777
0.42359 0.789029 0.495384
0.423682 0.789181 0.495476
0.424079 0.789914 0.495903
0.421485 0.785229 0.493034
0.414313 0.772366 0.485115
0.404273 0.754284 0.474037
0.412299 0.735561 0.462745
0.458152 0.72076 0.454215
0.513527 0.717083 0.452506
0.572335 0.722042 0.447242
0.638972 0.732158 0.425513
0.733623 0.742672 0.373526
0.859205 0.743282 0.330571
0.950591 0.733928 0.321584
0.959533 0.722759 0.31928
0.960113 0.716197 0.315099
0.960082 0.716655 0.315389
0.452094 0.846418 0.52639
0.452018 0.846326 0.526299
0.452094 0.846479 0.526375
0.451377 0.844724 0.525628
0.44918 0.83946 0.523293
0.443809 0.827802 0.51751
0.442741 0.812955 0.509468
0.485069 0.800046 0.502754
0.536217 0.793149 0.499794
0.593393 0.794278 0.499077
0.651865 0.801373 0.490471
0.720806 0.811658 0.464271
0.814008 0.820813 0.409873
0.917815 0.819928 0.381933
0.950622 0.809583 0.379675
0.951339 0.803235 0.374853
0.951308 0.803555 0.375097
0.455055 0.854124 0.529458
0.455055 0.854124 0.529458
0.455055 0.854124 0.529458
0.455055 0.854124 0.529458
0.455055 0.854124 0.529458
0.455055 0.854124 0.529458
0.45626 0.854078 0.529503
0.495033 0.852415 0.530709
0.548135 0.852155 0.533089
0.61004 0.856931 0.539757
0.673182 0.863722 0.543877
0.731991 0.872526 0.534142
0.80029 0.882002 0.505669
0.885557 0.889036 0.459266
0.945602 0.885512 0.441337
0.945647 0.879408 0.435508
0.945632 0.879576 0.435676
0.455055 0.854124 0.529458
0.455055 0.854124 0.529458
0.455055 0.854124 0.529458
0.455055 0.854124 0.529458
0.455055 0.854124 0.529458
0.455055 0.854124 0.529458
0.455375 0.854139 0.529488
0.483345 0.856168 0.531609
0.534508 0.860121 0.535317
0.59765 0.870222 0.545312
0.666972 0.884703 0.558251
0.729412 0.901289 0.562341
0.795651 0.919341 0.558984
0.867506 0.934295 0.540246
0.938994 0.942214 0.509224
0.949905 0.939635 0.500999
0.94992 0.939712 0.501106
0.455055 0.854124 0.529458
0.455055 0.854124 0.529458
0.455055 0.854124 0.529458
0.455055 0.854124 0.529458
0.455055 0.854124 0.529458
0.455055 0.854124 0.529458
0.455055 0.854124 0.529458
0.475837 0.855634 0.53106
0.524804 0.859098 0.534463
0.584131 0.867781 0.542702
0.653239 0.881498 0.556313
0.715145 0.897292 0.562097
0.778927 0.915022 0.560342
0.849409 0.932601 0.549798
0.923858 0.948333 0.52401
0.9514 0.952209 0.516548
0.9514 0.952209 0.516548
0.455055 0.854124 0.529458
0.455055 0.854124 0.529458
0.455055 0.854124 0.529458
0.455055 0.854124 0.529458
0.455055 0.854124 0.529458
0.455055 0.854124 0.529458
0.4551 0.854124 0.529458
0.476738 0.855695 0.531136
0.52575 0.85919 0.534539
0.585229 0.867979 0.542901
0.654276 0.881727 0.556497
0.71603 0.897536 0.562142
0.779812 0.915267 0.560281
0.850294 0.932799 0.549554
0.924529 0.94844 0.523827
0.9514 0.952209 0.516548
0.9514 0.952209 0.516548
0.0147097 0.0213016 0.0315404
0.014725 0.0212711 0.0305333
0.0175326 0.0214847 0.0292515
0.0679332 0.0261997 0.0333867
0.191302 0.0420081 0.0411994
0.367208 0.0694133 0.054078
0.537942 0.0975967 0.0644846
0.694453 0.127306 0.0776379
0.83006 0.15671 0.0904555
0.913848 0.168048 0.0947585
0.937942 0.16907 0.0950332
0.937942 0.16907 0.0950332
0.937942 0.16907 0.0950332
0.937942 0.16907 0.0950332
0.937942 0.16907 0.0950332
0.937942 0.16907 0.0950332
0.937942 0.16907 0.0950332
0.0147555 0.02121 0.0274357
0.0147555 0.0211948 0.0270695
0.0148623 0.02121 0.027039
0.0456245 0.0239872 0.0307164
0.154757 0.0366674 0.0385138
0.326101 0.0629892 0.0514534
0.503441 0.0915694 0.06215
0.664683 0.121416 0.0749065
0.808621 0.151766 0.0884413
0.904631 0.167529 0.0945907
0.937926 0.16907 0.0950332
0.937942 0.16907 0.0950332
0.937942 0.16907 0.0950332
0.937942 0.16907 0.0950332
0.937942 0.16907 0.0950332
0.937942 0.16907 0.0950332
0.937942 0.16907 0.0950332
0.0147555 0.0211948 0.0270237
0.0147555 0.0211948 0.0270237
0.0147555 0.0211948 0.0270237
0.0318914 0.0227665 0.0292668
0.129412 0.0332189 0.03682
0.297948 0.0586099 0.0494087
0.483726 0.0882124 0.060914
0.651865 0.118914 0.0737621
0.802441 0.150332 0.0878462
0.903044 0.167391 0.0945602
0.937758 0.16907 0.0950332
0.937942 0.16907 0.0950332
0.937942 0.16907 0.0950332
0.937942 0.16907 0.0950332
0.937942 0.16907 0.0950332
0.937942 0.16907 0.0950332
0.937942 0.16907 0.0950332
0.0190127 0.0337224 0.0319371
0.0187381 0.0328985 0.0316167
0.0183261 0.0317082 0.0311437
0.0233921 0.0297398 0.030808
0.0971542 0.0341802 0.0359808
0.255512 0.0530251 0.0463417
0.446113 0.0821241 0.0586862
0.61651 0.112093 0.0707256
0.771069 0.143236 0.0848249
0.885969 0.165957 0.0940261
0.935576 0.168963 0.0950179
0.937942 0.16907 0.0950332
0.937942 0.16907 0.0950332
0.937942 0.16907 0.0950332
0.937942 0.16907 0.0950332
0.937942 0.16907 0.0950332
0.937942 0.16907 0.0950332
0.0420539 0.092668 0.0624247
0.042237 0.0930495 0.0626535
0.0425116 0.0936294 0.0630045
0.0404974 0.0881361 0.0598459
0.0738384 0.0832532 0.0573739
0.200671 0.0896468 0.0521401
0.387381 0.104433 0.0581369
0.561639 0.12488 0.0684062
0.719295 0.149432 0.0816663
0.854444 0.17528 0.0937514
0.927306 0.178485 0.0959182
0.938201 0.176928 0.0958114
0.938155 0.175769 0.0956893
0.93814 0.175326 0.0956436
0.938125 0.174914 0.0955978
0.938125 0.174624 0.0955673
0.938125 0.174975 0.095613
0.084062 0.181094 0.116136
0.0848707 0.182712 0.117174
0.0864576 0.185763 0.119005
0.0837415 0.18056 0.115908
0.0895094 0.170214 0.110033
0.155001 0.169116 0.103029
0.317968 0.173053 0.0767987
0.496574 0.184573 0.0803082
0.656184 0.205707 0.0892653
0.803433 0.231312 0.0996719
0.906325 0.2448 0.105348
0.940551 0.241566 0.105226
0.940627 0.236515 0.104189
0.94052 0.234241 0.103746
0.940429 0.232273 0.103395
0.940352 0.230503 0.103044
0.940398 0.231708 0.103258
0.137942 0.285801 0.178744
0.139544 0.288869 0.180667
0.142245 0.294118 0.183886
0.140093 0.289906 0.181323
0.136248 0.277409 0.173785
0.173297 0.266041 0.167865
0.252369 0.272236 0.151659
0.428702 0.275837 0.113039
0.591592 0.285161 0.112474
0.741863 0.302388 0.11931
0.869551 0.320302 0.126024
0.936751 0.320363 0.127489
0.944259 0.314 0.126284
0.94403 0.309346 0.124681
0.943832 0.305852 0.123507
0.943664 0.302571 0.122377
0.943725 0.303685 0.122759
0.19881 0.398108 0.249348
0.200855 0.401755 0.251637
0.203952 0.40708 0.255009
0.202274 0.404196 0.253193
0.194903 0.391409 0.245136
0.211612 0.376226 0.235935
0.273854 0.370031 0.23151
0.360143 0.382544 0.20238
0.523247 0.385214 0.156847
0.683925 0.387366 0.146685
0.820951 0.39765 0.150729
0.920317 0.402686 0.153719
0.949126 0.395895 0.155901
0.948623 0.388312 0.153017
0.948302 0.383642 0.151232
0.948028 0.379461 0.149645
0.948089 0.380438 0.150011
0.261509 0.505821 0.317479
0.263386 0.509087 0.31957
0.266163 0.513848 0.322591
0.26424 0.510567 0.3205
0.256474 0.4972 0.312047
0.257221 0.480232 0.301518
0.308492 0.46627 0.293599
0.374624 0.468605 0.287968
0.462303 0.481209 0.248096
0.614298 0.482704 0.202289
0.772534 0.480415 0.183108
0.891783 0.484489 0.1823
0.95108 0.479561 0.186542
0.954055 0.470497 0.184848
0.953674 0.464698 0.182513
0.953353 0.459846 0.18056
0.953414 0.460655 0.18088
0.321172 0.608804 0.382864
0.32253 0.611154 0.384375
0.324361 0.614313 0.386389
0.321935 0.610132 0.383719
0.313619 0.595758 0.374563
0.306127 0.577142 0.362783
0.343145 0.559457 0.352377
0.401755 0.55285 0.348226
0.46627 0.560479 0.337392
0.557656 0.572045 0.292149
0.702068 0.573312 0.246464
0.850645 0.568887 0.222446
0.942931 0.56463 0.218784
0.959762 0.555657 0.222736
0.959274 0.548379 0.219226
0.958923 0.542962 0.216648
0.958968 0.543587 0.216938
0.375967 0.704158 0.442969
0.376562 0.70518 0.44361
0.377508 0.706813 0.444633
0.374807 0.702052 0.441672
0.36669 0.687861 0.432807
0.356741 0.669047 0.421027
0.378317 0.649897 0.409369
0.42977 0.637537 0.402396
0.489357 0.638819 0.399863
0.554299 0.648112 0.38294
0.647715 0.659037 0.333989
0.785138 0.660136 0.289128
0.913954 0.652857 0.264088
0.963241 0.642588 0.269184
0.963561 0.633616 0.264302
0.963424 0.627634 0.260746
0.963439 0.628107 0.261006
0.423804 0.789395 0.495613
0.423957 0.78967 0.495766
0.424353 0.790433 0.496208
0.421805 0.785809 0.493385
0.41471 0.773083 0.485542
0.404654 0.754955 0.474449
0.412848 0.736294 0.463203
0.458732 0.721431 0.454643
0.514122 0.717708 0.452903
0.572961 0.722713 0.447623
0.639582 0.732799 0.425818
0.734234 0.743206 0.3738
0.859709 0.743847 0.330892
0.950576 0.734386 0.322057
0.959472 0.723278 0.319631
0.960067 0.716686 0.315419
0.960037 0.717021 0.315633
0.452125 0.84651 0.526406
0.452064 0.846433 0.526345
0.452186 0.846662 0.526467
0.451484 0.844953 0.52575
0.449332 0.839857 0.523461
0.44416 0.828428 0.517906
0.443015 0.813458 0.509758
0.485542 0.80061 0.50312
0.536706 0.793667 0.500114
0.593835 0.79472 0.499352
0.652354 0.801862 0.49073
0.72137 0.812131 0.464439
0.814542 0.821164 0.410163
0.917845 0.82031 0.382452
0.950561 0.81001 0.380041
0.951308 0.803632 0.375158
0.951278 0.80383 0.375296
0.455055 0.854124 0.529458
0.455055 0.854124 0.529458
0.455055 0.854124 0.529458
0.455055 0.854124 0.529458
0.455055 0.854124 0.529458
0.455055 0.854124 0.529458
0.456275 0.854109 0.529519
0.495277 0.85275 0.530846
0.548409 0.852415 0.533257
0.610498 0.857282 0.540002
0.673548 0.864088 0.54406
0.732372 0.872786 0.53434
0.800855 0.882353 0.50602
0.885908 0.889326 0.459556
0.945434 0.88574 0.441672
0.945693 0.879698 0.435843
0.945678 0.879774 0.435904
0.455055 0.854124 0.529458
0.455055 0.854124 0.529458
0.455055 0.854124 0.529458
0.455055 0.854124 0.529458
0.455055 0.854124 0.529458
0.455055 0.854124 0.529458
0.455406 0.854154 0.529488
0.483391 0.856168 0.531609
0.53463 0.860121 0.535332
0.597742 0.870237 0.545342
0.667079 0.884733 0.558251
0.72961 0.901305 0.562325
0.795727 0.919142 0.558785
0.867857 0.934585 0.540337
0.939071 0.942321 0.509331
0.94992 0.939651 0.501045
0.94992 0.939681 0.501091
0.455055 0.854124 0.529458
0.455055 0.854124 0.529458
0.455055 0.854124 0.529458
0.455055 0.854124 0.529458
0.455055 0.854124 0.529458
0.455055 0.854124 0.529458
0.455055 0.854124 0.529458
0.475761 0.855634 0.53106
0.524681 0.859098 0.534447
0.583978 0.86775 0.542672
0.653178 0.881483 0.556298
0.715068 0.897276 0.562097
0.778912 0.915022 0.560342
0.849485 0.932616 0.549645
0.923766 0.948302 0.524086
0.9514 0.952209 0.516548
0.9514 0.952209 0.516548
0.455055 0.854124 0.529458
0.455055 0.854124 0.529458
0.455055 0.854124 0.529458
0.455055 0.854124 0.529458
0.455055 0.854124 0.529458
0.455055 0.854124 0.529458
0.45507 0.854124 0.529458
0.4766 0.855695 0.531121
0.525628 0.85919 0.534539
0.585061 0.867948 0.54287
0.654169 0.881712 0.556466
0.715908 0.897505 0.562127
0.779629 0.915221 0.560296
0.850172 0.932784 0.549508
0.924376 0.948409 0.523888
0.9514 0.952209 0.516548
0.9514 0.952209 0.516548
0.0161593 0.0237888 0.0807507
0.016022 0.0236057 0.0779431
0.0180667 0.0235294 0.0746929
0.0625467 0.0275883 0.0741131
0.182757 0.0416724 0.0737469
0.358724 0.0680552 0.0713359
0.530388 0.0960861 0.07187
0.686854 0.125704 0.0801099
0.823911 0.155276 0.0906844
0.910796 0.16791 0.0948959
0.937942 0.16907 0.0950332
0.937942 0.16907 0.0950332
0.937942 0.16907 0.0950332
0.937942 0.16907 0.0950332
0.937942 0.16907 0.0950332
