Fusion/LUTs/Alexandru-Don-LUTs-v2/Alexandru-Don-LUTs/Monitoring Luts/Monitoring Lut 1.cube
TITLE "Generated by Resolve"
LUT_3D_SIZE 5
0 0 0
0.155184 0 0
0.533486 0 0
0.901091 0 0
1 0 0
0 0.122744 0
0.115587 0.115587 0
0.516579 0.0702068 0
0.915694 0.0393988 0
1 0.0219425 0
0 0.42623 0
0.00762951 0.445991 0
0.423011 0.423011 0
0.832151 0.402228 0
1 0.380896 0
0 0.784573 0
0 0.799176 0
0.336065 0.765988 0
0.735454 0.73547 0
1 0.708965 0
0 1 0
0 1 0
0.246906 1 0
0.644953 1 0
0.999924 0.999954 0
0 0 0.163806
0.150347 0 0.150347
0.52871 0 0.0823377
0.898177 0 0.0227359
1 0 0
0 0.119493 0.119493
0.115282 0.115267 0.115282
0.520012 0.07364 0.07364
0.921096 0.0448157 0.0448157
1 0.0268406 0.0268406
0 0.432547 0
0.0125734 0.453162 0.0124971
0.430182 0.430182 0
0.838163 0.408255 0
1 0.385595 0
0 0.789883 0
0 0.803769 0
0.340368 0.770291 0
0.739635 0.739635 0
1 0.712947 0
0 1 0
0 1 0
0.250767 1 0
0.648844 1 0
0.999939 0.999969 0
0 0 0.587915
0.127184 0 0.573556
0.506203 0 0.506203
0.87866 0 0.448737
1 0 0.41088
0 0.099382 0.545754
0.0997024 0.0997024 0.546075
0.508141 0.0617685 0.508141
0.911635 0.0353399 0.481712
1 0.0214084 0.465339
0 0.42417 0.42417
0.00714122 0.445274 0.445274
0.42208 0.42208 0.42208
0.828183 0.39826 0.39826
1 0.374563 0.374563
0 0.779004 0.349096
0 0.792508 0.362585
0.328908 0.758831 0.328908
0.727794 0.727794 0.297887
1 0.701122 0.271199
0 1 0.262425
0 1 0.274037
0.238834 1 0.238834
0.636774 1 0.206851
0.999893 0.999924 0.179843
0 0 0.986877
0.105196 0 0.980423
0.485527 0 0.915434
0.862608 0 0.862608
1 0 0.829252
0 0.0826276 0.958923
0.0868238 0.0868391 0.963119
0.498466 0.0520943 0.928389
0.904021 0.0277409 0.904036
1 0.0169833 0.888747
0 0.417411 0.847318
0.00321965 0.438819 0.868742
0.414633 0.414633 0.844556
0.818906 0.388983 0.818906
1 0.364462 0.794385
0 0.769207 0.769207
0 0.782345 0.782345
0.318395 0.748318 0.748318
0.71725 0.71725 0.71725
1 0.690288 0.690288
0 1 0.681682
0 1 0.693263
0.227878 1 0.657786
0.626062 0.999985 0.626062
0.999847 0.999878 0.598932
0 0 1
0.0849775 0 1
0.467643 0 1
0.849638 0 1
1 0 1
0 0.0691234 1
0.0769818 0.0769818 1
0.49099 0.0446174 1
0.898604 0.0236515 1
1 0.0134279 1
0 0.412345 1
0.000228885 0.433799 1
0.408087 0.408087 1
0.810834 0.380926 1
1 0.355856 1
0 0.760662 1
0 0.773678 1
0.309483 0.739406 1
0.708171 0.708171 1
1 0.681086 1
0 1 1
0 1 1
0.218708 1 1
0.616815 0.999954 0.999908
0.997513 0.997543 0.997497
