Fusion/LUTs/Alexandru-Don-LUTs-v2/Alexandru-Don-LUTs/Monitoring Luts/Monitoring Lut 1.cube
TITLE "Generated by Resolve"
LUT_3D_SIZE 9
0 0 0
0.0524758 0 0
0.155184 0 0
0.328054 0 0
0.533486 0 0
0.722042 0 0
0.901091 0 0
1 0 0
1 0 0
0 0.0439002 0
0.039826 0.039826 0
0.14168 0.0293736 0
0.314992 0.00454719 0
0.522362 0 0
0.714763 0 0
0.900008 0 0
1 0 0
1 0 0
0 0.122744 0
0.0103151 0.120562 0
0.115587 0.115587 0
0.297887 0.0954452 0
0.516579 0.0702068 0
0.720623 0.0523537 0
0.915694 0.0393988 0
1 0.0288853 0
1 0.0219425 0
0 0.252323 0
0 0.256962 0
0.0607004 0.263127 0
0.251789 0.251789 0
0.477562 0.233631 0
0.687251 0.221439 0
0.886854 0.212985 0
1 0.205478 0
1 0.198123 0
0 0.42623 0
0 0.434546 0
0.00762951 0.445991 0
0.194797 0.438727 0
0.423011 0.423011 0
0.633494 0.411612 0
0.832151 0.402228 0
0.997955 0.392096 0
1 0.380896 0
0 0.608881 0
0 0.618158 0
0 0.629694 0
0.155108 0.62092 0
0.380102 0.601984 0
0.586603 0.586618 0
0.781491 0.573449 0
0.97322 0.560708 0
1 0.548074 0
0 0.784573 0
0 0.791653 0
0 0.799176 0
0.113161 0.787015 0
0.336065 0.765988 0
0.541375 0.749416 0
0.735454 0.73547 0
0.926604 0.722133 0
1 0.708965 0
0 0.948028 0
0 0.954238 0
0 0.960784 0
0.0696269 0.947936 0
0.29192 0.926299 0
0.496696 0.909209 0
0.690379 0.89485 0
0.881163 0.881163 0
1 0.867735 0
0 1 0
0 1 0
0 1 0
0.0268254 1 0
0.246906 1 0
0.451484 1 0
0.644953 1 0
0.835676 1 0
0.999924 0.999954 0
0 0 0.0545968
0.0514076 0 0.0514076
0.153872 0 0.0415656
0.326619 0 0.0118715
0.532128 0 0
0.720974 0 0
0.900359 0 0
1 0 0
1 0 0
0 0.0425269 0.0425269
0.0384375 0.0384375 0.0384375
0.140307 0.027985 0.0280003
0.313878 0.0040589 0.00488289
0.521675 0 0
0.714702 0 0
0.90071 0 0
1 0 0
1 0 0
0 0.121889 0.0112764
0.0099031 0.119982 0.00991836
0.115785 0.115785 0.00717174
0.298939 0.0964981 7.62951e-05
0.518273 0.0719005 0
0.722591 0.0543374 0
0.918013 0.0417182 0
1 0.031632 0
1 0.0240635 0
0 0.253788 0
0 0.258732 0
0.0628214 0.265248 0
0.254475 0.254475 0
0.480415 0.236484 0
0.690181 0.224369 0
0.889921 0.216068 0
1 0.208743 0
1 0.201205 0
0 0.429114 0
0 0.437369 0
0.00968948 0.449012 0
0.198047 0.441993 0
0.426154 0.426154 0
0.636393 0.414511 0
0.834806 0.404883 0
0.99852 0.394644 0
1 0.383169 0
0 0.612131 0
0 0.621149 0
0 0.632563 0
0.157748 0.62356 0
0.382422 0.604303 0
0.588724 0.588724 0
0.783597 0.575555 0
0.975372 0.56286 0
1 0.550072 0
0 0.787106 0
0 0.793835 0
0 0.801343 0
0.115389 0.789242 0
0.338094 0.768017 0
0.543328 0.751354 0
0.737484 0.737484 0
0.928649 0.724193 0
1 0.710887 0
0 0.950225 0
0 0.956207 0
0 0.962829 0
0.0716564 0.949981 0
0.293797 0.928191 0
0.498573 0.911086 0
0.692317 0.896788 0
0.883116 0.883116 0
1 0.869581 0
0 1 0
0 1 0
0 1 0
0.0285954 1 0
0.248737 1 0
0.453269 1 0
0.646891 1 0
0.837583 1 0
0.999939 0.999969 0
0 0 0.163806
0.0482185 0 0.160525
0.150347 0 0.150347
0.323033 0 0.120592
0.52871 0 0.0823377
0.717983 0 0.0497139
0.898177 0 0.0227359
1 0 0.00608835
1 0 0
0 0.0389563 0.151263
0.0348669 0.0348669 0.147173
0.136904 0.0245975 0.136904
0.310857 0.00273136 0.108415
0.519326 0 0.0729534
0.713649 0 0.0453956
0.901167 0 0.0252537
1 0 0.0135653
1 0 0.00407416
0 0.119493 0.119493
0.00862135 0.118029 0.118029
0.115282 0.115267 0.115282
0.299794 0.0973526 0.0973526
0.520012 0.07364 0.07364
0.725063 0.0568093 0.0568093
0.921096 0.0448157 0.0448157
1 0.0351568 0.0351568
1 0.0268406 0.0268406
0 0.255375 0.0529335
0 0.260746 0.0583047
0.065568 0.267994 0.065568
0.257755 0.257755 0.0553292
0.484092 0.240146 0.037705
0.69424 0.228412 0.026154
0.894118 0.220264 0.0201724
1 0.212772 0.0148775
1 0.205035 0.00958267
0 0.432547 0
0 0.44126 0.00462348
0.0125734 0.453162 0.0124971
0.202182 0.446113 0.00756847
0.430182 0.430182 0
0.640223 0.418357 0
0.838163 0.408255 0
0.999146 0.39736 0
1 0.385595 0
0 0.616144 0
0 0.625147 0
0 0.636225 0
0.160891 0.626719 0
0.385122 0.607004 0
0.591211 0.591211 0
0.785962 0.57792 0
0.977661 0.565148 0
1 0.5523 0
0 0.789883 0
0 0.796475 0
0 0.803769 0
0.117647 0.791501 0
0.340368 0.770291 0
0.545586 0.753628 0
0.739635 0.739635 0
0.930709 0.726238 0
1 0.712947 0
0 0.952422 0
0 0.958495 0
0 0.965011 0
0.0737621 0.952087 0
0.295949 0.930327 0
0.500679 0.913191 0
0.694316 0.898787 0
0.8851 0.8851 0
1 0.871595 0
0 1 0
0 1 0
0 1 0
0.030396 1 0
0.250767 1 0
0.455329 1 0
0.648844 1 0
0.839582 1 0
0.999939 0.999969 0
0 0 0.35668
0.0383459 0 0.353094
0.140276 0 0.342702
0.312963 0 0.312963
0.518853 0 0.274922
0.708568 0 0.242756
0.889738 0 0.215885
1 0 0.193515
1 0 0.175341
0 0.0288701 0.343618
0.0248112 0.0248112 0.339559
0.127123 0.0148165 0.329549
0.301564 0.00015259 0.301564
0.510903 0 0.266972
0.706554 0 0.240742
0.895369 0 0.221515
1 0 0.20618
1 0 0.193133
0 0.110826 0.313252
0.00440986 0.110124 0.312566
0.108736 0.108736 0.311162
0.294286 0.0918441 0.294286
0.515419 0.0690471 0.271473
0.721233 0.0529793 0.255406
0.91783 0.0415351 0.243977
1 0.0322728 0.234714
1 0.0250858 0.22678
0 0.250645 0.250645
0 0.256443 0.256443
0.0618753 0.264317 0.264317
0.25452 0.25452 0.25452
0.481407 0.237476 0.237476
0.691859 0.226047 0.226047
0.891783 0.217929 0.217929
1 0.210269 0.210269
1 0.20238 0.20238
0 0.429755 0.185809
0 0.438743 0.194812
0.0109865 0.450767 0.206821
0.199756 0.443702 0.199756
0.427649 0.427649 0.183719
0.6374 0.415534 0.171588
0.834821 0.404913 0.160967
0.998306 0.39353 0.149599
1 0.381582 0.137652
0 0.613596 0.147784
0 0.622538 0.156725
0 0.633143 0.167315
0.157305 0.623117 0.157305
0.381262 0.603128 0.137316
0.587182 0.587182 0.121355
0.78172 0.573693 0.107866
0.973342 0.56083 0.0950179
1 0.548043 0.0822156
0 0.785901 0.112032
0 0.792538 0.1187
0 0.799619 0.125765
0.113436 0.787289 0.113451
0.336141 0.766064 0.0922103
0.541268 0.749294 0.0754406
0.735225 0.735225 0.0613718
0.926284 0.721813 0.0482032
1 0.708537 0.0359197
0 0.948165 0.0698405
0 0.954223 0.0758984
0 0.960601 0.0822766
0.0693675 0.947692 0.0693675
0.291539 0.925933 0.0478065
0.496223 0.908736 0.0320439
0.689845 0.894301 0.018967
0.880598 0.880598 0.00654612
1 0.867124 0.000457771
0 1 0.027924
0 1 0.0332189
0 1 0.0385138
0.0263218 1 0.0265812
0.246326 1 0.00663767
0.450782 1 0
0.644236 1 0
0.835081 1 0
0.999924 0.999954 0
0 0 0.587915
0.0253147 0 0.584009
0.127184 0 0.573556
0.299992 0 0.543923
0.506203 0 0.506203
0.696498 0 0.474617
0.87866 0 0.448737
1 0 0.427863
1 0 0.41088
0 0.0157778 0.574472
0.011902 0.0118105 0.570504
0.114412 0.00549325 0.5608
0.289525 0 0.533471
0.500023 0 0.500023
0.697093 0 0.475212
0.887022 0 0.457099
1 0 0.442481
1 0 0.430182
0 0.099382 0.545754
0.000717174 0.0997787 0.546151
0.0997024 0.0997024 0.546075
0.28632 0.0838788 0.530251
0.508141 0.0617685 0.508141
0.714549 0.0462959 0.492668
0.911635 0.0353399 0.481712
1 0.0266423 0.472908
1 0.0214084 0.465339
0 0.243137 0.487068
0 0.249439 0.49337
0.055375 0.257816 0.501747
0.248569 0.248569 0.4925
0.475868 0.231937 0.475868
0.686519 0.220706 0.464637
0.886336 0.212482 0.456413
1 0.204761 0.448707
1 0.196521 0.440467
0 0.42417 0.42417
0 0.43328 0.43328
0.00714122 0.445274 0.445274
0.194385 0.438315 0.438315
0.42208 0.42208 0.42208
0.631373 0.409491 0.409491
0.828183 0.39826 0.39826
0.996796 0.386664 0.386664
1 0.374563 0.374563
0 0.608042 0.38616
0 0.616754 0.394873
0 0.626856 0.404974
0.150607 0.616434 0.394537
0.374304 0.596185 0.374304
0.580072 0.580072 0.35819
0.774533 0.566491 0.34461
0.96614 0.553628 0.331746
1 0.540749 0.318883
0 0.779004 0.349096
0 0.785458 0.35555
0 0.792508 0.362585
0.106264 0.780118 0.35021
0.328908 0.758831 0.328908
0.533928 0.741955 0.312047
0.727794 0.727794 0.297887
0.918898 0.714427 0.284504
1 0.701122 0.271199
0 0.940932 0.306538
0 0.946883 0.31249
0 0.953201 0.318822
0.0619974 0.940322 0.305943
0.284138 0.918517 0.284138
0.488731 0.901244 0.26685
0.682277 0.886748 0.252354
0.873137 0.873137 0.238758
1 0.859663 0.225269
0 1 0.262425
0 1 0.268086
0 1 0.274037
0.0195773 1 0.260868
0.238834 1 0.238834
0.443259 1 0.221378
0.636774 1 0.206851
0.827649 0.999985 0.193256
0.999893 0.999924 0.179843
0 0 0.798459
0.0139162 0 0.794476
0.115663 0 0.783917
0.28864 0 0.754452
0.495277 0 0.717144
0.686473 0 0.686473
0.869871 0 0.66183
1 0 0.642176
1 0 0.626307
0 0.00624094 0.784863
0.00527962 0.00451667 0.781048
0.103471 0.00062562 0.771725
0.279332 0 0.745144
0.491112 0 0.712993
0.689601 0 0.689586
0.880583 0 0.672541
1 0 0.658717
1 0 0.647044
0 0.0902724 0.758511
0 0.0913252 0.759579
0.0926223 0.0926223 0.760876
0.280232 0.0778058 0.746059
0.502724 0.0563668 0.724605
0.709667 0.041413 0.709667
0.907271 0.0309758 0.699229
1 0.0238346 0.690852
1 0.0188602 0.683467
0 0.237491 0.703319
0 0.244205 0.710018
0.0506752 0.253101 0.718929
0.244434 0.244419 0.710246
0.472023 0.228077 0.693904
0.682704 0.216892 0.682704
0.88249 0.208637 0.674449
1 0.200824 0.666636
1 0.192126 0.657954
0 0.420249 0.64213
0 0.429419 0.651286
0.00485237 0.44155 0.663432
0.190585 0.434516 0.656397
0.417929 0.417929 0.639811
0.626673 0.404791 0.626673
0.823072 0.393164 0.61503
0.995621 0.381308 0.603189
1 0.369039 0.590921
0 0.603998 0.603998
0 0.612436 0.612436
0 0.622095 0.622095
0.145434 0.611261 0.611261
0.368856 0.590738 0.590738
0.574456 0.574456 0.574456
0.768948 0.560906 0.560906
0.96051 0.547997 0.547997
1 0.535027 0.535027
0 0.773663 0.565621
0 0.779919 0.571893
0 0.786892 0.578851
0.100679 0.774533 0.566491
0.323217 0.75314 0.545098
0.528099 0.736126 0.528084
0.722026 0.722026 0.513985
0.9131 0.708629 0.500587
1 0.695201 0.48716
0 0.935302 0.522789
0 0.941146 0.528634
0 0.947478 0.534966
0.0562295 0.934554 0.522042
0.278264 0.912657 0.500145
0.48278 0.895293 0.48278
0.676432 0.880888 0.468391
0.867262 0.867262 0.454749
1 0.853681 0.441169
0 1 0.478508
0 1 0.484108
0 1 0.490089
0.0142672 1 0.47689
0.232914 1 0.454795
0.437293 1 0.437293
0.630915 1 0.422873
0.82179 0.999954 0.409293
0.999878 0.999908 0.39585
0 0 0.986877
0.00663767 0 0.985077
0.105196 0 0.980423
0.278325 0 0.952193
0.485527 0 0.915434
0.677684 0 0.885725
0.862608 0 0.862608
1 0 0.844282
1 0 0.829252
0 0.00137331 0.98085
0.000732433 0.000183108 0.978531
0.0938277 0 0.970123
0.270558 0 0.944411
0.483635 0 0.913558
0.683391 0 0.891417
0.87538 0 0.87538
1 0 0.862303
1 0 0.851194
0 0.0826276 0.958923
0 0.0843519 0.960647
0.0868238 0.0868391 0.963119
0.275303 0.0728771 0.949157
0.498466 0.0520943 0.928389
0.705959 0.037705 0.914
0.904021 0.0277409 0.904036
1 0.021912 0.896025
1 0.0169833 0.888747
0 0.233173 0.907027
0 0.24004 0.913893
0.0471809 0.249622 0.923476
0.241413 0.241413 0.915267
0.469139 0.225193 0.899046
0.679911 0.214099 0.887953
0.879667 0.205814 0.879683
1 0.197726 0.87158
1 0.18851 0.862364
0 0.417411 0.847318
0 0.426566 0.856474
0.00321965 0.438819 0.868742
0.187671 0.431601 0.861524
0.414633 0.414633 0.844556
0.62295 0.401068 0.830991
0.818906 0.388983 0.818906
0.994614 0.376867 0.80679
1 0.364462 0.794385
0 0.60087 0.808896
0 0.608911 0.816953
0 0.618189 0.826215
0.141176 0.606989 0.81503
0.364309 0.586175 0.794217
0.569863 0.569863 0.777905
0.764324 0.556283 0.764324
0.955795 0.543282 0.751324
1 0.530236 0.738277
0 0.769207 0.769207
0 0.775387 0.775387
0 0.782345 0.782345
0.0959793 0.769848 0.769848
0.318395 0.748318 0.748318
0.523339 0.731365 0.731365
0.71725 0.71725 0.71725
0.908217 0.703746 0.703761
1 0.690288 0.690288
0 0.930602 0.726116
0 0.936355 0.731899
0 0.942718 0.738247
0.0513924 0.929717 0.725261
0.273365 0.907759 0.703288
0.477913 0.890425 0.685954
0.671565 0.876036 0.671565
0.862318 0.862318 0.657847
1 0.848753 0.644282
0 1 0.681682
0 1 0.687236
0 1 0.693263
0.00984207 1 0.680034
0.227878 1 0.657786
0.43241 1 0.640452
0.626062 0.999985 0.626062
0.816846 0.999939 0.612375
0.999847 0.999878 0.598932
0 0 1
0.00180056 0 1
0.0950179 0 1
0.268544 0 1
0.476341 0 1
0.669444 0 1
0.855817 0 1
1 0 1
1 0 0.998276
0 0 1
0 0 1
0.0846876 0 1
0.262562 0 1
0.477012 0 1
0.677897 0 1
0.870695 0 1
1 0 1
1 0 1
0 0.0755932 1
0 0.0782177 1
0.0817578 0.0817578 1
0.270878 0.068452 1
0.494545 0.0481575 1
0.702647 0.0344091 1
0.901244 0.0254368 1
1 0.0202029 1
1 0.0151217 1
0 0.229313 1
0 0.236454 1
0.0441291 0.246555 1
0.238697 0.238697 1
0.46656 0.222629 1
0.677409 0.211582 1
0.877028 0.203174 1
1 0.19469 1
1 0.184985 1
0 0.414923 1
0 0.424079 1
0.00172427 0.436332 1
0.184848 0.428794 1
0.411383 0.411383 0.999924
0.619226 0.397345 0.998825
0.814908 0.384985 0.996078
0.993667 0.372686 0.993347
1 0.360098 0.9897
0 0.597848 0.994034
0 0.60557 0.995773
0 0.614359 0.997742
0.136965 0.602777 0.995193
0.360037 0.581918 0.989914
0.56556 0.56556 0.978073
0.759945 0.551904 0.964416
0.951278 0.538766 0.951278
1 0.525658 0.938155
0 0.76495 0.969421
0 0.771145 0.975616
0 0.778027 0.982498
0.0915389 0.765393 0.969863
0.313909 0.743832 0.948302
0.518822 0.726864 0.931334
0.712688 0.712688 0.917159
0.903609 0.699138 0.903609
1 0.685664 0.890135
0 0.926146 0.926146
0 0.931914 0.931914
0 0.938216 0.938201
0.0467689 0.925032 0.925032
0.268711 0.90309 0.90309
0.47332 0.885817 0.885817
0.666941 0.871397 0.871397
0.857649 0.857664 0.857664
1 0.844068 0.844068
0 1 0.881529
0 1 0.887144
0 1 0.893126
0.00549325 1 0.879728
0.22327 1 0.857649
0.427817 1 0.840314
0.621378 0.999969 0.825849
0.812192 0.999924 0.812192
0.999832 0.999863 0.79884
0 0 1
0 0 1
0.0849775 0 1
0.259022 0 1
0.467643 0 1
0.661967 0 1
0.849638 0 1
1 0 1
1 0 1
0 0 1
0 0 1
0.0758373 0 1
0.254902 0 1
0.470787 0 1
0.672847 0 1
0.866377 0 1
1 0 1
1 0 1
0 0.0691234 1
0 0.0725109 1
0.0769818 0.0769818 1
0.266758 0.0643168 1
0.49099 0.0446174 1
0.699641 0.0313878 1
0.898604 0.0236515 1
1 0.0184939 1
1 0.0134279 1
0 0.225574 1
0 0.233173 1
0.0412909 0.243748 1
0.236149 0.236164 1
0.464103 0.220172 1
0.674983 0.209155 1
0.874388 0.200534 1
1 0.191455 1
1 0.181292 1
0 0.412345 1
0 0.421683 1
0.000228885 0.433799 1
0.181903 0.425834 1
0.408087 0.408087 1
0.615457 0.393576 1
0.810834 0.380926 1
0.99266 0.368322 1
1 0.355856 1
0 0.594491 1
0 0.602167 1
0 0.610452 1
0.132799 0.598611 1
0.35581 0.577691 1
0.561303 0.561288 1
0.755596 0.547555 1
0.946807 0.53431 1
1 0.521218 1
0 0.760662 1
0 0.766918 1
0 0.773678 1
0.087129 0.760983 1
0.309483 0.739406 1
0.514382 0.722423 1
0.708171 0.708171 1
0.898955 0.694499 1
1 0.681086 1
0 0.921553 1
0 0.927489 1
0 0.933639 1
0.0425422 0.92047 1
0.264179 0.898573 1
0.468757 0.88127 1
0.662287 0.866758 1
0.852995 0.852995 1
0.999985 0.839521 0.999985
0 1 1
0 1 1
0 1 1
0.00132753 1 1
0.218708 1 1
0.42327 1 0.999969
0.616815 0.999954 0.999908
0.80763 0.999893 0.999863
0.997513 0.997543 0.997497
