Fusion/LUTs/Alexandru-Don-LUTs-v2/Alexandru-Don-LUTs/Monitoring Luts/Monitoring Lut 2.cube
TITLE "Generated by Resolve"
LUT_3D_SIZE 17
0 0 0
0.0427405 0 0
0.0844282 0 0
0.133257 0 0
0.202152 0 0
0.286473 0 0
0.380301 0 0
0.478691 0 0
0.575021 0 0
0.664256 0 0
0.750286 0 0
0.83537 0 0
0.919692 0 0
1 0 0
1 0 0
1 0 0
1 0 0
0 0.0359197 0
0.0325933 0.0325933 0
0.0734874 0.0295567 0
0.121996 0.0245212 0
0.190768 0.0139467 0
0.275074 0 0
0.369329 0 0
0.46836 0 0
0.565423 0 0
0.655985 0 0
0.743572 0 0
0.830381 0 0
0.917678 0 0
1 0 0
1 0 0
1 0 0
1 0 0
0 0.0697337 0
0.0224155 0.0663462 0
0.0635996 0.0635996 0
0.112398 0.058854 0
0.181949 0.0490578 0
0.267262 0.0354772 0
0.362814 0.019791 0
0.463508 0.00349432 0
0.562814 0 0
0.656214 0 0
0.746548 0 0
0.837003 0 0
0.926909 0 0
1 0 0
1 0 0
1 0 0
1 0 0
0 0.107073 0
0.00715648 0.104631 0
0.0492103 0.102754 0
0.0997024 0.0997024 0
0.170993 0.0916457 0
0.258671 0.0804303 0
0.357275 0.0678111 0
0.46099 0.0545357 0
0.563531 0.0429541 0
0.659556 0.0339055 0
0.752468 0.0262913 0
0.844541 0.0193942 0
0.936202 0.0133822 0
1 0.00784314 0
1 0.00254826 0
1 0 0
1 0 0
0 0.155932 0
0 0.155169 0
0.0234684 0.156374 0
0.0767071 0.156054 0
0.151125 0.151125 0
0.242145 0.143252 0
0.342992 0.132876 0
0.449027 0.12192 0
0.553368 0.112139 0
0.650828 0.104524 0
0.745144 0.0983139 0
0.838804 0.0930037 0
0.93164 0.0881819 0
1 0.0836805 0
1 0.079881 0
1 0.0759747 0
1 0.0725567 0
0 0.218799 0
0 0.221698 0
0 0.225391 0
0.0492561 0.227512 0
0.126085 0.224979 0
0.218296 0.218296 0
0.320821 0.209583 0
0.428443 0.200229 0
0.533928 0.191608 0
0.632761 0.185336 0
0.728374 0.180438 0
0.822889 0.175982 0
0.916625 0.172061 0
1 0.168536 0
1 0.164965 0
1 0.161715 0
1 0.158251 0
0 0.294911 0
0 0.299336 0
0 0.304723 0
0.0190738 0.308537 0
0.0968643 0.306996 0
0.190814 0.302052 0
0.29453 0.29453 0
0.402991 0.286015 0
0.509819 0.278721 0
0.609339 0.273152 0
0.70544 0.268727 0
0.800717 0.265034 0
0.894621 0.26128 0
0.987961 0.257664 0
1 0.254292 0
1 0.250401 0
1 0.246525 0
0 0.377768 0
0 0.383825 0
0 0.390448 0
0 0.395209 0
0.06804 0.395148 0
0.1626 0.390814 0
0.267018 0.384009 0
0.376455 0.376455 0
0.483314 0.369207 0
0.583062 0.363867 0
0.67953 0.359808 0
0.774273 0.355581 0
0.867842 0.351476 0
0.960952 0.347662 0
1 0.343175 0
1 0.338506 0
1 0.333791 0
0 0.464347 0
0 0.471229 0
0 0.478614 0
0 0.484459 0
0.0433814 0.484611 0
0.138354 0.48069 0
0.243168 0.474266 0
0.352224 0.466346 0
0.458976 0.458976 0
0.558511 0.453422 0
0.653986 0.448386 0
0.74815 0.443565 0
0.84094 0.438697 0
0.93257 0.433371 0
1 0.428122 0
1 0.422446 0
1 0.416678 0
0 0.550942 0
0 0.558236 0
0 0.566217 0
0 0.571832 0
0.025864 0.572168 0
0.120409 0.567819 0
0.224552 0.560739 0
0.33315 0.552361 0
0.438987 0.544076 0
0.537331 0.537331 0
0.631952 0.531441 0
0.724926 0.525429 0
0.816602 0.519448 0
0.907881 0.513787 0
0.998734 0.507805 0
1 0.501762 0
1 0.496086 0
0 0.637247 0
0 0.644388 0
0 0.651698 0
0 0.657069 0
0.00944533 0.656275 0
0.103212 0.651148 0
0.2065 0.643198 0
0.313741 0.633463 0
0.41854 0.62414 0
0.516274 0.6168 0
0.610086 0.610086 0
0.702617 0.603647 0
0.794308 0.597665 0
0.88513 0.591546 0
0.97586 0.585473 0
1 0.579461 0
1 0.573343 0
0 0.721508 0
0 0.727794 0
0 0.734508 0
0 0.738369 0
0 0.736584 0
0.083772 0.730678 0
0.186038 0.721721 0
0.293004 0.711696 0
0.397482 0.702052 0
0.494743 0.69424 0
0.588617 0.687587 0
0.68098 0.68098 0
0.772259 0.674586 0
0.863188 0.668574 0
0.953719 0.662287 0
1 0.655955 0
1 0.649989 0
0 0.802121 0
0 0.80763 0
0 0.813046 0
0 0.816449 0
0 0.814343 0
0.0632944 0.807858 0
0.165652 0.798993 0
0.272206 0.788571 0
0.376471 0.778714 0
0.473838 0.770993 0
0.5673 0.763943 0
0.659525 0.757183 0
0.750927 0.750927 0
0.841474 0.744533 0
0.931884 0.738125 0
1 0.73196 0
1 0.725628 0
0 0.879927 0
0 0.884779 0
0 0.890242 0
0 0.893339 0
0 0.890898 0
0.0430152 0.884535 0
0.14493 0.875212 0
0.251362 0.864652 0
0.355734 0.854932 0
0.45272 0.846815 0
0.546166 0.83975 0
0.638437 0.833051 0
0.729488 0.826429 0
0.820096 0.820096 0
0.910536 0.813718 0
1 0.807218 0
1 0.801007 0
0 0.956542 0
0 0.961501 0
0 0.966537 0
0 0.969467 0
0 0.967178 0
0.0220645 0.960388 0
0.123873 0.950973 0
0.230442 0.940551 0
0.334447 0.930449 0
0.431601 0.922515 0
0.524849 0.915251 0
0.616892 0.908309 0
0.708125 0.901884 0
0.79852 0.895338 0
0.888792 0.888792 0
0.979355 0.882506 0
1 0.876066 0
0 1 0
0 1 0
0 1 0
0 1 0
0 1 0
0.000946059 1 0
0.102693 1 0
0.208911 1 0
0.313115 1 0
0.409918 0.997696 0
0.50312 0.990372 0
0.595376 0.983642 0
0.686305 0.976913 0
0.776669 0.970336 0
0.867185 0.964034 0
0.957458 0.957458 0
1 0.951064 0
0 1 0
0 1 0
0 1 0
0 1 0
0 1 0
0 1 0
0.0814069 1 0
0.187854 1 0
0.291737 1 0
0.38851 1 0
0.481941 1 0
0.573892 1 0
0.665049 1 0
0.755444 1 0
0.845701 1 0
0.936248 1 0
1 1 0
0 0 0.0446174
0.0419013 0 0.0419013
0.0833906 0 0.0394598
0.132235 0 0.0347601
0.201083 0 0.0242618
0.285267 0 0.00953689
0.379187 0 0
0.477592 0 0
0.573877 0 0
0.663279 0 0
0.74934 0 0
0.834485 0 0
0.919173 0 0
1 0 0
1 0 0
1 0 0
1 0 0
0 0.0347753 0.0347753
0.0314031 0.0314031 0.0314031
0.0723888 0.0284581 0.0284581
0.12079 0.0233005 0.0233005
0.189593 0.0127718 0.0127718
0.274067 0 0
0.368277 0 0
0.467445 0 0
0.564736 0 0
0.655436 0 0
0.74316 0 0
0.830488 0 0
0.918029 0 0
1 0 0
1 0 0
1 0 0
1 0 0
0 0.0685283 0.0245823
0.0213779 0.0653086 0.0213779
0.0624704 0.0624704 0.0185397
0.111482 0.0579385 0.0140078
0.181186 0.0482948 0.00436408
0.266514 0.0347295 0
0.362463 0.01944 0
0.46331 0.00331121 0
0.562936 0 0
0.656779 0 0
0.747433 0 0
0.83801 0 0
0.928252 0 0
1 0 0
1 0 0
1 0 0
1 0 0
0 0.106249 0.00877394
0.00627146 0.103746 0.00627146
0.0487373 0.102281 0.00480659
0.0993668 0.0993668 0.00189212
0.170779 0.0914321 0
0.259159 0.0809033 0
0.357794 0.0683146 0
0.461814 0.0553597 0
0.564813 0.0442359 0
0.660807 0.0351568 0
0.753872 0.0276951 0
0.846265 0.0211185 0
0.937881 0.0150607 0
1 0.00961318 0
1 0.00474556 0
1 7.62951e-05 0
1 0 0
0 0.15552 0
0 0.155337 0
0.0238346 0.156725 0
0.0772259 0.156588 0
0.152316 0.152316 0
0.243214 0.144305 0
0.344305 0.134188 0
0.450721 0.123598 0
0.554894 0.113664 0
0.652674 0.106355 0
0.747219 0.100389 0
0.840772 0.0949721 0
0.933852 0.0903944 0
1 0.0861372 0
1 0.0821393 0
1 0.0784772 0
1 0.0749981 0
0 0.219715 0
0 0.222721 0
0 0.22652 0
0.0508888 0.229129 0
0.127504 0.226398 0
0.220188 0.220188 0
0.322866 0.211627 0
0.430289 0.202075 0
0.536248 0.193927 0
0.635081 0.187655 0
0.730571 0.182635 0
0.825467 0.178561 0
0.919127 0.174563 0
1 0.170901 0
1 0.167666 0
1 0.16408 0
1 0.160616 0
0 0.296315 0
0 0.300984 0
0 0.306523 0
0.0208438 0.310307 0
0.0990768 0.309209 0
0.19292 0.304143 0
0.296635 0.296635 0
0.405554 0.288563 0
0.512093 0.280995 0
0.611673 0.275486 0
0.708141 0.271427 0
0.803082 0.267399 0
0.896986 0.263645 0
0.990631 0.260349 0
1 0.25658 0
1 0.252705 0
1 0.248981 0
0 0.379858 0
0 0.385809 0
0 0.392508 0
0 0.397681 0
0.0702983 0.397406 0
0.164889 0.393103 0
0.269703 0.386679 0
0.37882 0.37882 0
0.485893 0.371771 0
0.585763 0.366567 0
0.681865 0.362142 0
0.776791 0.358099 0
0.87039 0.354025 0
0.963058 0.349752 0
1 0.34551 0
1 0.340719 0
1 0.335546 0
0 0.46656 0
0 0.473518 0
0 0.481254 0
0 0.486824 0
0.0458381 0.487068 0
0.140963 0.483284 0
0.245533 0.476631 0
0.354849 0.468956 0
0.461387 0.461387 0
0.560708 0.455619 0
0.656352 0.450752 0
0.750271 0.445686 0
0.842786 0.440543 0
0.9346 0.435401 0
1 0.429862 0
1 0.424048 0
1 0.41854 0
0 0.553613 0
0 0.560922 0
0 0.568597 0
0 0.574502 0
0.0281224 0.574441 0
0.122652 0.570077 0
0.226993 0.56318 0
0.335195 0.554391 0
0.440955 0.546044 0
0.539406 0.539406 0
0.633692 0.533165 0
0.72665 0.527153 0
0.818463 0.521309 0
0.909468 0.515358 0
1 0.509483 0
1 0.503578 0
1 0.497612 0
0 0.639643 0
0 0.646647 0
0 0.654246 0
0 0.659159 0
0.0114748 0.658305 0
0.105409 0.653346 0
0.20824 0.644953 0
0.31545 0.635172 0
0.420432 0.626032 0
0.517861 0.618387 0
0.611933 0.611933 0
0.704417 0.605432 0
0.795834 0.599207 0
0.886915 0.593332 0
0.977554 0.587167 0
1 0.580941 0
1 0.575082 0
0 0.723674 0
0 0.730098 0
0 0.736324 0
0 0.740276 0
0 0.738552 0
0.0853742 0.73228 0
0.187839 0.723522 0
0.294621 0.713314 0
0.399023 0.703593 0
0.496544 0.69604 0
0.590127 0.689113 0
0.682475 0.682475 0
0.773999 0.676341 0
0.864652 0.670039 0
0.955169 0.663737 0
1 0.657664 0
1 0.651423 0
0 0.804074 0
0 0.809277 0
0 0.814923 0
0 0.818189 0
0 0.8159 0
0.0651255 0.809689 0
0.167178 0.800519 0
0.273716 0.790066 0
0.378225 0.780468 0
0.475319 0.772473 0
0.568765 0.765408 0
0.661234 0.758892 0
0.752377 0.752377 0
0.843107 0.746151 0
0.933577 0.739818 0
1 0.733379 0
1 0.727275 0
0 0.881498 0
0 0.886595 0
0 0.891783 0
0 0.89485 0
0 0.892668 0
0.0444953 0.886015 0
0.146456 0.876738 0
0.253086 0.866392 0
0.357183 0.856367 0
0.454261 0.848356 0
0.547753 0.841337 0
0.639857 0.834455 0
0.731167 0.828107 0
0.821607 0.821607 0
0.911925 0.815122 0
1 0.808865 0
1 0.802457 0
0 0.958328 0
0 0.962997 0
0 0.968246 0
0 0.971206 0
0 0.968627 0
0.0237736 0.962112 0
0.125566 0.952667 0
0.231861 0.94197 0
0.336126 0.932143 0
0.433005 0.923919 0
0.526253 0.916655 0
0.61854 0.909972 0
0.709514 0.903273 0
0.799908 0.896712 0
0.89044 0.89044 0
0.980728 0.883879 0
1 0.877546 0
0 1 0
0 1 0
0 1 0
0 1 0
0 1 0
0.00239567 1 0
0.104082 1 0
0.210575 1 0
0.314504 1 0
0.411307 0.999069 0
0.504784 0.99202 0
0.59675 0.985016 0
0.687678 0.978286 0
0.778302 0.971969 0
0.868559 0.965408 0
0.959106 0.959106 0
1 0.952651 0
0 1 0
0 1 0
0 1 0
0 1 0
0 1 0
0 1 0
0.0830549 1 0
0.189227 1 0
0.293294 1 0
0.390143 1 0
0.483314 1 0
0.575494 1 0
0.666453 1 0
0.756817 1 0
0.847333 1 0
0.937636 1 0
1 1 0
0 0 0.0877241
0.041062 0 0.0849928
0.0825818 0 0.0825818
0.131182 0 0.0776379
0.200031 0 0.0671397
0.284291 0 0.0525063
0.378103 0 0.0350805
0.476555 0 0.0165408
0.572992 0 0
0.662364 0 0
0.748592 0 0
0.833921 0 0
0.918746 0 0
1 0 0
1 0 0
1 0 0
1 0 0
0 0.0337377 0.0776684
0.030457 0.030457 0.0743877
0.0712902 0.0273594 0.0712902
0.119707 0.0222324 0.0661631
0.188693 0.0118715 0.0558022
0.27306 0 0.0412757
0.367529 0 0.024506
0.466819 0 0.00682078
0.564111 0 0
0.655253 0 0
0.743084 0 0
0.830747 0 0
0.918746 0 0
1 0 0
1 0 0
1 0 0
1 0 0
0 0.0675822 0.0675822
0.0203708 0.0643015 0.0643015
0.0615702 0.0615702 0.0615702
0.110735 0.0571908 0.0571908
0.180453 0.0475471 0.0475471
0.266163 0.0343633 0.0343633
0.362203 0.0191806 0.0191806
0.463233 0.00321965 0.00321965
0.563546 0 0
0.657343 0 0
0.748363 0 0
0.839429 0 0
0.929564 0 0
1 0 0
1 0 0
1 0 0
1 0 0
0 0.10547 0.0519265
0.00572213 0.103197 0.0496529
0.0483253 0.101884 0.0483253
0.0990768 0.0990768 0.0455329
0.171069 0.091722 0.0381781
0.259648 0.0813916 0.0278477
0.35845 0.0689708 0.0154269
0.463127 0.056672 0.0031281
0.566003 0.0454261 0
0.662333 0.0366827 0
0.755673 0.0294957 0
0.847929 0.0227817 0
0.939941 0.0171206 0
1 0.0118257 0
1 0.00683604 0
1 0.002533 0
1 0 0
0 0.155489 0.0225986
0 0.155642 0.0227512
0.0243381 0.157229 0.0243381
0.0782788 0.157626 0.0247196
0.15346 0.15346 0.0205692
0.244495 0.145586 0.0126955
0.346014 0.135897 0.00299077
0.452277 0.125154 0
0.556909 0.115694 0
0.654749 0.108431 0
0.749203 0.102373 0
0.843229 0.0974289 0
0.936202 0.0927291 0
1 0.0884718 0
1 0.0848554 0
1 0.0810101 0
1 0.0775006 0
0 0.220691 0
0 0.224094 0
0 0.228107 0
0.0524147 0.230655 0
0.129381 0.228275 0
0.222004 0.222004 0
0.324758 0.213535 0
0.432624 0.20441 0
0.53843 0.196109 0
0.637308 0.189899 0
0.733257 0.185321 0
0.827878 0.180972 0
0.92163 0.177066 0
1 0.173724 0
1 0.170153 0
1 0.166674 0
1 0.163424 0
0 0.298131 0
0 0.30277 0
0 0.3084 0
0.0230564 0.312535 0
0.101198 0.311315 0
0.195102 0.306325 0
0.299229 0.299229 0
0.407935 0.290959 0
0.514504 0.283406 0
0.614481 0.278294 0
0.710643 0.27393 0
0.80589 0.270207 0
0.899809 0.266468 0
0.993103 0.262806 0
1 0.259297 0
1 0.255329 0
1 0.251225 0
0 0.381857 0
0 0.388052 0
0 0.395026 0
0 0.400015 0
0.0728313 0.399939 0
0.167651 0.395865 0
0.27219 0.389181 0
0.381521 0.381521 0
0.488502 0.374395 0
0.588251 0.369055 0
0.684611 0.364889 0
0.779232 0.36054 0
0.872709 0.356359 0
0.96556 0.352255 0
1 0.347662 0
1 0.342702 0
1 0.337713 0
0 0.469245 0
0 0.476219 0
0 0.483711 0
0 0.489647 0
0.0485695 0.489799 0
0.14345 0.485771 0
0.248341 0.479438 0
0.357259 0.471366 0
0.463767 0.463767 0
0.563287 0.458198 0
0.658518 0.452918 0
0.752361 0.447791 0
0.844999 0.442756 0
0.936461 0.437278 0
1 0.431815 0
1 0.426047 0
1 0.420249 0
0 0.556146 0
0 0.563424 0
0 0.57142 0
0 0.576959 0
0.030518 0.576822 0
0.125322 0.572732 0
0.229221 0.565408 0
0.337377 0.556573 0
0.443275 0.548363 0
0.541299 0.541299 0
0.635599 0.535088 0
0.728603 0.529107 0
0.820188 0.523033 0
0.911437 0.517342 0
1 0.511315 0
1 0.505257 0
1 0.499519 0
0 0.642237 0
0 0.649348 0
0 0.65655 0
0 0.661555 0
0.0139162 0.660746 0
0.107362 0.655299 0
0.210376 0.647089 0
0.31754 0.637263 0
0.422156 0.627771 0
0.51986 0.620386 0
0.613611 0.613611 0
0.706096 0.607111 0
0.797772 0.601144 0
0.888548 0.594965 0
0.979187 0.5888 0
1 0.582834 0
1 0.576684 0
0 0.726024 0
0 0.732174 0
0 0.738521 0
0 0.74226 0
0 0.740322 0
0.0873884 0.734279 0
0.189609 0.725292 0
0.2963 0.714992 0
0.400961 0.705547 0
0.498192 0.697688 0
0.591775 0.690745 0
0.684367 0.684367 0
0.775601 0.677943 0
0.866255 0.671641 0
0.957015 0.665599 0
1 0.659236 0
1 0.653254 0
0 0.80592 0
0 0.811292 0
0 0.816648 0
0 0.819928 0
0 0.817853 0
0.0667887 0.811353 0
0.168917 0.802258 0
0.275624 0.791974 0
0.379843 0.782086 0
0.477058 0.774212 0
0.570642 0.767269 0
0.662806 0.760479 0
0.754131 0.754131 0
0.844739 0.747784 0
0.935119 0.74136 0
1 0.73518 0
1 0.728832 0
0 0.883452 0
0 0.888273 0
0 0.893706 0
0 0.896757 0
0 0.894301 0
0.0463874 0.887892 0
0.148272 0.878569 0
0.254673 0.867964 0
0.35903 0.858213 0
0.455985 0.850095 0
0.54931 0.842893 0
0.641672 0.836271 0
0.732692 0.829648 0
0.823133 0.823133 0
0.913725 0.816907 0
1 0.810376 0
1 0.803983 0
0 0.95996 0
0 0.964889 0
0 0.969894 0
0 0.972808 0
0 0.970474 0
0.0253452 0.963684 0
0.127123 0.954223 0
0.233677 0.943786 0
0.337667 0.933684 0
0.434531 0.92546 0
0.528054 0.918456 0
0.620066 0.911482 0
0.71107 0.90483 0
0.801678 0.898497 0
0.891951 0.891951 0
0.98233 0.885481 0
1 0.879225 0
0 1 0
0 1 0
0 1 0
0 1 0
0 1 0
0.00410468 1 0
0.105882 1 0
0.2121 1 0
0.316243 1 0
0.413092 1 0
0.506294 0.99353 0
0.59852 0.986786 0
0.689448 0.980056 0
0.779812 0.973465 0
0.870329 0.967178 0
0.960601 0.960601 0
1 0.954162 0
0 1 0
0 1 0
0 1 0
0 1 0
0 1 0
0 1 0
0.0845808 1 0
0.190997 1 0
0.294881 1 0
0.391653 1 0
0.485084 1 0
0.577035 1 0
0.667964 1 0
0.758587 1 0
0.848844 1 0
0.939132 1 0
1 1 0
0 0 0.139742
0.0396277 0 0.137102
0.0808881 0 0.134432
0.129458 0 0.129458
0.198383 0 0.119036
0.282506 0 0.104265
0.376333 0 0.0868544
0.474952 0 0.0684977
0.571298 0 0.0507362
0.660929 0 0.0352789
0.747234 0 0.0210574
0.832593 0 0.0074464
0.917861 0 0
1 0 0
1 0 0
1 0 0
1 0 0
0 0.032105 0.12958
0.028687 0.028687 0.126162
0.0695811 0.0256504 0.123125
0.118074 0.0205997 0.118074
0.186999 0.0101625 0.107652
0.271519 0 0.0932631
0.366033 0 0.0765698
0.465385 0 0.0589151
0.563058 0 0.0424811
0.654246 0 0.0285954
0.74229 0 0.0161135
0.830655 0 0.00550851
0.918593 0 0
1 0 0
1 0 0
1 0 0
