Fusion/LUTs/Lutify-Free-LUTs-Pack/Lutify Free LUTs Pack/Cine World Pro Warm - Amy/Lutify.me-Amy-Rec709-to-Rec709.cube
# Created with: fylm.ai - Colour Grading and Collaboration Software in Cloud 
# Website: https://fylm.ai 
# META
# Option: Gamut compress
# Block 1: IDT | Rec709
# Block 2: colourMatch | Blending Mode: Normal | {"ColorSpace":0,"CrossCovarianceLimit":50,"ReshapingIterations":1,"PercentSaturationShift":100,"PercentShadingShift":100,"ExtraShading":true,"PercentTint":100,"PercentModified":100}
# Block 3: LUT | Filmic Curve Response: Standard Contrast 1 (100%)
# Block 4: LUT | Illuminant: D60 (100%)
# Block 5: hueSaturation | Blending Mode: Normal | {"hue":0,"saturation":-0.15}
# Block 6: logPrimaries | Blending Mode: Normal | {"wheels":{"shadows":{"Y":"0","R":"1","G":"1","B":"1"},"midtones":{"Y":"0","R":"1","G":"1","B":"1"},"highlights":{"Y":"0","R":"1","G":"1","B":"1"},"offset":{"Y":"0","R":"1","G":"1","B":"1"}},"sliders":{"shadows":{"Y":0,"R":-0.097,"G":0,"B":0.158},"midtones":{"Y":0,"R":0.024,"G":0.024,"B":-0.036},"highlights":{"Y":0,"R":0.154,"G":-0.084,"B":-0.024},"offset":{"Y":0.048,"R":0,"G":0,"B":0}}}
# Block 7: smartCurves | Blending Mode: Average | [[{"x":0,"y":0},{"x":0.11328125,"y":0.085540771484375},{"x":0.21484375,"y":0.218353271484375},{"x":0.37109375,"y":0.382415771484375},{"x":0.62109375,"y":0.589447021484375},{"x":0.8125,"y":0.765228271484375},{"x":1,"y":1}],[{"x":0,"y":0},{"x":1,"y":1}],[{"x":0,"y":0},{"x":1,"y":1}],[{"x":0,"y":0},{"x":1,"y":1}]]
# Block 8: LUT | Neutral Tint: Teal Tint 4 (100%)
# Block 9: contrast | Blending Mode: Normal | {"contrast":0.1}
# Block 10: ODT | Rec709
TITLE "Lutify.me-Amy-Rec709-to-Rec709" 
LUT_3D_SIZE 5
0.000000 0.000000 0.000000
0.238633 0.000000 0.009067
0.513458 0.000000 0.024208
0.774825 0.000000 0.047102
1.000000 0.091895 0.127448
0.000000 0.203200 0.032870
0.242441 0.196960 0.000000
0.512839 0.187571 0.000000
0.782471 0.172715 0.040456
1.000000 0.201765 0.139514
0.000000 0.430398 0.124581
0.254766 0.424032 0.113116
0.529107 0.415975 0.074163
0.786264 0.416060 0.077788
1.000000 0.439092 0.183235
0.172647 0.660510 0.237129
0.293611 0.658785 0.228333
0.529004 0.651277 0.202543
0.812053 0.649205 0.157103
1.000000 0.671774 0.275142
0.000000 0.972782 0.665362
0.142038 0.974461 0.673385
0.440579 0.976588 0.693225
0.691856 0.982464 0.732905
1.000000 0.984835 0.799113
0.000000 0.022293 0.134757
0.196323 0.000000 0.180187
0.472659 0.000000 0.193198
0.757633 0.000000 0.187631
1.000000 0.158053 0.203708
0.000000 0.236264 0.311603
0.147391 0.237707 0.288785
0.481256 0.228067 0.234788
0.757678 0.209618 0.206519
1.000000 0.235034 0.214236
0.000000 0.454922 0.341937
0.106017 0.452940 0.327306
0.486573 0.446970 0.288586
0.765559 0.434004 0.253397
1.000000 0.443017 0.251619
0.000000 0.668308 0.373352
0.244492 0.670305 0.362698
0.503127 0.667002 0.339116
0.791265 0.658158 0.299143
1.000000 0.678081 0.328445
0.000000 0.973482 0.688374
0.132370 0.974394 0.689280
0.440119 0.977262 0.702759
0.691856 0.982464 0.732905
1.000000 0.984758 0.799831
0.000000 0.089157 0.316878
0.182840 0.081224 0.336383
0.464917 0.047447 0.382396
0.703075 0.091499 0.406487
1.000000 0.181769 0.381368
0.000000 0.261714 0.471033
0.000000 0.262649 0.470853
0.449255 0.263070 0.462666
0.723561 0.252791 0.444399
1.000000 0.258925 0.392852
0.000000 0.478501 0.581497
0.000000 0.480223 0.570163
0.393445 0.482130 0.562187
0.729958 0.463662 0.493013
1.000000 0.458772 0.431376
0.000000 0.690403 0.622244
0.000000 0.689409 0.610922
0.408089 0.687538 0.595772
0.737700 0.687114 0.547377
1.000000 0.695621 0.470397
0.000000 0.975446 0.764235
0.076517 0.976312 0.764708
0.433927 0.979063 0.767041
0.689062 0.984025 0.775943
1.000000 0.985670 0.806868
0.000000 0.194618 0.523130
0.085555 0.198954 0.537199
0.442351 0.181636 0.560979
0.706623 0.166258 0.580843
0.983061 0.218400 0.590960
0.000000 0.295857 0.612007
0.000000 0.293348 0.611878
0.422847 0.289598 0.625340
0.706106 0.280604 0.634477
0.986914 0.292968 0.615481
0.000000 0.509198 0.742475
0.000000 0.511236 0.742205
0.377484 0.505937 0.734726
0.693121 0.496878 0.712599
1.000000 0.488259 0.655571
0.000000 0.719115 0.812229
0.000000 0.718157 0.807178
0.345508 0.716204 0.796261
0.682170 0.710156 0.787187
1.000000 0.705689 0.685263
0.000000 0.978525 0.875221
0.000000 0.979167 0.875226
0.432489 0.982312 0.872394
0.686608 0.986744 0.866087
1.000000 0.988057 0.845006
0.000000 0.561218 0.915534
0.000000 0.560112 0.918260
0.182694 0.575067 0.923678
0.492429 0.596200 0.933921
0.901143 0.582768 0.936506
0.000000 0.594247 0.924654
0.000000 0.593210 0.925854
0.192483 0.604502 0.932296
0.503991 0.618322 0.938599
0.903997 0.602663 0.941207
0.000000 0.678480 0.949130
0.000000 0.681507 0.949870
0.200600 0.689739 0.952947
0.537503 0.695789 0.958838
0.929464 0.686799 0.959269
0.000000 0.813441 0.980084
0.000000 0.812912 0.980665
0.349839 0.814810 0.981876
0.599637 0.809740 0.982803
0.980368 0.791590 0.981726
0.517249 0.991816 1.000000
0.531479 0.992484 1.000000
0.591262 0.994677 1.000000
0.707175 0.998892 1.000000
1.000000 0.996220 1.000000
