Fusion/LUTs/Lutify-Free-LUTs-Pack/Lutify Free LUTs Pack/Cine World Pro Warm - Amy/Lutify.me-Amy-Rec709-to-Rec709.cube
# Created with: fylm.ai - Colour Grading and Collaboration Software in Cloud 
# Website: https://fylm.ai 
# META
# Option: Gamut compress
# Block 1: IDT | Rec709
# Block 2: colourMatch | Blending Mode: Normal | {"ColorSpace":0,"CrossCovarianceLimit":50,"ReshapingIterations":1,"PercentSaturationShift":100,"PercentShadingShift":100,"ExtraShading":true,"PercentTint":100,"PercentModified":100}
# Block 3: LUT | Filmic Curve Response: Standard Contrast 1 (100%)
# Block 4: LUT | Illuminant: D60 (100%)
# Block 5: hueSaturation | Blending Mode: Normal | {"hue":0,"saturation":-0.15}
# Block 6: logPrimaries | Blending Mode: Normal | {"wheels":{"shadows":{"Y":"0","R":"1","G":"1","B":"1"},"midtones":{"Y":"0","R":"1","G":"1","B":"1"},"highlights":{"Y":"0","R":"1","G":"1","B":"1"},"offset":{"Y":"0","R":"1","G":"1","B":"1"}},"sliders":{"shadows":{"Y":0,"R":-0.097,"G":0,"B":0.158},"midtones":{"Y":0,"R":0.024,"G":0.024,"B":-0.036},"highlights":{"Y":0,"R":0.154,"G":-0.084,"B":-0.024},"offset":{"Y":0.048,"R":0,"G":0,"B":0}}}
# Block 7: smartCurves | Blending Mode: Average | [[{"x":0,"y":0},{"x":0.11328125,"y":0.085540771484375},{"x":0.21484375,"y":0.218353271484375},{"x":0.37109375,"y":0.382415771484375},{"x":0.62109375,"y":0.589447021484375},{"x":0.8125,"y":0.765228271484375},{"x":1,"y":1}],[{"x":0,"y":0},{"x":1,"y":1}],[{"x":0,"y":0},{"x":1,"y":1}],[{"x":0,"y":0},{"x":1,"y":1}]]
# Block 8: LUT | Neutral Tint: Teal Tint 4 (100%)
# Block 9: contrast | Blending Mode: Normal | {"contrast":0.1}
# Block 10: ODT | Rec709
TITLE "Lutify.me-Amy-Rec709-to-Rec709" 
LUT_3D_SIZE 9
0.000000 0.000000 0.000000
0.095850 0.000000 0.000000
0.238633 0.000000 0.009067
0.373592 0.000000 0.021920
0.513458 0.000000 0.024208
0.640910 0.000000 0.031133
0.774825 0.000000 0.047102
0.906254 0.000000 0.074406
1.000000 0.091895 0.127448
0.000000 0.081578 0.019796
0.088004 0.075717 0.016570
0.237599 0.064588 0.017474
0.371739 0.021302 0.017575
0.510868 0.000000 0.017736
0.641326 0.000000 0.024256
0.774612 0.000000 0.044791
0.905627 0.000000 0.076123
1.000000 0.124518 0.129443
0.000000 0.203200 0.032870
0.051481 0.205162 0.017633
0.242441 0.196960 0.000000
0.371292 0.195176 0.000000
0.512839 0.187571 0.000000
0.635674 0.185655 0.000000
0.782471 0.172715 0.040456
0.913313 0.161890 0.082320
1.000000 0.201765 0.139514
0.000000 0.320678 0.074518
0.050792 0.319765 0.071111
0.239016 0.312815 0.057638
0.380508 0.313758 0.012695
0.517548 0.302778 0.000000
0.642671 0.301408 0.000000
0.777440 0.299839 0.049388
0.914154 0.298306 0.093989
1.000000 0.318117 0.159645
0.000000 0.430398 0.124581
0.104979 0.430007 0.120302
0.254766 0.424032 0.113116
0.397194 0.418100 0.095479
0.529107 0.415975 0.074163
0.655823 0.418786 0.062194
0.786264 0.416060 0.077788
0.911470 0.414110 0.120429
1.000000 0.439092 0.183235
0.118058 0.537227 0.179994
0.162509 0.536825 0.177537
0.284870 0.531057 0.171200
0.409976 0.530512 0.158091
0.529813 0.528103 0.136627
0.662570 0.514983 0.128751
0.793065 0.519039 0.120037
0.922148 0.520698 0.144899
1.000000 0.547264 0.219178
0.172647 0.660510 0.237129
0.203552 0.660183 0.237195
0.293611 0.658785 0.228333
0.409320 0.652142 0.214521
0.529004 0.651277 0.202543
0.669072 0.647534 0.178820
0.812053 0.649205 0.157103
0.930973 0.645861 0.171725
1.000000 0.671774 0.275142
0.040619 0.794668 0.326195
0.144703 0.794329 0.326278
0.266384 0.795945 0.319063
0.372624 0.796836 0.304828
0.495031 0.801605 0.298075
0.648937 0.800775 0.281977
0.799496 0.800362 0.265196
0.934424 0.799533 0.241268
1.000000 0.820874 0.386557
0.000000 0.972782 0.665362
0.000000 0.973405 0.669135
0.142038 0.974461 0.673385
0.314940 0.975175 0.681328
0.440579 0.976588 0.693225
0.563898 0.979556 0.709799
0.691856 0.982464 0.732905
0.858554 0.983681 0.760953
1.000000 0.984835 0.799113
0.000000 0.000000 0.065858
0.069263 0.000000 0.071792
0.208411 0.000000 0.080601
0.355208 0.000000 0.079648
0.502206 0.000000 0.075312
0.628418 0.000000 0.077136
0.766137 0.000000 0.084962
0.902397 0.000000 0.107500
1.000000 0.105054 0.149328
0.000000 0.093282 0.141934
0.042424 0.093913 0.126714
0.207217 0.085951 0.099113
0.356450 0.072692 0.087943
0.495312 0.051251 0.080989
0.632660 0.000000 0.078908
0.765834 0.000000 0.086961
0.905389 0.000000 0.110958
1.000000 0.133924 0.151639
0.000000 0.221572 0.157706
0.000000 0.218282 0.146061
0.199668 0.218342 0.125980
0.358285 0.211175 0.107654
0.502888 0.199717 0.092687
0.630194 0.193564 0.087948
0.777511 0.179103 0.095964
0.912891 0.167869 0.117988
1.000000 0.207611 0.158160
0.000000 0.330592 0.172633
0.000000 0.329958 0.169201
0.214808 0.326345 0.153932
0.356631 0.323825 0.133011
0.510128 0.318477 0.119997
0.636716 0.312167 0.102392
0.771960 0.308376 0.109277
0.913453 0.302795 0.128310
1.000000 0.327097 0.177077
0.000000 0.437459 0.199388
0.000000 0.437003 0.197293
0.213655 0.438384 0.186236
0.371383 0.436457 0.171221
0.510822 0.427922 0.155016
0.640559 0.427606 0.138345
0.780742 0.420595 0.130976
0.910216 0.422310 0.148484
1.000000 0.439101 0.200443
0.087260 0.537305 0.230796
0.144282 0.536912 0.228273
0.271226 0.534891 0.220858
0.403028 0.530714 0.208690
0.521998 0.532191 0.190361
0.652832 0.530830 0.169644
0.788272 0.519477 0.158919
0.918477 0.524921 0.170314
1.000000 0.550950 0.235484
0.150105 0.660633 0.267955
0.185793 0.660310 0.268015
0.292054 0.658750 0.258991
0.397858 0.656143 0.247170
0.522390 0.651520 0.232904
0.656120 0.652080 0.208768
0.806470 0.653418 0.197736
0.928096 0.646000 0.202238
1.000000 0.671772 0.289268
0.000000 0.797501 0.337048
0.128143 0.797163 0.337128
0.265096 0.795920 0.333750
0.368041 0.799599 0.326547
0.487186 0.801819 0.312497
0.647005 0.803409 0.299758
0.795254 0.800571 0.286201
0.931351 0.802077 0.261224
1.000000 0.822937 0.389764
0.000000 0.972769 0.668637
0.000000 0.973405 0.669135
0.142038 0.974461 0.673385
0.314940 0.975175 0.681328
0.440579 0.976588 0.693225
0.563898 0.979556 0.709799
0.691856 0.982464 0.732905
0.858554 0.983681 0.760953
1.000000 0.984809 0.799351
0.000000 0.022293 0.134757
0.061719 0.022126 0.147278
0.196323 0.000000 0.180187
0.334424 0.000000 0.198019
0.472659 0.000000 0.193198
0.613753 0.000000 0.190249
0.757633 0.000000 0.187631
0.898085 0.000000 0.185096
1.000000 0.158053 0.203708
0.000000 0.106622 0.233840
0.000000 0.104501 0.239264
0.183014 0.105340 0.234236
0.335266 0.102628 0.224362
0.481654 0.092431 0.210628
0.612111 0.081018 0.199136
0.756625 0.000000 0.191446
0.897201 0.000000 0.187371
1.000000 0.171523 0.205262
0.000000 0.236264 0.311603
0.000000 0.233842 0.304238
0.147391 0.237707 0.288785
0.322506 0.230813 0.276455
0.481256 0.228067 0.234788
0.619866 0.226150 0.222037
0.757678 0.209618 0.206519
0.900799 0.198824 0.197319
1.000000 0.235034 0.214236
0.000000 0.342823 0.326457
0.000000 0.342353 0.326505
0.112477 0.342943 0.312911
0.274352 0.349868 0.317712
0.469935 0.337440 0.272269
0.601749 0.336834 0.248611
0.753730 0.333991 0.224007
0.907126 0.325219 0.212294
1.000000 0.344633 0.228614
0.000000 0.454922 0.341937
0.000000 0.454465 0.338976
0.106017 0.452940 0.327306
0.307029 0.452386 0.315842
0.486573 0.446970 0.288586
0.620708 0.436654 0.273548
0.765559 0.434004 0.253397
0.900394 0.435479 0.237084
1.000000 0.443017 0.251619
0.000000 0.555776 0.352658
0.000000 0.555544 0.349431
0.201113 0.557454 0.342853
0.365953 0.549953 0.327819
0.507819 0.543745 0.316241
0.636802 0.543086 0.295680
0.774678 0.532227 0.271629
0.912235 0.533417 0.257236
1.000000 0.554890 0.281555
0.000000 0.668308 0.373352
0.085075 0.668007 0.369873
0.244492 0.670305 0.362698
0.371092 0.671438 0.345258
0.503127 0.667002 0.339116
0.648540 0.663625 0.319863
0.791265 0.658158 0.299143
0.920048 0.654132 0.275944
1.000000 0.678081 0.328445
0.000000 0.806047 0.402659
0.000000 0.805885 0.402688
0.163239 0.804878 0.399190
0.350942 0.802454 0.384992
0.477146 0.801942 0.374628
0.625909 0.806743 0.361247
0.779735 0.806322 0.339327
0.927581 0.804563 0.318963
1.000000 0.825038 0.426937
0.000000 0.973482 0.688374
0.000000 0.974106 0.688816
0.132370 0.974394 0.689280
0.312518 0.975122 0.693812
0.440119 0.977262 0.702759
0.569822 0.979370 0.709816
0.691856 0.982464 0.732905
0.860519 0.983573 0.761009
1.000000 0.984758 0.799831
0.000000 0.056886 0.224583
0.038361 0.056523 0.231402
0.189458 0.042569 0.260446
0.328183 0.000000 0.286034
0.467931 0.000000 0.302483
0.587664 0.057523 0.308877
0.729805 0.000000 0.295981
0.879762 0.000000 0.286544
1.000000 0.171252 0.282577
0.000000 0.119330 0.299298
0.000000 0.118215 0.303966
0.169573 0.116827 0.312984
0.322356 0.117495 0.318855
0.472687 0.117511 0.324722
0.592926 0.125806 0.318560
0.732859 0.115919 0.302783
0.886078 0.099053 0.288523
1.000000 0.183829 0.284792
0.000000 0.248084 0.403238
0.000000 0.247582 0.399971
0.108967 0.248444 0.393353
0.291307 0.251278 0.383390
0.462667 0.239849 0.364640
0.602818 0.236509 0.346386
0.753433 0.231363 0.326586
0.888677 0.220517 0.308740
1.000000 0.245163 0.288058
0.000000 0.356208 0.449756
0.000000 0.355792 0.446308
0.000000 0.362577 0.435635
0.261352 0.361049 0.442487
0.437512 0.360509 0.425059
0.591983 0.347620 0.375649
0.746966 0.342353 0.351030
0.899835 0.342779 0.328687
1.000000 0.348708 0.307794
0.000000 0.461644 0.472602
0.000000 0.461165 0.469075
0.000000 0.466707 0.461678
0.248472 0.470386 0.468519
0.394475 0.468777 0.464920
0.574001 0.458354 0.413177
0.737281 0.455985 0.376549
0.891820 0.444456 0.352888
1.000000 0.450961 0.328660
0.000000 0.563109 0.481019
0.000000 0.562772 0.481042
0.113331 0.561227 0.473912
0.288220 0.565970 0.473587
0.422229 0.569149 0.466159
0.595661 0.560360 0.431293
0.751811 0.553156 0.400965
0.896464 0.550386 0.375948
1.000000 0.558789 0.356457
0.000000 0.679424 0.499052
0.000000 0.679276 0.499063
0.154433 0.678026 0.495453
0.316717 0.679504 0.480639
0.468820 0.678945 0.466133
0.608112 0.680409 0.444532
0.766725 0.670900 0.424654
0.907955 0.669917 0.393023
1.000000 0.684807 0.393864
0.000000 0.814277 0.506386
0.000000 0.813965 0.506420
0.000000 0.812997 0.502780
0.271963 0.816239 0.495392
0.453537 0.812518 0.480989
0.614292 0.809360 0.463420
0.766296 0.811562 0.439958
0.915342 0.809720 0.411757
1.000000 0.825077 0.467997
0.000000 0.974155 0.713401
0.000000 0.974912 0.716748
0.116241 0.975034 0.717130
0.309879 0.976495 0.718688
0.437834 0.977863 0.726471
0.562356 0.980756 0.735836
0.691012 0.982997 0.746301
0.862309 0.983973 0.761568
1.000000 0.985068 0.802645
0.000000 0.089157 0.316878
0.000000 0.088117 0.319256
0.182840 0.081224 0.336383
0.323014 0.064893 0.353902
0.464917 0.047447 0.382396
0.593251 0.072090 0.407108
0.703075 0.091499 0.406487
0.865220 0.083530 0.393620
1.000000 0.181769 0.381368
0.000000 0.131989 0.363733
0.000000 0.130786 0.369495
0.163901 0.131522 0.380806
0.312056 0.139023 0.395476
0.466933 0.134278 0.414056
0.594903 0.137245 0.419869
0.708375 0.149533 0.415884
0.867718 0.137700 0.399722
1.000000 0.199830 0.384332
0.000000 0.261714 0.471033
0.000000 0.263336 0.474480
0.000000 0.262649 0.470853
0.281380 0.259489 0.467028
0.449255 0.263070 0.462666
0.588175 0.252423 0.455311
0.723561 0.252791 0.444399
0.870143 0.241199 0.414600
1.000000 0.258925 0.392852
0.000000 0.376532 0.530956
0.000000 0.373003 0.531100
0.000000 0.374154 0.527322
0.265103 0.372230 0.519868
0.410535 0.374334 0.519360
0.569232 0.367459 0.501046
0.727054 0.361932 0.468856
0.885474 0.351462 0.445405
1.000000 0.356425 0.413482
0.000000 0.478501 0.581497
0.000000 0.478181 0.577772
0.000000 0.480223 0.570163
0.254571 0.476430 0.551637
0.393445 0.482130 0.562187
0.558113 0.472539 0.543795
0.729958 0.463662 0.493013
0.886060 0.460479 0.462033
1.000000 0.458772 0.431376
0.000000 0.577409 0.606180
0.000000 0.577194 0.606182
0.000000 0.579639 0.594713
0.255943 0.576793 0.579746
0.377924 0.577175 0.590801
0.516111 0.582608 0.582808
0.713317 0.567394 0.527875
0.878724 0.563420 0.489083
1.000000 0.574354 0.446339
0.000000 0.690403 0.622244
0.000000 0.690132 0.618468
0.000000 0.689409 0.610922
0.253492 0.687215 0.603425
0.408089 0.687538 0.595772
0.553958 0.689617 0.580545
0.737700 0.687114 0.547377
0.889769 0.678222 0.509206
1.000000 0.695621 0.470397
0.000000 0.819108 0.642110
0.000000 0.818803 0.642122
0.000000 0.820401 0.638306
0.223795 0.818506 0.627072
0.423583 0.822326 0.612023
0.599282 0.821321 0.593647
0.749170 0.818950 0.564901
0.902902 0.821355 0.536537
1.000000 0.826995 0.526184
0.000000 0.975446 0.764235
0.000000 0.975446 0.764235
0.076517 0.976312 0.764708
0.300901 0.977001 0.765446
0.433927 0.979063 0.767041
0.565472 0.981061 0.769442
0.689062 0.984025 0.775943
0.862555 0.984745 0.786125
1.000000 0.985670 0.806868
0.000000 0.131026 0.410115
0.000000 0.130967 0.413359
0.168666 0.126654 0.419595
0.311554 0.127995 0.442187
0.461383 0.112177 0.461658
0.593081 0.102253 0.481536
0.711194 0.124042 0.494715
0.841823 0.149527 0.490496
1.000000 0.210368 0.481814
0.000000 0.163547 0.442945
0.000000 0.162614 0.449790
0.142873 0.164884 0.452801
0.301810 0.167059 0.469221
0.456165 0.154691 0.485676
0.589662 0.152727 0.495212
0.713411 0.167780 0.504915
0.840214 0.186523 0.497134
1.000000 0.226540 0.485108
0.000000 0.271563 0.531535
0.000000 0.273238 0.535094
0.000000 0.277541 0.538420
0.265293 0.277879 0.537918
0.436624 0.270926 0.540838
0.577930 0.270698 0.539900
0.713960 0.263771 0.532046
0.846375 0.267406 0.524254
1.000000 0.281749 0.494863
0.000000 0.388099 0.611983
0.000000 0.387764 0.611976
0.000000 0.382731 0.608317
0.240878 0.387810 0.600274
0.412017 0.386512 0.596004
0.558835 0.385055 0.587911
0.709910 0.378461 0.576356
0.853409 0.377770 0.550316
1.000000 0.380665 0.514127
0.000000 0.492130 0.655907
0.000000 0.488136 0.656073
0.000000 0.490321 0.655869
0.205326 0.493936 0.651661
0.405505 0.484270 0.640382
0.538274 0.491304 0.639566
0.704312 0.477899 0.609674
0.863934 0.472864 0.572627
1.000000 0.478129 0.529840
0.000000 0.588137 0.692180
0.000000 0.587928 0.692175
0.000000 0.590402 0.684503
0.190917 0.591552 0.676731
0.394149 0.587049 0.661606
0.517938 0.585422 0.672627
0.718610 0.584628 0.638410
0.879136 0.570621 0.598254
1.000000 0.581831 0.546323
0.000000 0.697572 0.724987
0.000000 0.697293 0.724980
0.000000 0.700165 0.717874
0.187766 0.701732 0.710648
0.383788 0.698375 0.696378
0.526605 0.697180 0.696167
0.690242 0.700017 0.673809
0.871172 0.697218 0.622369
1.000000 0.699182 0.571191
0.000000 0.823808 0.747150
0.000000 0.823509 0.747144
0.000000 0.822744 0.744006
0.127247 0.825636 0.734224
0.387300 0.824670 0.727627
0.579652 0.828242 0.703936
0.730954 0.832656 0.686775
0.896645 0.825529 0.646214
1.000000 0.831119 0.597587
0.000000 0.976692 0.813123
0.000000 0.976535 0.813117
0.000000 0.977533 0.813360
0.292633 0.978199 0.811619
0.429972 0.980865 0.812646
0.561880 0.982111 0.813829
0.686161 0.984963 0.816353
0.864179 0.985348 0.818029
1.000000 0.986571 0.818023
0.000000 0.194618 0.523130
0.000000 0.197507 0.526631
0.085555 0.198954 0.537199
0.277420 0.196093 0.540134
0.442351 0.181636 0.560979
0.575387 0.167542 0.567243
0.706623 0.166258 0.580843
0.845228 0.160918 0.591079
0.983061 0.218400 0.590960
0.000000 0.219611 0.544234
0.000000 0.221028 0.544152
0.034918 0.217478 0.554984
0.271431 0.214112 0.561694
0.442445 0.203092 0.571622
0.571755 0.195645 0.581595
0.708356 0.196883 0.591498
0.844016 0.192500 0.598103
0.984396 0.234161 0.594426
0.000000 0.295857 0.612007
0.000000 0.295456 0.615736
0.000000 0.293348 0.611878
0.239410 0.292242 0.618852
0.422847 0.289598 0.625340
0.564590 0.283095 0.631833
0.706106 0.280604 0.634477
0.853886 0.274016 0.630038
0.986914 0.292968 0.615481
0.000000 0.406789 0.686314
0.000000 0.406478 0.686299
0.000000 0.404735 0.682449
0.208905 0.400445 0.685974
0.386576 0.403591 0.688929
0.546606 0.398972 0.684411
0.697867 0.393578 0.676122
0.856885 0.395105 0.667861
0.992734 0.395289 0.642776
0.000000 0.509198 0.742475
0.000000 0.508910 0.742459
0.000000 0.511236 0.742205
0.165424 0.507639 0.738609
0.377484 0.505937 0.734726
0.527705 0.509486 0.723512
0.693121 0.496878 0.712599
0.854339 0.484270 0.698104
1.000000 0.488259 0.655571
0.000000 0.606277 0.781386
0.000000 0.606071 0.781373
0.000000 0.608674 0.781091
0.054594 0.606146 0.774990
0.367951 0.597943 0.765805
0.530298 0.598925 0.761987
0.693615 0.592813 0.748801
0.858205 0.592097 0.721767
1.000000 0.588144 0.672310
0.000000 0.719115 0.812229
0.000000 0.718846 0.812211
0.000000 0.718157 0.807178
0.000000 0.716082 0.804502
0.345508 0.716204 0.796261
0.537823 0.713719 0.787652
0.682170 0.710156 0.787187
0.869882 0.699961 0.746053
1.000000 0.705689 0.685263
0.000000 0.835369 0.838824
0.000000 0.837410 0.838662
0.000000 0.836666 0.834330
0.000000 0.836976 0.829710
0.347201 0.833847 0.827326
0.526170 0.838163 0.817581
0.697235 0.835565 0.805501
0.877183 0.832266 0.772760
1.000000 0.838713 0.711655
0.000000 0.978525 0.875221
0.000000 0.978370 0.875210
0.000000 0.979167 0.875226
0.283375 0.980629 0.873770
0.432489 0.982312 0.872394
0.558555 0.984851 0.869782
0.686608 0.986744 0.866087
0.864885 0.986805 0.858151
1.000000 0.988057 0.845006
0.000000 0.291903 0.668409
0.000000 0.291496 0.672147
0.000000 0.292433 0.675716
0.183955 0.292423 0.690235
0.381191 0.288959 0.693016
0.536040 0.276103 0.706827
0.688801 0.267703 0.712721
0.845591 0.250393 0.718708
0.982189 0.244297 0.718465
0.000000 0.306721 0.686659
0.000000 0.308991 0.686540
0.000000 0.307508 0.686436
0.177311 0.302794 0.697386
0.376717 0.297376 0.703976
0.532664 0.291920 0.710109
0.686843 0.278699 0.719662
0.844142 0.263969 0.722002
0.985334 0.259770 0.721735
0.000000 0.352761 0.725445
0.000000 0.352469 0.725423
0.000000 0.351311 0.725335
0.146048 0.347363 0.725038
0.370170 0.341199 0.734852
0.529182 0.336770 0.737167
0.681803 0.330163 0.742680
0.842134 0.307279 0.745038
0.986019 0.312932 0.741144
0.000000 0.428996 0.772504
0.000000 0.428789 0.775616
0.000000 0.427402 0.778594
0.137033 0.423676 0.775185
0.345016 0.428305 0.780418
0.499715 0.429901 0.785335
0.668418 0.421910 0.787106
0.841121 0.407317 0.780078
0.985985 0.410704 0.773472
0.000000 0.534088 0.821047
0.000000 0.533801 0.821021
0.000000 0.532594 0.820910
0.000000 0.533399 0.820464
0.324592 0.532214 0.824802
0.495362 0.528799 0.824054
0.673289 0.516581 0.820792
0.839321 0.516357 0.814351
0.994447 0.508561 0.798593
0.000000 0.628583 0.860870
0.000000 0.628387 0.858779
0.000000 0.627274 0.858675
0.000000 0.628606 0.858234
0.308183 0.628440 0.855584
0.492722 0.622456 0.855095
0.677998 0.612277 0.845837
0.839879 0.615567 0.839981
1.000000 0.613854 0.816942
0.000000 0.736869 0.889212
0.000000 0.736490 0.889177
0.000000 0.735821 0.889115
0.000000 0.737284 0.887049
0.276337 0.733975 0.885070
0.500427 0.731603 0.879198
0.680725 0.730110 0.874620
0.851572 0.722924 0.862729
1.000000 0.725359 0.834561
0.000000 0.853401 0.912698
0.000000 0.853122 0.912673
0.000000 0.852241 0.912596
0.000000 0.850458 0.911155
0.278137 0.849627 0.910753
0.487766 0.853508 0.905886
0.679583 0.852340 0.900934
0.862566 0.844521 0.893408
1.000000 0.847897 0.848689
0.000000 0.984957 0.954129
0.000000 0.984957 0.954129
0.000000 0.985644 0.953247
0.273678 0.986082 0.953011
0.408140 0.987804 0.951902
0.550762 0.989023 0.949148
0.682169 0.989894 0.941528
0.861343 0.990211 0.925364
1.000000 0.990288 0.894365
0.000000 0.561218 0.915534
0.000000 0.561101 0.915521
0.000000 0.560112 0.918260
0.000000 0.566093 0.920470
0.182694 0.575067 0.923678
0.345271 0.586633 0.929036
0.492429 0.596200 0.933921
0.688815 0.592356 0.936070
0.901143 0.582768 0.936506
0.000000 0.564858 0.918179
0.000000 0.564740 0.918165
0.000000 0.567472 0.920624
0.000000 0.573462 0.922773
0.181623 0.582438 0.924589
0.337417 0.594293 0.931177
0.496500 0.599789 0.934915
0.685720 0.600295 0.936871
0.902927 0.586651 0.937459
0.000000 0.594247 0.924654
0.000000 0.594124 0.924640
0.000000 0.593210 0.925854
0.000000 0.595301 0.929353
0.192483 0.604502 0.932296
0.339096 0.616624 0.937246
0.503991 0.618322 0.938599
0.690053 0.615456 0.940662
0.903997 0.602663 0.941207
0.000000 0.627127 0.936557
0.000000 0.630754 0.936327
0.000000 0.630057 0.937449
0.000000 0.632425 0.938269
0.202162 0.641463 0.939721
0.364227 0.649543 0.943291
0.523287 0.647770 0.949016
0.708405 0.645149 0.949693
0.919215 0.633554 0.949035
0.000000 0.678480 0.949130
0.000000 0.678356 0.950163
0.000000 0.681507 0.949870
0.000000 0.683973 0.950540
0.200600 0.689739 0.952947
0.394650 0.693412 0.955063
0.537503 0.695789 0.958838
0.713509 0.690360 0.960459
0.929464 0.686799 0.959269
0.000000 0.744812 0.965366
0.000000 0.744836 0.966186
0.000000 0.744196 0.966927
0.000000 0.749784 0.967198
0.267330 0.751006 0.969140
0.415493 0.747925 0.968831
0.554283 0.749671 0.971013
0.734682 0.747135 0.972719
0.951729 0.736846 0.971125
0.000000 0.813441 0.980084
0.000000 0.813441 0.980084
0.000000 0.812912 0.980665
0.231033 0.814129 0.980989
0.349839 0.814810 0.981876
0.463073 0.812104 0.982827
0.599637 0.809740 0.982803
0.757251 0.806868 0.982361
0.980368 0.791590 0.981726
0.262885 0.884786 0.993462
0.293388 0.884389 0.993425
0.318415 0.885743 0.993681
0.364439 0.886654 0.993895
0.444518 0.884939 0.994961
0.522393 0.887740 0.994785
0.646427 0.886504 0.995695
0.807376 0.887967 0.995072
1.000000 0.877368 0.993962
0.517249 0.991816 1.000000
0.517682 0.991806 1.000000
0.531479 0.992484 1.000000
0.545093 0.993132 1.000000
0.591262 0.994677 1.000000
0.640050 0.996199 1.000000
0.707175 0.998892 1.000000
0.837129 0.998083 1.000000
1.000000 0.996220 1.000000
