Fusion/LUTs/Lutify-Free-LUTs-Pack/Lutify Free LUTs Pack/Cine World Pro Warm - Amy/Lutify.me-Amy-Rec709-to-Rec709.cube
# Created with: fylm.ai - Colour Grading and Collaboration Software in Cloud 
# Website: https://fylm.ai 
# META
# Option: Gamut compress
# Block 1: IDT | Rec709
# Block 2: colourMatch | Blending Mode: Normal | {"ColorSpace":0,"CrossCovarianceLimit":50,"ReshapingIterations":1,"PercentSaturationShift":100,"PercentShadingShift":100,"ExtraShading":true,"PercentTint":100,"PercentModified":100}
# Block 3: LUT | Filmic Curve Response: Standard Contrast 1 (100%)
# Block 4: LUT | Illuminant: D60 (100%)
# Block 5: hueSaturation | Blending Mode: Normal | {"hue":0,"saturation":-0.15}
# Block 6: logPrimaries | Blending Mode: Normal | {"wheels":{"shadows":{"Y":"0","R":"1","G":"1","B":"1"},"midtones":{"Y":"0","R":"1","G":"1","B":"1"},"highlights":{"Y":"0","R":"1","G":"1","B":"1"},"offset":{"Y":"0","R":"1","G":"1","B":"1"}},"sliders":{"shadows":{"Y":0,"R":-0.097,"G":0,"B":0.158},"midtones":{"Y":0,"R":0.024,"G":0.024,"B":-0.036},"highlights":{"Y":0,"R":0.154,"G":-0.084,"B":-0.024},"offset":{"Y":0.048,"R":0,"G":0,"B":0}}}
# Block 7: smartCurves | Blending Mode: Average | [[{"x":0,"y":0},{"x":0.11328125,"y":0.085540771484375},{"x":0.21484375,"y":0.218353271484375},{"x":0.37109375,"y":0.382415771484375},{"x":0.62109375,"y":0.589447021484375},{"x":0.8125,"y":0.765228271484375},{"x":1,"y":1}],[{"x":0,"y":0},{"x":1,"y":1}],[{"x":0,"y":0},{"x":1,"y":1}],[{"x":0,"y":0},{"x":1,"y":1}]]
# Block 8: LUT | Neutral Tint: Teal Tint 4 (100%)
# Block 9: contrast | Blending Mode: Normal | {"contrast":0.1}
# Block 10: ODT | Rec709
TITLE "Lutify.me-Amy-Rec709-to-Rec709" 
LUT_3D_SIZE 33
0.000000 0.000000 0.000000
0.000000 0.000000 0.000000
0.000000 0.000000 0.006456
0.030883 0.000000 0.000000
0.095850 0.000000 0.000000
0.128361 0.000000 0.000000
0.162070 0.000000 0.004459
0.202040 0.000000 0.005878
0.238633 0.000000 0.009067
0.272260 0.000000 0.011214
0.310502 0.000000 0.016170
0.345155 0.000000 0.020146
0.373592 0.000000 0.021920
0.407828 0.000000 0.023592
0.445740 0.000000 0.023251
0.480403 0.000000 0.023835
0.513458 0.000000 0.024208
0.544354 0.000000 0.027704
0.575977 0.000000 0.029289
0.608193 0.000000 0.031692
0.640910 0.000000 0.031133
0.674046 0.000000 0.032495
0.699086 0.000000 0.037447
0.732655 0.000000 0.042197
0.774825 0.000000 0.047102
0.808594 0.000000 0.052069
0.849925 0.000000 0.056829
0.877136 0.000000 0.064992
0.906254 0.000000 0.074406
0.939472 0.000000 0.085561
0.965897 0.000000 0.098888
0.996863 0.000000 0.112450
1.000000 0.091895 0.127448
0.000000 0.000000 0.006576
0.000000 0.000000 0.000000
0.000000 0.000000 0.015939
0.045033 0.000000 0.000000
0.095998 0.000000 0.000000
0.127935 0.000000 0.000000
0.163877 0.000000 0.005285
0.203381 0.000000 0.007833
0.238579 0.000000 0.010736
0.274137 0.000000 0.012443
0.310491 0.000000 0.016929
0.345158 0.000000 0.020811
0.373609 0.000000 0.022363
0.407859 0.000000 0.023835
0.445772 0.000000 0.022646
0.480443 0.000000 0.023104
0.513480 0.000000 0.024856
0.544380 0.000000 0.027250
0.576017 0.000000 0.030545
0.608214 0.000000 0.031140
0.640933 0.000000 0.032532
0.674046 0.000000 0.032495
0.703277 0.000000 0.036512
0.741091 0.000000 0.041842
0.774825 0.000000 0.047102
0.808594 0.000000 0.052069
0.849925 0.000000 0.056829
0.877136 0.000000 0.064992
0.906168 0.000000 0.075246
0.939472 0.000000 0.085561
0.965897 0.000000 0.098888
0.999382 0.000000 0.112697
1.000000 0.091895 0.127448
0.000000 0.017084 0.012822
0.000000 0.018483 0.010237
0.000000 0.020363 0.024056
0.058723 0.016002 0.000000
0.097900 0.000000 0.004084
0.125518 0.000000 0.000000
0.160221 0.000000 0.007835
0.202826 0.000000 0.010925
0.240162 0.000000 0.011363
0.274009 0.000000 0.015049
0.310459 0.000000 0.018534
0.345208 0.000000 0.019516
0.376404 0.000000 0.022006
0.407967 0.000000 0.022687
0.445892 0.000000 0.022415
0.480564 0.000000 0.023979
0.509871 0.000000 0.025653
0.544538 0.000000 0.026456
0.576118 0.000000 0.029591
0.608301 0.000000 0.030014
0.640981 0.000000 0.031885
0.674070 0.000000 0.033201
0.703277 0.000000 0.037935
0.741068 0.000000 0.040439
0.774791 0.000000 0.047181
0.808511 0.000000 0.051530
0.849879 0.000000 0.056189
0.877010 0.000000 0.063821
0.906083 0.000000 0.074718
0.939358 0.000000 0.086433
0.965754 0.000000 0.099826
0.999209 0.000000 0.112259
1.000000 0.091886 0.128932
0.000000 0.053586 0.013300
0.000000 0.053501 0.013271
0.000000 0.054415 0.011267
0.052527 0.052538 0.000000
0.087433 0.052078 0.000000
0.123333 0.048557 0.005956
0.162031 0.040288 0.010655
0.201814 0.028570 0.008825
0.236272 0.000000 0.013849
0.269984 0.000000 0.017850
0.306137 0.000000 0.019721
0.340430 0.000000 0.021573
0.376587 0.000000 0.023503
0.411223 0.000000 0.021732
0.446245 0.000000 0.020278
0.480952 0.000000 0.021584
0.510222 0.000000 0.024136
0.544856 0.000000 0.025186
0.576321 0.000000 0.027728
0.608496 0.000000 0.028463
0.641093 0.000000 0.030209
0.674145 0.000000 0.031326
0.703301 0.000000 0.037069
0.741036 0.000000 0.041874
0.774727 0.000000 0.045792
0.808426 0.000000 0.050898
0.849777 0.000000 0.057761
0.876873 0.000000 0.065432
0.905907 0.000000 0.075012
0.939126 0.000000 0.086813
0.965607 0.000000 0.100768
0.999029 0.000000 0.113251
1.000000 0.104403 0.128509
0.000000 0.081578 0.019796
0.000000 0.081492 0.017233
0.000000 0.080385 0.017805
0.051596 0.078930 0.015449
0.088004 0.075717 0.016570
0.123027 0.075884 0.015350
0.162932 0.073010 0.013836
0.200148 0.069404 0.014722
0.237599 0.064588 0.017474
0.269747 0.059127 0.017765
0.304124 0.050002 0.019064
0.333544 0.041522 0.019752
0.371739 0.021302 0.017575
0.408841 0.000000 0.017353
0.446905 0.000000 0.014984
0.478100 0.000000 0.016384
0.510868 0.000000 0.017736
0.541402 0.000000 0.024613
0.576712 0.000000 0.024434
0.612752 0.000000 0.027295
0.641326 0.000000 0.024256
0.678425 0.000000 0.028797
0.703357 0.000000 0.036435
0.741004 0.000000 0.041578
0.774612 0.000000 0.044791
0.808300 0.000000 0.052448
0.849524 0.000000 0.057310
0.880396 0.000000 0.064373
0.905627 0.000000 0.076123
0.942069 0.000000 0.088741
0.968144 0.000000 0.102860
0.998846 0.000000 0.114249
1.000000 0.124518 0.129443
0.000000 0.108340 0.021702
0.000000 0.108306 0.021722
0.000000 0.107195 0.021177
0.038301 0.106663 0.020192
0.081941 0.104608 0.020961
0.122469 0.104079 0.020246
0.165653 0.103840 0.016440
0.200467 0.102363 0.015267
0.236660 0.101998 0.012765
0.269300 0.100914 0.013032
0.306650 0.097185 0.011321
0.334298 0.095903 0.001861
0.370034 0.093117 0.000000
0.403972 0.088341 0.000000
0.441292 0.077247 0.000000
0.471974 0.074960 0.000000
0.511701 0.059497 0.013522
0.542112 0.043207 0.018007
0.577240 0.000000 0.017522
0.613197 0.000000 0.018159
0.641593 0.000000 0.024852
0.678577 0.000000 0.028798
0.703459 0.000000 0.035824
0.740991 0.000000 0.038842
0.778724 0.000000 0.044128
0.812316 0.000000 0.049801
0.853198 0.000000 0.055816
0.880012 0.000000 0.065408
0.912266 0.000000 0.076797
0.941557 0.000000 0.089485
0.967672 0.000000 0.104311
0.998284 0.083391 0.114333
1.000000 0.141919 0.131583
0.000000 0.143453 0.027575
0.000000 0.143429 0.025676
0.000000 0.142054 0.025513
0.000000 0.141671 0.022419
0.064264 0.139790 0.021142
0.116124 0.141742 0.016488
0.163136 0.140209 0.012850
0.201181 0.138170 0.004099
0.235419 0.135520 0.000000
0.269737 0.133740 0.000000
0.306593 0.133967 0.000000
0.337370 0.130316 0.000000
0.370997 0.126948 0.000000
0.405092 0.124699 0.000000
0.436049 0.120763 0.000000
0.473104 0.115962 0.000000
0.509083 0.110698 0.000000
0.543200 0.109272 0.000000
0.574207 0.106003 0.000000
0.609784 0.099349 0.009804
0.642117 0.104039 0.017393
0.678906 0.101777 0.022006
0.707744 0.094892 0.033322
0.745160 0.085263 0.038908
0.778564 0.079268 0.046650
0.812051 0.073606 0.049007
0.852771 0.029853 0.054608
0.879418 0.050047 0.066393
0.911602 0.027297 0.077386
0.941002 0.023003 0.091645
0.972372 0.092961 0.105144
1.000000 0.116870 0.117634
1.000000 0.156950 0.132512
0.000000 0.172231 0.029099
0.000000 0.172192 0.029120
0.000000 0.172045 0.027973
0.000000 0.171764 0.024086
0.056459 0.172522 0.019610
0.113408 0.174238 0.008914
0.160623 0.172224 0.000000
0.207587 0.170150 0.000000
0.242620 0.167674 0.000000
0.269412 0.167292 0.000000
0.304588 0.167025 0.000000
0.334495 0.165527 0.000000
0.371827 0.162193 0.000000
0.406508 0.160673 0.000000
0.444188 0.155739 0.000000
0.471423 0.155068 0.000000
0.507075 0.151836 0.000000
0.533546 0.156694 0.000000
0.571623 0.152505 0.000000
0.606803 0.148610 0.000000
0.638769 0.148940 0.000000
0.675213 0.147474 0.021120
0.708033 0.147849 0.025996
0.745166 0.137334 0.039396
0.778452 0.132558 0.042867
0.811801 0.127525 0.048716
0.852278 0.117106 0.056549
0.886271 0.111910 0.068117
0.914311 0.113331 0.077883
0.943067 0.124947 0.092128
0.971811 0.123419 0.108073
1.000000 0.149458 0.120528
1.000000 0.177188 0.136387
0.000000 0.203200 0.032870
0.000000 0.203123 0.032912
0.000000 0.202986 0.031441
0.000000 0.204327 0.024691
0.051481 0.205162 0.017633
0.108982 0.205533 0.000000
0.154021 0.203636 0.000000
0.202950 0.200454 0.000000
0.242441 0.196960 0.000000
0.274272 0.197062 0.000000
0.304570 0.198874 0.000000
0.334166 0.198728 0.000000
0.371292 0.195176 0.000000
0.407321 0.193233 0.000000
0.445923 0.190270 0.000000
0.477028 0.192910 0.000000
0.512839 0.187571 0.000000
0.538945 0.189081 0.000000
0.573157 0.188553 0.000000
0.604193 0.188745 0.000000
0.635674 0.185655 0.000000
0.671768 0.183941 0.000000
0.704166 0.179783 0.030025
0.741105 0.177246 0.036702
0.782471 0.172715 0.040456
0.815635 0.166945 0.048593
0.855481 0.167815 0.055929
0.885511 0.158453 0.066838
0.913313 0.161890 0.082320
0.945099 0.165200 0.094624
0.973318 0.166321 0.107995
1.000000 0.170278 0.123709
1.000000 0.201765 0.139514
0.000000 0.233142 0.044453
0.000000 0.233098 0.044464
0.000000 0.232913 0.043033
0.000000 0.234323 0.038701
0.053004 0.233613 0.037151
0.104177 0.234581 0.029740
0.151620 0.234896 0.025313
0.194446 0.232809 0.019175
0.233163 0.230254 0.000000
0.275125 0.226725 0.000000
0.309031 0.225274 0.000000
0.340939 0.225691 0.000000
0.374646 0.223491 0.000000
0.412868 0.224624 0.000000
0.446610 0.221622 0.000000
0.478165 0.220929 0.000000
0.514634 0.219538 0.000000
0.540580 0.219826 0.000000
0.574533 0.218360 0.000000
0.609232 0.216396 0.000000
0.632708 0.216817 0.000000
0.668335 0.214139 0.000000
0.696455 0.213162 0.027323
0.733065 0.213142 0.031982
0.778190 0.206696 0.038704
0.811143 0.203709 0.047929
0.854910 0.196747 0.058649
0.888114 0.198586 0.069738
0.915739 0.193479 0.084293
0.943918 0.199269 0.098586
0.974636 0.200933 0.110976
1.000000 0.210914 0.125255
1.000000 0.224287 0.144290
0.000000 0.261054 0.054954
0.000000 0.261054 0.054954
0.000000 0.260778 0.055013
0.000000 0.260537 0.053527
0.024916 0.262044 0.050870
0.105900 0.263210 0.046305
0.152835 0.261965 0.044679
0.198397 0.260086 0.041071
0.229086 0.258404 0.032225
0.271898 0.255455 0.018629
0.305374 0.254808 0.000000
0.346786 0.252978 0.000000
0.372937 0.252365 0.000000
0.413881 0.249675 0.000000
0.449351 0.247201 0.000000
0.478462 0.245431 0.000000
0.515532 0.245018 0.000000
0.541710 0.246138 0.000000
0.575578 0.243071 0.000000
0.610292 0.245244 0.000000
0.637486 0.242882 0.000000
0.669049 0.242506 0.000000
0.696952 0.242850 0.020650
0.729177 0.242152 0.031220
0.773934 0.238167 0.039013
0.810742 0.232010 0.053471
0.854085 0.231828 0.058301
0.887060 0.230991 0.073661
0.914290 0.232381 0.085980
0.945382 0.233670 0.102018
0.978106 0.236333 0.115234
1.000000 0.241951 0.130574
1.000000 0.255733 0.146411
0.000000 0.294834 0.061130
0.000000 0.294834 0.061130
0.000000 0.294648 0.061173
0.000000 0.294384 0.059466
0.000000 0.293944 0.057753
0.109480 0.293083 0.056069
0.151571 0.292144 0.052386
0.193392 0.290746 0.048536
0.234973 0.288843 0.042024
0.268756 0.286886 0.034108
0.298269 0.287234 0.023110
0.343900 0.283545 0.000000
0.376246 0.280484 0.000000
0.413096 0.276533 0.000000
0.450487 0.274599 0.000000
0.484969 0.273088 0.000000
0.515483 0.271807 0.000000
0.542109 0.273688 0.000000
0.576495 0.274399 0.000000
0.614996 0.271282 0.000000
0.642172 0.269736 0.000000
0.673617 0.270450 0.000000
0.701318 0.268503 0.022552
0.733311 0.268953 0.037846
0.777782 0.266689 0.045410
0.810236 0.263120 0.057303
0.853039 0.264983 0.067276
0.885701 0.265730 0.076334
0.915894 0.267657 0.089492
0.946313 0.270499 0.102736
0.978345 0.274635 0.116628
1.000000 0.281171 0.136143
1.000000 0.285439 0.152284
0.000000 0.320678 0.074518
0.000000 0.320610 0.074533
0.000000 0.320469 0.074562
0.000000 0.320172 0.072840
0.050792 0.319765 0.071111
0.126048 0.318916 0.069421
0.161006 0.318144 0.063831
0.201178 0.314395 0.063457
0.239016 0.312815 0.057638
0.270413 0.313735 0.051671
0.302303 0.314392 0.041813
0.340010 0.311736 0.031629
0.380508 0.313758 0.012695
0.416499 0.310443 0.000000
0.449320 0.307349 0.000000
0.489889 0.303066 0.000000
0.517548 0.302778 0.000000
0.549046 0.301866 0.000000
0.580266 0.303881 0.000000
0.615349 0.302182 0.000000
0.642671 0.301408 0.000000
0.677920 0.295939 0.000000
0.701657 0.298794 0.015868
0.741452 0.298995 0.031724
0.777440 0.299839 0.049388
0.809482 0.301477 0.059999
0.851734 0.301430 0.069965
0.884099 0.299495 0.081086
0.914154 0.298306 0.093989
0.947131 0.301702 0.106002
0.978875 0.302175 0.121278
1.000000 0.308982 0.139582
1.000000 0.318117 0.159645
0.000000 0.348940 0.085668
0.000000 0.348940 0.085668
0.000000 0.351581 0.084526
0.000000 0.351422 0.082648
0.073846 0.350809 0.080833
0.125096 0.347503 0.080249
0.165351 0.346715 0.078432
0.203293 0.345669 0.074609
0.239827 0.341607 0.072112
0.268169 0.340343 0.068080
0.310599 0.340840 0.059821
0.337491 0.341981 0.049873
0.378916 0.339103 0.040210
0.416304 0.339274 0.032250
0.454371 0.339092 0.000000
0.492748 0.335499 0.000000
0.521576 0.335677 0.000000
0.554279 0.335304 0.000000
0.578515 0.335768 0.000000
0.614675 0.334717 0.000000
0.642432 0.334586 0.000000
0.677950 0.333342 0.000000
0.705601 0.333046 0.018551
0.741193 0.327870 0.043366
0.776998 0.329797 0.052338
0.812648 0.327967 0.068486
0.854299 0.325152 0.080115
0.882429 0.328778 0.089827
0.911930 0.332576 0.097527
0.947321 0.336287 0.108257
0.978457 0.337455 0.124388
1.000000 0.344407 0.143925
1.000000 0.349383 0.163567
0.000000 0.376957 0.095407
0.000000 0.376957 0.095407
0.000000 0.376871 0.095424
0.000000 0.379650 0.094264
0.064258 0.379368 0.092271
0.135107 0.375686 0.091603
0.172904 0.374978 0.089669
0.204769 0.374178 0.085610
0.233679 0.373275 0.083604
0.274544 0.371692 0.077242
0.309736 0.370145 0.072863
0.340383 0.368624 0.068237
0.378871 0.369547 0.058330
0.418491 0.370106 0.049459
0.454739 0.367380 0.045976
0.493954 0.367372 0.037936
0.524625 0.364564 0.032569
0.562670 0.364178 0.026163
0.583379 0.365452 0.015460
0.612611 0.362275 0.015090
0.645113 0.362093 0.015696
0.681251 0.357772 0.033856
0.709016 0.357944 0.040022
0.744668 0.357010 0.049726
0.780299 0.359731 0.058934
0.811678 0.359212 0.069724
0.852580 0.361327 0.080974
0.880681 0.357464 0.094552
0.910058 0.357613 0.106095
0.944732 0.365940 0.115929
0.978115 0.367305 0.128565
1.000000 0.374487 0.146883
1.000000 0.383977 0.170917
0.000000 0.404274 0.109611
0.000000 0.404274 0.109611
0.000000 0.404188 0.107535
0.040761 0.404099 0.107558
0.108784 0.403725 0.105537
0.136561 0.403425 0.103478
0.172634 0.402881 0.101454
0.206864 0.398936 0.098544
0.233579 0.398258 0.096503
0.282990 0.396674 0.092359
0.311366 0.395554 0.090278
0.348837 0.393827 0.083529
0.386474 0.391785 0.078884
0.422960 0.392861 0.069191
0.459200 0.393718 0.061054
0.495096 0.394378 0.055089
0.522405 0.392101 0.055345
0.561778 0.392047 0.048357
0.591797 0.392694 0.044714
0.617595 0.390096 0.044933
0.646695 0.390630 0.045949
0.679759 0.387009 0.046112
0.707854 0.387490 0.055827
0.747770 0.386511 0.060813
0.783466 0.385915 0.069052
0.814304 0.389744 0.077864
0.854614 0.388654 0.088483
0.878531 0.389725 0.100799
0.910607 0.390051 0.110604
0.944686 0.394818 0.122111
0.976999 0.400792 0.136483
1.000000 0.399780 0.153126
1.000000 0.409645 0.176198
0.000000 0.430398 0.124581
0.000000 0.430398 0.124581
0.046479 0.430303 0.124604
0.073402 0.430206 0.122448
0.104979 0.430007 0.120302
0.154637 0.429468 0.118217
0.170245 0.429237 0.116043
0.210708 0.428480 0.113963
0.254766 0.424032 0.113116
0.278488 0.426656 0.109800
0.322205 0.421701 0.104458
0.352289 0.420392 0.099977
0.397194 0.418100 0.095479
0.425173 0.419893 0.086478
0.459275 0.417701 0.081349
0.496246 0.418541 0.076837
0.529107 0.415975 0.074163
0.564957 0.416495 0.069046
0.600195 0.416898 0.066949
0.626028 0.418067 0.064618
0.655823 0.418786 0.062194
0.680898 0.419922 0.063568
0.714145 0.416442 0.067751
0.750509 0.416250 0.069304
0.786264 0.416060 0.077788
0.816813 0.416457 0.085747
0.853096 0.412385 0.097992
0.880156 0.413342 0.105348
0.911470 0.414110 0.120429
0.942058 0.419483 0.132001
0.976529 0.425506 0.142326
1.000000 0.433055 0.158710
1.000000 0.439092 0.183235
0.083272 0.453676 0.139708
0.083272 0.453676 0.139708
0.083272 0.453676 0.139708
0.100351 0.453570 0.139730
0.126713 0.453351 0.137548
0.139713 0.456624 0.134331
0.191767 0.455885 0.132210
0.226608 0.455198 0.130057
0.251802 0.454595 0.127868
0.286985 0.453593 0.125727
0.325990 0.452252 0.121261
0.358460 0.450940 0.116693
0.395526 0.449210 0.112075
0.426472 0.447575 0.104790
0.461868 0.445476 0.099935
0.496525 0.443185 0.097624
0.529249 0.444387 0.090754
0.567343 0.441397 0.088326
0.599808 0.438643 0.085784
0.626215 0.439931 0.084164
0.661036 0.440362 0.082621
0.682238 0.442026 0.080827
0.715839 0.442437 0.082507
0.752801 0.442448 0.084286
0.788675 0.442535 0.092346
0.822710 0.442842 0.094323
0.854525 0.443488 0.102371
0.884127 0.444531 0.113077
0.914774 0.441781 0.124930
0.941970 0.443722 0.137889
0.975266 0.454085 0.152282
1.000000 0.457754 0.167930
1.000000 0.468189 0.190656
0.050529 0.481220 0.154997
0.050529 0.481220 0.154997
0.101249 0.480997 0.152720
0.130424 0.480763 0.152768
0.133114 0.484212 0.149508
0.175310 0.483709 0.149609
0.206507 0.479729 0.148323
0.228749 0.479296 0.146066
0.258613 0.482102 0.142831
0.302762 0.480869 0.138265
0.332458 0.479872 0.138419
0.366987 0.478546 0.131350
0.394643 0.477343 0.126593
0.432232 0.475500 0.119295
0.463585 0.473767 0.119560
0.494419 0.471897 0.112022
0.533199 0.472919 0.108248
0.562843 0.470769 0.105840
0.596628 0.468137 0.100605
0.628575 0.469175 0.096365
0.660632 0.466373 0.096887
0.687368 0.463931 0.097333
0.717215 0.464874 0.099093
0.750627 0.465430 0.100966
0.787006 0.465672 0.102970
0.824700 0.465843 0.105216
0.852360 0.470996 0.111729
0.884856 0.472016 0.117284
0.917606 0.469405 0.129823
0.945779 0.475610 0.145009
0.978907 0.478267 0.159519
1.000000 0.482301 0.177731
1.000000 0.493489 0.197664
0.123306 0.508767 0.169462
0.123306 0.508767 0.169462
0.137592 0.508641 0.169486
0.150281 0.508512 0.169511
0.162000 0.508383 0.167110
0.182826 0.508114 0.164730
0.210046 0.507689 0.162371
0.241952 0.507079 0.160037
0.277769 0.506241 0.157729
0.304430 0.505506 0.155389
0.348353 0.504077 0.150662
0.372110 0.503188 0.145814
0.404109 0.505446 0.139873
0.437435 0.503895 0.137561
0.462610 0.506234 0.131338
0.494601 0.504458 0.128984
0.531211 0.502219 0.121233
0.561911 0.500163 0.118837
0.591962 0.498003 0.113577
0.626094 0.495374 0.111208
0.659245 0.492656 0.108829
0.686057 0.494127 0.107672
0.721255 0.494799 0.106698
0.755493 0.495488 0.105741
0.788542 0.492417 0.106547
0.826144 0.492832 0.109079
0.857073 0.494006 0.117632
0.888577 0.495352 0.129037
0.920321 0.493073 0.138963
0.948146 0.495505 0.150449
0.979816 0.502446 0.169461
1.000000 0.510787 0.185247
1.000000 0.518377 0.209367
0.118058 0.537227 0.179994
0.118058 0.537227 0.179994
0.134815 0.537095 0.180020
0.149322 0.536960 0.180046
0.162509 0.536825 0.177537
0.196020 0.536397 0.175078
0.224350 0.535938 0.175161
0.254599 0.531758 0.173614
0.284870 0.531057 0.171200
0.326441 0.529901 0.168847
0.342803 0.533001 0.165434
0.374128 0.531918 0.163036
0.409976 0.530512 0.158091
0.438723 0.529250 0.153080
0.466688 0.527901 0.148030
0.497550 0.529954 0.141770
0.529813 0.528103 0.136627
0.566594 0.525786 0.134321
0.592298 0.524041 0.131889
0.632353 0.521120 0.129695
0.662570 0.514983 0.128751
0.689933 0.516530 0.122108
0.730960 0.513013 0.122948
0.765325 0.513796 0.122261
0.793065 0.519039 0.120037
0.830468 0.519658 0.119764
0.857514 0.521320 0.128384
0.888607 0.522859 0.131497
0.922148 0.520698 0.144899
0.953323 0.527178 0.159007
0.979841 0.530503 0.174047
1.000000 0.539087 0.193283
1.000000 0.547264 0.219178
0.161370 0.562016 0.192298
0.161370 0.562016 0.192298
0.174562 0.561870 0.192325
0.174562 0.561870 0.192325
0.198210 0.561570 0.189755
0.219179 0.561258 0.187183
0.238212 0.560930 0.187240
0.264439 0.560414 0.187328
0.303686 0.559499 0.184850
0.325414 0.558920 0.179671
0.352694 0.558103 0.177162
0.384956 0.557012 0.174693
0.409696 0.556086 0.169519
0.439510 0.554857 0.164361
0.471842 0.557072 0.160866
0.505602 0.555382 0.155685
0.531234 0.557708 0.152030
0.563753 0.555810 0.146761
0.595533 0.553798 0.144342
0.631682 0.551329 0.142033
0.656895 0.549501 0.136627
0.694907 0.550400 0.133032
0.731787 0.551266 0.129394
0.766985 0.552192 0.128877
0.795490 0.553673 0.128324
0.833492 0.550537 0.129784
0.864008 0.548155 0.134263
0.890509 0.554110 0.139224
0.922296 0.556209 0.152075
0.953718 0.554939 0.166100
0.980834 0.562373 0.181066
1.000000 0.567421 0.200049
1.000000 0.575916 0.234782
0.171543 0.594568 0.212291
0.171784 0.594570 0.209518
0.171784 0.594570 0.209518
0.185640 0.594414 0.209546
0.198405 0.594254 0.209575
0.221617 0.593930 0.206861
0.261321 0.593249 0.204211
0.270406 0.593075 0.201471
0.295833 0.592530 0.198796
0.319453 0.591960 0.196123
0.355919 0.590954 0.193528
0.383346 0.590102 0.185340
0.409384 0.589200 0.182726
0.434454 0.588251 0.180115
0.476575 0.586472 0.174852
0.497727 0.589218 0.168337
0.537638 0.587211 0.163003
0.558029 0.589856 0.156229
0.590913 0.587953 0.153717
0.628357 0.585600 0.151331
0.659616 0.583488 0.148893
0.693737 0.584864 0.145260
0.731808 0.585834 0.141726
0.768561 0.582952 0.139637
0.806034 0.579957 0.140970
0.835390 0.581535 0.140896
0.862549 0.579502 0.145395
0.892734 0.577476 0.150253
0.920525 0.583817 0.159116
0.955283 0.586492 0.173077
0.987770 0.590175 0.190484
1.000000 0.599581 0.212053
1.000000 0.608190 0.245656
0.186765 0.627330 0.222693
0.187006 0.627333 0.219781
0.200739 0.627171 0.219811
0.213440 0.627006 0.219843
0.213440 0.627006 0.219843
0.225504 0.626842 0.216962
0.247509 0.626503 0.214116
0.272934 0.622368 0.214980
0.308103 0.621628 0.215119
0.332431 0.621051 0.209440
0.355138 0.620445 0.209557
0.383841 0.619602 0.206824
0.404400 0.618942 0.204057
0.443583 0.617545 0.198534
0.466088 0.620388 0.191984
0.496636 0.619095 0.186375
0.532047 0.617446 0.180824
0.560739 0.615992 0.175233
0.597999 0.617715 0.168660
0.625409 0.616094 0.166061
0.666532 0.617283 0.162604
0.701436 0.618738 0.155883
0.736419 0.616234 0.153607
0.772217 0.617427 0.146955
0.809850 0.614577 0.145200
0.836197 0.612596 0.146514
0.862604 0.614584 0.146782
0.895185 0.612502 0.155563
0.925022 0.614940 0.166409
0.958295 0.617854 0.181097
0.990022 0.625731 0.201755
1.000000 0.631770 0.225930
1.000000 0.644142 0.260098
0.172647 0.660510 0.237129
0.172647 0.660510 0.237129
0.172647 0.660510 0.237129
0.188871 0.660348 0.237162
0.203552 0.660183 0.237195
0.217305 0.660019 0.234178
0.252957 0.659501 0.234283
0.274078 0.659148 0.231306
0.293611 0.658785 0.228333
0.325218 0.654423 0.226169
0.349809 0.653832 0.223261
0.373090 0.653220 0.217324
0.409320 0.652142 0.214521
0.443411 0.650997 0.211737
0.466775 0.653862 0.208051
0.504626 0.652343 0.205348
0.529004 0.651277 0.202543
0.558706 0.649884 0.196747
0.597026 0.651693 0.190134
0.625209 0.650146 0.184315
0.669072 0.647534 0.178820
0.704673 0.649055 0.172125
0.743286 0.650256 0.168825
0.775602 0.647977 0.163383
0.812053 0.649205 0.157103
0.844352 0.650770 0.154315
0.870512 0.649004 0.156189
0.898821 0.647317 0.165245
0.930973 0.645861 0.171725
0.957013 0.645208 0.193369
0.991005 0.653155 0.218271
1.000000 0.663112 0.240642
1.000000 0.671774 0.275142
0.186741 0.689734 0.250557
0.186741 0.689734 0.250557
0.186741 0.689734 0.250557
0.186741 0.689734 0.250557
0.202625 0.689567 0.250593
